; generated by Slic3r 1.2.9 on 2016-08-09 at 12:22:45

; external perimeters extrusion width = 0.30mm
; perimeters extrusion width = 0.31mm
; infill extrusion width = 0.31mm
; solid infill extrusion width = 0.31mm
; top infill extrusion width = 0.31mm

M104 S200 ; set temperature
;<-- Mini Metal Maker Start Procedure -->
G21 ; set units to millimeters
G28 ; home all axes
G90 ; use absolute coordinates
G92 E0
M82 ; use absolute distances for extrusion
G1 Z0.6 F5000 ; lift nozzle to printing start height
G92 Z0
G1 Z0.5 ; raise tip enough for pressurization flow to begin
G1 X70.000 ; offset from X to do the pressurization procedure
G5 X0.000, F900.000 E5.00000 ; return to home while pressurizing
G92 E0 ; set pressurized state as the zero reference for extruder
M106 ; turn on fan
;<--end Mini Metal Maker Start Procedure -->

M109 S200 ; wait for temperature to be reached
G21 ; set units to millimeters
G90 ; use absolute coordinates
M82 ; use absolute distances for extrusion
G92 E0
G10 ; retract
G92 E0
G1 Z0.250 F1200.000
G1 X29.314 Y29.316 F1200.000
G11 ; unretract
G92 E0
G1 X29.762 Y28.868 E0.00650 F600.000
G1 X31.508 Y27.435 E0.02968
G1 X32.558 Y26.733 E0.04264
G1 X34.550 Y25.668 E0.06582
G1 X35.720 Y25.183 E0.07882
G1 X37.882 Y24.528 E0.10200
G1 X39.118 Y24.282 E0.11492
G1 X41.366 Y24.060 E0.13810
G1 X42.633 Y24.060 E0.15110
G1 X44.812 Y24.275 E0.17357
G1 X46.118 Y24.528 E0.18722 F600.000
G1 X48.280 Y25.183 E0.21040
G1 X49.450 Y25.668 E0.22339
G1 X51.442 Y26.733 E0.24657
G1 X52.492 Y27.435 E0.25954
G1 X54.238 Y28.868 E0.28271
G1 X55.133 Y29.762 E0.29569
G1 X56.566 Y31.509 E0.31888
G1 X57.266 Y32.558 E0.33182
G1 X58.331 Y34.550 E0.35500
G1 X58.815 Y35.718 E0.36797
G1 X59.471 Y37.880 E0.39115
G1 X59.718 Y39.118 E0.40411
G1 X59.940 Y41.366 E0.42729
G1 X59.940 Y42.633 E0.44029
G1 X59.718 Y44.882 E0.46348
G1 X59.471 Y46.121 E0.47644
G1 X58.815 Y48.282 E0.49962
G1 X58.332 Y49.448 E0.51256
G1 X57.267 Y51.441 E0.53575
G1 X56.564 Y52.492 E0.54873
G1 X55.131 Y54.238 E0.57190
G1 X54.238 Y55.131 E0.58487
G1 X52.492 Y56.564 E0.60804
G1 X51.442 Y57.266 E0.62101
G1 X49.450 Y58.331 E0.64418
G1 X48.282 Y58.815 E0.65715
G1 X46.120 Y59.471 E0.68034
G1 X44.882 Y59.718 E0.69329
G1 X42.633 Y59.940 E0.71648
G1 X41.366 Y59.940 E0.72948
G1 X39.118 Y59.718 E0.75266
G1 X37.880 Y59.471 E0.76562
G1 X35.718 Y58.815 E0.78880
G1 X34.550 Y58.331 E0.80177
G1 X32.558 Y57.266 E0.82495
G1 X31.508 Y56.564 E0.83791
G1 X29.762 Y55.131 E0.86109
G1 X28.870 Y54.240 E0.87403
G1 X27.436 Y52.494 E0.89721
G1 X26.732 Y51.441 E0.91021
G1 X25.667 Y49.448 E0.93340
G1 X25.183 Y48.279 E0.94637
G1 X24.528 Y46.118 E0.96954
G1 X24.282 Y44.882 E0.98248
G1 X24.060 Y42.633 E1.00567
G1 X24.060 Y41.366 E1.01867
G1 X24.282 Y39.118 E1.04185
G1 X24.528 Y37.882 E1.05477
G1 X25.183 Y35.720 E1.07795
G1 X25.668 Y34.550 E1.09095
G1 X26.733 Y32.558 E1.11413
G1 X27.435 Y31.508 E1.12710
G1 X28.869 Y29.760 E1.15029
G1 X29.282 Y29.347 E1.15628
G10 ; retract
G92 E0
G1 X49.971 Y49.971 F1200.000
G11 ; unretract
G92 E0
G1 X48.263 Y51.373 E0.02267 F600.000
G1 X46.314 Y52.414 E0.04535
G1 X44.199 Y53.056 E0.06802
G1 X42.000 Y53.273 E0.09071
G1 X39.801 Y53.056 E0.11338
G1 X37.686 Y52.414 E0.13606
G1 X35.737 Y51.373 E0.15873
G1 X34.029 Y49.971 E0.18140
G1 X32.626 Y48.263 E0.20408
G1 X31.585 Y46.313 E0.22676
G1 X30.944 Y44.199 E0.24943
G1 X30.727 Y42.000 E0.27211
G1 X30.944 Y39.800 E0.29479
G1 X31.585 Y37.686 E0.31746
G1 X32.626 Y35.737 E0.34014
G1 X34.029 Y34.028 E0.36282
G1 X35.737 Y32.626 E0.38549
G1 X37.686 Y31.585 E0.40817
G1 X39.800 Y30.944 E0.43084
G1 X42.000 Y30.727 E0.45352
G1 X44.154 Y30.939 E0.47573
G1 X46.314 Y31.585 E0.49887 F600.000
G1 X48.263 Y32.626 E0.52154
G1 X49.971 Y34.028 E0.54421
G1 X51.373 Y35.737 E0.56689
G1 X52.414 Y37.686 E0.58957
G1 X53.056 Y39.801 E0.61224
G1 X53.273 Y42.000 E0.63492
G1 X53.056 Y44.199 E0.65760
G1 X52.414 Y46.313 E0.68027
G1 X51.373 Y48.263 E0.70295
G1 X49.999 Y49.936 E0.72516
G1 X49.684 Y49.884 F1200.000
G1 X49.654 Y49.654 F1200.000
G1 X48.014 Y51.000 E0.74693 F600.000
G1 X46.143 Y52.000 E0.76870
G1 X44.112 Y52.616 E0.79048
G1 X42.000 Y52.825 E0.81226
G1 X39.888 Y52.616 E0.83403
G1 X37.857 Y52.000 E0.85581
G1 X35.986 Y51.000 E0.87758
G1 X34.346 Y49.654 E0.89935
G1 X32.999 Y48.014 E0.92113
G1 X31.999 Y46.142 E0.94290
G1 X31.384 Y44.112 E0.96467
G1 X31.175 Y42.000 E0.98645
G1 X31.384 Y39.888 E1.00822
G1 X31.999 Y37.857 E1.02999
G1 X32.999 Y35.986 E1.05176
G1 X34.346 Y34.345 E1.07355
G1 X35.986 Y32.999 E1.09532
G1 X37.857 Y31.999 E1.11709
G1 X39.888 Y31.384 E1.13886
G1 X42.000 Y31.175 E1.16063
G1 X44.110 Y31.384 E1.18240
G1 X46.143 Y31.999 E1.20419 F600.000
G1 X48.014 Y32.999 E1.22596
G1 X49.654 Y34.345 E1.24773
G1 X51.000 Y35.986 E1.26951
G1 X52.000 Y37.857 E1.29128
G1 X52.616 Y39.888 E1.31305
G1 X52.825 Y42.000 E1.33483
G1 X52.616 Y44.112 E1.35661
G1 X52.000 Y46.142 E1.37837
G1 X51.000 Y48.014 E1.40015
G1 X49.682 Y49.619 E1.42146
G1 X48.905 Y48.905 F1200.000
G1 X47.425 Y50.119 E1.44111 F600.000
G1 X45.737 Y51.022 E1.46075
G1 X43.906 Y51.578 E1.48039
G1 X41.999 Y51.766 E1.50004
G1 X40.094 Y51.578 E1.51968
G1 X38.262 Y51.022 E1.53933
G1 X36.575 Y50.119 E1.55896
G1 X35.095 Y48.905 E1.57861
G1 X33.881 Y47.425 E1.59825
G1 X32.977 Y45.737 E1.61790
G1 X32.422 Y43.904 E1.63754
G1 X32.234 Y42.000 E1.65719
G1 X32.422 Y40.095 E1.67683
G1 X32.977 Y38.262 E1.69647
G1 X33.881 Y36.574 E1.71612
G1 X35.095 Y35.095 E1.73576
G1 X36.575 Y33.880 E1.75541
G1 X38.262 Y32.977 E1.77504
G1 X40.095 Y32.422 E1.79469
G1 X41.941 Y32.240 E1.81373 F600.000
G1 X43.905 Y32.422 E1.83396
G1 X45.737 Y32.977 E1.85360
G1 X47.425 Y33.880 E1.87325
G1 X48.905 Y35.095 E1.89290
G1 X50.119 Y36.574 E1.91254
G1 X51.022 Y38.262 E1.93218
G1 X51.578 Y40.094 E1.95183
G1 X51.766 Y41.999 E1.97147
G1 X51.578 Y43.905 E1.99111
G1 X51.022 Y45.737 E2.01076
G1 X50.119 Y47.425 E2.03040
G1 X48.934 Y48.870 E2.04958
G1 X48.973 Y49.197 F1200.000
G1 X49.250 Y49.188 F1200.000
G1 X47.674 Y50.492 E2.07057 F600.000
G1 X45.908 Y51.436 E2.09112
G1 X43.993 Y52.018 E2.11166
G1 X41.999 Y52.214 E2.13221
G1 X40.007 Y52.018 E2.15276
G1 X38.091 Y51.436 E2.17331
G1 X36.326 Y50.492 E2.19384
G1 X34.778 Y49.222 E2.21439
G1 X33.508 Y47.674 E2.23494
G1 X32.563 Y45.908 E2.25549
G1 X31.982 Y43.992 E2.27603
G1 X31.786 Y42.000 E2.29658
G1 X31.982 Y40.007 E2.31712
G1 X32.563 Y38.091 E2.33767
G1 X33.508 Y36.325 E2.35822
G1 X34.778 Y34.778 E2.37876
G1 X36.326 Y33.507 E2.39931
G1 X38.091 Y32.563 E2.41985
G1 X40.007 Y31.982 E2.44040
G1 X41.940 Y31.792 E2.46032 F600.000
G1 X43.991 Y31.982 E2.48146
G1 X45.908 Y32.563 E2.50202
G1 X47.674 Y33.507 E2.52257
G1 X49.222 Y34.778 E2.54312
G1 X50.492 Y36.325 E2.56366
G1 X51.436 Y38.091 E2.58420
G1 X52.018 Y40.007 E2.60475
G1 X52.214 Y41.999 E2.62530
G1 X52.018 Y43.992 E2.64584
G1 X51.436 Y45.908 E2.66639
G1 X50.492 Y47.674 E2.68693
G1 X49.279 Y49.153 E2.70657
G1 X49.485 Y49.381 F1200.000
G1 X49.432 Y49.443 E2.70741 F600.000
G1 X47.837 Y50.750 E2.72857
G1 X46.026 Y51.718 E2.74964
G1 X44.052 Y52.317 E2.77080
G1 X41.992 Y52.519 E2.79205
G1 X39.948 Y52.317 E2.81312
G1 X37.974 Y51.718 E2.83428
G1 X36.156 Y50.746 E2.85544
G1 X34.568 Y49.443 E2.87651
G1 X33.254 Y47.844 E2.89776
G1 X32.281 Y46.025 E2.91892
G1 X31.685 Y44.059 E2.94000
G1 X31.481 Y41.992 E2.96132
G1 X31.683 Y39.948 E2.98239 F600.000
G1 X32.279 Y37.981 E3.00347
G1 X33.250 Y36.162 E3.02464
G1 X34.562 Y34.561 E3.04587
G1 X36.156 Y33.253 E3.06703
G1 X37.982 Y32.279 E3.08827
G1 X39.948 Y31.683 E3.10934
G1 X41.931 Y31.487 E3.12980
G1 X44.053 Y31.683 E3.15166
G1 X46.026 Y32.281 E3.17282
G1 X47.850 Y33.258 E3.19405
G1 X49.437 Y34.561 E3.21512
G1 X50.741 Y36.149 E3.23620
G1 X51.718 Y37.974 E3.25745
G1 X52.317 Y39.948 E3.27861
G1 X52.519 Y42.000 E3.29976
G1 X52.315 Y44.059 E3.32100
G1 X51.714 Y46.032 E3.34216
G1 X50.746 Y47.844 E3.36325
G1 X49.513 Y49.346 E3.38318
G10 ; retract
G92 E0
G1 Z0.550 F1200.000
G1 X50.142 Y49.920 F1200.000
G11 ; unretract
G92 E0
G1 X50.042 Y50.042 E0.00102 F480.000
G1 X48.319 Y51.456 E0.01551
G1 X46.353 Y52.507 E0.03001
G1 X44.219 Y53.155 E0.04450
G1 X42.000 Y53.374 E0.05900
G1 X39.781 Y53.155 E0.07349
G1 X37.647 Y52.507 E0.08798
G1 X35.681 Y51.456 E0.10247
G1 X33.958 Y50.042 E0.11696
G1 X32.543 Y48.319 E0.13145
G1 X31.492 Y46.352 E0.14595
G1 X30.845 Y44.219 E0.16044
G1 X30.626 Y42.000 E0.17493
G1 X30.845 Y39.781 E0.18942
G1 X31.492 Y37.647 E0.20392
G1 X32.543 Y35.681 E0.21841
G1 X33.958 Y33.957 E0.23291
G1 X35.681 Y32.543 E0.24740
G1 X37.647 Y31.492 E0.26189
G1 X39.781 Y30.845 E0.27638
G1 X42.000 Y30.626 E0.29087
G1 X44.010 Y30.825 E0.30400
G1 X44.219 Y30.845 E0.30537 F480.000
G1 X46.353 Y31.492 E0.31986
G1 X48.319 Y32.543 E0.33435
G1 X50.042 Y33.957 E0.34884
G1 X51.456 Y35.681 E0.36333
G1 X52.507 Y37.647 E0.37782
G1 X53.155 Y39.781 E0.39232
G1 X53.374 Y42.000 E0.40681
G1 X53.155 Y44.219 E0.42131
G1 X52.507 Y46.352 E0.43579
G1 X51.456 Y48.319 E0.45029
G1 X50.170 Y49.885 E0.46346
G1 X49.986 Y49.894 F1200.000
G1 X49.954 Y49.766 F1200.000
G1 X49.869 Y49.869 E0.46439 F480.000
G1 X48.183 Y51.253 E0.47947
G1 X46.259 Y52.282 E0.49455
G1 X44.171 Y52.915 E0.50963
G1 X42.000 Y53.129 E0.52472
G1 X39.829 Y52.915 E0.53981
G1 X37.741 Y52.282 E0.55489
G1 X35.817 Y51.253 E0.56997
G1 X34.131 Y49.869 E0.58505
G1 X32.746 Y48.183 E0.60014
G1 X31.717 Y46.258 E0.61523
G1 X31.085 Y44.171 E0.63030
G1 X30.871 Y42.000 E0.64539
G1 X31.085 Y39.829 E0.66048
G1 X31.717 Y37.741 E0.67556
G1 X32.746 Y35.817 E0.69064
G1 X34.131 Y34.130 E0.70573
G1 X35.817 Y32.746 E0.72081
G1 X37.741 Y31.717 E0.73589
G1 X39.829 Y31.085 E0.75098
G1 X42.000 Y30.871 E0.76606
G1 X43.986 Y31.067 E0.77986
G1 X44.171 Y31.085 E0.78115 F480.000
G1 X46.259 Y31.717 E0.79623
G1 X48.183 Y32.746 E0.81131
G1 X49.869 Y34.130 E0.82640
G1 X51.253 Y35.817 E0.84148
G1 X52.282 Y37.741 E0.85656
G1 X52.915 Y39.829 E0.87165
G1 X53.129 Y42.000 E0.88673
G1 X52.915 Y44.171 E0.90182
G1 X52.282 Y46.258 E0.91690
G1 X51.253 Y48.183 E0.93199
G1 X49.983 Y49.731 E0.94583
G1 X49.760 Y49.607 F1200.000
G1 X49.691 Y49.691 E0.94659 F480.000
G1 X48.043 Y51.044 E0.96133
G1 X46.163 Y52.049 E0.97607
G1 X44.122 Y52.668 E0.99081
G1 X42.000 Y52.878 E1.00556
G1 X39.878 Y52.668 E1.02030
G1 X37.837 Y52.049 E1.03504
G1 X35.957 Y51.044 E1.04978
G1 X34.309 Y49.691 E1.06453
G1 X32.955 Y48.043 E1.07927
G1 X31.950 Y46.162 E1.09401
G1 X31.332 Y44.122 E1.10875
G1 X31.122 Y42.000 E1.12350
G1 X31.332 Y39.878 E1.13824
G1 X31.950 Y37.837 E1.15298
G1 X32.955 Y35.957 E1.16772
G1 X34.309 Y34.308 E1.18247
G1 X35.957 Y32.955 E1.19721
G1 X37.837 Y31.950 E1.21195
G1 X39.878 Y31.332 E1.22669
G1 X42.000 Y31.122 E1.24143
G1 X43.961 Y31.316 E1.25506
G1 X44.122 Y31.332 E1.25618 F480.000
G1 X46.163 Y31.950 E1.27092
G1 X48.043 Y32.955 E1.28566
G1 X49.691 Y34.308 E1.30040
G1 X51.044 Y35.957 E1.31515
G1 X52.049 Y37.837 E1.32989
G1 X52.668 Y39.878 E1.34463
G1 X52.878 Y42.000 E1.35938
G1 X52.668 Y44.122 E1.37412
G1 X52.049 Y46.162 E1.38886
G1 X51.044 Y48.043 E1.40361
G1 X49.789 Y49.572 E1.41728
G1 X48.834 Y48.834 F1200.000
G1 X47.369 Y50.036 E1.42960 F480.000
G1 X45.698 Y50.929 E1.44191
G1 X43.886 Y51.479 E1.45422
G1 X41.999 Y51.665 E1.46655
G1 X40.114 Y51.479 E1.47886
G1 X38.301 Y50.929 E1.49118
G1 X36.631 Y50.036 E1.50349
G1 X35.166 Y48.834 E1.51580
G1 X33.964 Y47.369 E1.52812
G1 X33.070 Y45.698 E1.54044
G1 X32.521 Y43.885 E1.55275
G1 X32.335 Y42.000 E1.56507
G1 X32.521 Y40.114 E1.57738
G1 X33.070 Y38.301 E1.58970
G1 X33.964 Y36.630 E1.60202
G1 X35.166 Y35.166 E1.61433
G1 X36.631 Y33.963 E1.62665
G1 X38.301 Y33.070 E1.63896
G1 X40.114 Y32.521 E1.65127
G1 X41.800 Y32.354 E1.66228
G1 X41.999 Y32.335 E1.66359 F480.000
G1 X43.886 Y32.521 E1.67591
G1 X45.698 Y33.070 E1.68822
G1 X47.369 Y33.963 E1.70053
G1 X48.834 Y35.166 E1.71285
G1 X50.036 Y36.630 E1.72516
G1 X50.929 Y38.301 E1.73748
G1 X51.479 Y40.114 E1.74980
G1 X51.665 Y42.000 E1.76211
G1 X51.479 Y43.885 E1.77442
G1 X50.929 Y45.698 E1.78674
G1 X50.036 Y47.369 E1.79906
G1 X48.863 Y48.799 E1.81108
G1 X48.902 Y49.126 F1200.000
G1 X48.988 Y49.022 F1200.000
G1 X47.505 Y50.239 E1.82435 F480.000
G1 X45.792 Y51.154 E1.83778
G1 X43.934 Y51.719 E1.85120
G1 X41.999 Y51.910 E1.86464
G1 X40.066 Y51.719 E1.87807
G1 X38.207 Y51.154 E1.89150
G1 X36.495 Y50.239 E1.90493
G1 X34.993 Y49.007 E1.91836
G1 X33.761 Y47.505 E1.93179
G1 X32.845 Y45.792 E1.94522
G1 X32.281 Y43.933 E1.95865
G1 X32.090 Y42.000 E1.97208
G1 X32.281 Y40.066 E1.98551
G1 X32.845 Y38.207 E1.99894
G1 X33.761 Y36.494 E2.01238
G1 X34.993 Y34.993 E2.02580
G1 X36.495 Y33.760 E2.03924
G1 X38.207 Y32.845 E2.05266
G1 X40.066 Y32.281 E2.06609
G1 X41.776 Y32.112 E2.07797
G1 X41.999 Y32.090 E2.07952 F480.000
G1 X43.934 Y32.281 E2.09296
G1 X45.792 Y32.845 E2.10638
G1 X47.505 Y33.760 E2.11981
G1 X49.007 Y34.993 E2.13325
G1 X50.239 Y36.494 E2.14667
G1 X51.154 Y38.207 E2.16010
G1 X51.719 Y40.066 E2.17354
G1 X51.910 Y42.000 E2.18697
G1 X51.719 Y43.933 E2.20040
G1 X51.154 Y45.792 E2.21383
G1 X50.239 Y47.505 E2.22726
G1 X49.020 Y48.991 E2.24054
G1 X49.147 Y49.216 F1200.000
G1 X47.645 Y50.448 E2.25398 F480.000
G1 X45.888 Y51.387 E2.26775
G1 X43.983 Y51.966 E2.28152
G1 X41.999 Y52.161 E2.29530
G1 X40.017 Y51.966 E2.30907
G1 X38.111 Y51.387 E2.32284
G1 X36.355 Y50.448 E2.33661
G1 X34.815 Y49.185 E2.35038
G1 X33.552 Y47.645 E2.36415
G1 X32.612 Y45.888 E2.37793
G1 X32.034 Y43.982 E2.39170
G1 X31.839 Y42.000 E2.40547
G1 X32.034 Y40.017 E2.41924
G1 X32.612 Y38.111 E2.43301
G1 X33.552 Y36.354 E2.44679
G1 X34.815 Y34.815 E2.46056
G1 X36.355 Y33.551 E2.47433
G1 X38.111 Y32.612 E2.48810
G1 X40.017 Y32.034 E2.50187
G1 X41.752 Y31.863 E2.51392
G1 X41.999 Y31.839 E2.51564 F480.000
G1 X43.983 Y32.034 E2.52942
G1 X45.888 Y32.612 E2.54318
G1 X47.645 Y33.551 E2.55696
G1 X49.185 Y34.815 E2.57073
G1 X50.448 Y36.354 E2.58450
G1 X51.387 Y38.111 E2.59827
G1 X51.966 Y40.017 E2.61204
G1 X52.161 Y42.000 E2.62582
G1 X51.966 Y43.982 E2.63959
G1 X51.387 Y45.888 E2.65336
G1 X50.448 Y47.645 E2.66713
G1 X49.182 Y49.187 E2.68093
G1 X49.342 Y49.737 F1200.000
G1 X49.737 Y49.342 E2.68480 F480.000
G1 X50.521 Y47.849 F1200.000
G1 X51.450 Y46.920 E2.69388 F480.000
G1 X50.955 Y47.060 E2.69744
G1 X51.857 Y46.158 E2.70627
G1 X51.362 Y46.298 E2.70983
G1 X52.052 Y45.608 E2.71659
G1 X51.610 Y45.695 E2.71971
G1 X52.207 Y45.098 E2.72555
G1 X51.765 Y45.185 E2.72867
G1 X52.362 Y44.589 E2.73451
G1 X51.920 Y44.676 E2.73762
G1 X52.516 Y44.079 E2.74346
G1 X52.566 Y43.675 E2.74629
G1 X52.075 Y44.166 E2.75110
G1 X52.135 Y43.751 E2.75400
G1 X52.605 Y43.281 E2.75861
G1 X52.644 Y42.887 E2.76134
G1 X52.173 Y43.358 E2.76595
G1 X52.212 Y42.964 E2.76869
G1 X52.683 Y42.494 E2.77329
G1 X52.722 Y42.100 E2.77603
G1 X52.251 Y42.571 E2.78064
G1 X52.290 Y42.177 E2.78338
G1 X52.717 Y41.749 E2.78756
G1 X52.686 Y41.426 E2.78981
G1 X52.280 Y41.832 E2.79377
G1 X52.248 Y41.509 E2.79602
G1 X52.654 Y41.104 E2.79998
G1 X52.622 Y40.781 E2.80223
G1 X52.217 Y41.186 E2.80620
G1 X52.185 Y40.863 E2.80844
G1 X52.590 Y40.458 E2.81241
G1 X52.558 Y40.135 E2.81465
G1 X52.153 Y40.540 E2.81862
G1 X52.121 Y40.217 E2.82086
G1 X52.518 Y39.820 E2.82475
G1 X52.435 Y39.548 E2.82672
G1 X52.067 Y39.916 E2.83032
G1 X51.985 Y39.643 E2.83229
G1 X52.353 Y39.275 E2.83589
G1 X52.270 Y39.003 E2.83786
G1 X51.902 Y39.371 E2.84147
G1 X51.820 Y39.099 E2.84343
G1 X52.188 Y38.731 E2.84704
G1 X52.105 Y38.459 E2.84901
G1 X51.737 Y38.827 E2.85261
G1 X51.654 Y38.555 E2.85458
G1 X52.022 Y38.186 E2.85819
G1 X51.940 Y37.914 E2.86015
G1 X51.572 Y38.282 E2.86376
G1 X51.477 Y38.022 E2.86568
G1 X51.825 Y37.675 E2.86908
G1 X51.701 Y37.443 E2.87089
G1 X51.353 Y37.791 E2.87430
G1 X51.230 Y37.560 E2.87611
G1 X51.577 Y37.212 E2.87952
G1 X51.454 Y36.981 E2.88133
G1 X51.106 Y37.329 E2.88473
G1 X50.983 Y37.097 E2.88655
G1 X51.330 Y36.750 E2.88995
G1 X51.207 Y36.518 E2.89176
G1 X50.859 Y36.866 E2.89517
G1 X50.736 Y36.635 E2.89698
G1 X51.083 Y36.287 E2.90038
G1 X50.959 Y36.056 E2.90220
G1 X50.612 Y36.403 E2.90560
G1 X50.468 Y36.192 E2.90737
G1 X50.807 Y35.854 E2.91068
G1 X50.647 Y35.659 E2.91242
G1 X50.308 Y35.997 E2.91573
G1 X50.148 Y35.803 E2.91748
G1 X50.487 Y35.464 E2.92079
G1 X50.327 Y35.269 E2.92253
G1 X49.988 Y35.608 E2.92585
G1 X49.829 Y35.413 E2.92759
