; generated by Slic3r 1.2.9 on 2016-08-09 at 13:08:48

; external perimeters extrusion width = 0.30mm
; perimeters extrusion width = 0.31mm
; infill extrusion width = 0.31mm
; solid infill extrusion width = 0.31mm
; top infill extrusion width = 0.31mm

M104 S200 ; set temperature
;<-- Mini Metal Maker Start Procedure -->
G21 ; set units to millimeters
G28 ; home all axes
G90 ; use absolute coordinates
G92 E0
M82 ; use absolute distances for extrusion
G1 Z0.6 F5000 ; lift nozzle to printing start height
G92 Z0
G1 Z0.5 ; raise tip enough for pressurization flow to begin
G1 X70.000 ; offset from X to do the pressurization procedure
G5 X0.000, F900.000 E5.00000 ; return to home while pressurizing
G92 E0 ; set pressurized state as the zero reference for extruder
M106 ; turn on fan
;<--end Mini Metal Maker Start Procedure -->

M109 S200 ; wait for temperature to be reached
G21 ; set units to millimeters
G90 ; use absolute coordinates
M82 ; use absolute distances for extrusion
G92 E0
G10 ; retract
G92 E0
G1 Z0.250 F1200.000
G1 X30.009 Y30.000 F1200.000
G11 ; unretract
G92 E0
G1 X30.450 Y29.558 E0.00641 F600.000
G1 X32.048 Y28.246 E0.02762
G1 X33.103 Y27.542 E0.04063
G1 X34.927 Y26.568 E0.06185
G1 X36.090 Y26.086 E0.07477
G1 X38.069 Y25.485 E0.09599
G1 X39.312 Y25.238 E0.10900
G1 X41.370 Y25.036 E0.13022
G1 X42.630 Y25.036 E0.14314
G1 X44.688 Y25.238 E0.16436 F600.000
G1 X45.931 Y25.485 E0.17737
G1 X47.910 Y26.086 E0.19859
G1 X49.073 Y26.568 E0.21151
G1 X50.897 Y27.542 E0.23273
G1 X51.952 Y28.246 E0.24574
G1 X53.550 Y29.558 E0.26695
G1 X54.442 Y30.451 E0.27991
G1 X55.755 Y32.050 E0.30114
G1 X56.456 Y33.101 E0.31410
G1 X57.431 Y34.925 E0.33532
G1 X57.915 Y36.093 E0.34830
G1 X58.515 Y38.072 E0.36952
G1 X58.761 Y39.310 E0.38246
G1 X58.964 Y41.368 E0.40368
G1 X58.964 Y42.633 E0.41667
G1 X58.761 Y44.691 E0.43789
G1 X58.515 Y45.930 E0.45085
G1 X57.915 Y47.908 E0.47206
G1 X57.431 Y49.075 E0.48503
G1 X56.456 Y50.899 E0.50625
G1 X55.755 Y51.950 E0.51921
G1 X54.443 Y53.549 E0.54043
G1 X53.550 Y54.442 E0.55339
G1 X51.952 Y55.754 E0.57461
G1 X50.787 Y56.517 E0.58890
G1 X49.076 Y57.432 E0.60880
G1 X47.907 Y57.916 E0.62178
G1 X45.928 Y58.516 E0.64300
G1 X44.688 Y58.762 E0.65598
G1 X42.630 Y58.964 E0.67720
G1 X41.370 Y58.964 E0.69012
G1 X39.312 Y58.762 E0.71134
G1 X38.072 Y58.516 E0.72432
G1 X36.093 Y57.916 E0.74554
G1 X34.924 Y57.432 E0.75852
G1 X33.100 Y56.457 E0.77974
G1 X32.048 Y55.754 E0.79272
G1 X30.450 Y54.442 E0.81394
G1 X29.558 Y53.549 E0.82690
G1 X28.245 Y51.950 E0.84812
G1 X27.544 Y50.899 E0.86108
G1 X26.569 Y49.075 E0.88230
G1 X26.085 Y47.908 E0.89527
G1 X25.485 Y45.930 E0.91648
G1 X25.239 Y44.691 E0.92944
G1 X25.036 Y42.633 E0.95066
G1 X25.036 Y41.368 E0.96364
G1 X25.239 Y39.310 E0.98486
G1 X25.485 Y38.072 E0.99781
G1 X26.085 Y36.093 E1.01903
G1 X26.569 Y34.925 E1.03201
G1 X27.544 Y33.101 E1.05323
G1 X28.245 Y32.051 E1.06619
G1 X29.558 Y30.451 E1.08742
G1 X29.977 Y30.032 E1.09351
G10 ; retract
G92 E0
G1 X49.281 Y49.282 F1200.000
G11 ; unretract
G92 E0
G1 X47.721 Y50.563 E0.02071 F600.000
G1 X45.941 Y51.514 E0.04143
G1 X44.009 Y52.100 E0.06214
G1 X42.000 Y52.297 E0.08286
G1 X39.991 Y52.100 E0.10357
G1 X38.059 Y51.514 E0.12428
G1 X36.279 Y50.563 E0.14500
G1 X34.719 Y49.282 E0.16571
G1 X33.438 Y47.721 E0.18643
G1 X32.486 Y45.940 E0.20715
G1 X31.900 Y44.009 E0.22785
G1 X31.702 Y42.000 E0.24857
G1 X31.900 Y39.992 E0.26928
G1 X32.486 Y38.060 E0.28999
G1 X33.438 Y36.279 E0.31071
G1 X34.719 Y34.718 E0.33143
G1 X36.279 Y33.437 E0.35214
G1 X38.059 Y32.487 E0.37285
G1 X39.991 Y31.900 E0.39357
G1 X42.000 Y31.703 E0.41428
G1 X43.906 Y31.890 E0.43393
G1 X44.009 Y31.900 E0.43500 F600.000
G1 X45.941 Y32.487 E0.45572
G1 X47.721 Y33.437 E0.47643
G1 X49.281 Y34.718 E0.49714
G1 X50.562 Y36.279 E0.51786
G1 X51.514 Y38.060 E0.53857
G1 X52.100 Y39.992 E0.55929
G1 X52.298 Y42.000 E0.58000
G1 X52.100 Y44.009 E0.60072
G1 X51.514 Y45.940 E0.62142
G1 X50.562 Y47.721 E0.64214
G1 X49.310 Y49.247 E0.66240
G1 X48.994 Y49.195 F1200.000
G1 X48.964 Y48.965 F1200.000
G1 X47.472 Y50.190 E0.68220 F600.000
G1 X45.769 Y51.100 E0.70202
G1 X43.922 Y51.660 E0.72183
G1 X42.000 Y51.849 E0.74164
G1 X40.078 Y51.660 E0.76145
G1 X38.231 Y51.100 E0.78127
G1 X36.528 Y50.190 E0.80108
G1 X35.036 Y48.965 E0.82089
G1 X33.811 Y47.472 E0.84070
G1 X32.900 Y45.769 E0.86052
G1 X32.340 Y43.922 E0.88032
G1 X32.151 Y42.000 E0.90013
G1 X32.340 Y40.079 E0.91995
G1 X32.900 Y38.231 E0.93976
G1 X33.811 Y36.528 E0.95957
G1 X35.036 Y35.035 E0.97939
G1 X36.528 Y33.810 E0.99920
G1 X38.231 Y32.901 E1.01901
G1 X40.079 Y32.340 E1.03882
G1 X42.000 Y32.151 E1.05864
G1 X43.862 Y32.334 E1.07784
G1 X45.769 Y32.901 E1.09825 F600.000
G1 X47.472 Y33.810 E1.11806
G1 X48.964 Y35.035 E1.13787
G1 X50.189 Y36.528 E1.15768
G1 X51.100 Y38.231 E1.17750
G1 X51.660 Y40.079 E1.19731
G1 X51.849 Y42.000 E1.21712
G1 X51.660 Y43.922 E1.23694
G1 X51.100 Y45.769 E1.25674
G1 X50.189 Y47.472 E1.27655
G1 X48.993 Y48.930 E1.29591
G1 X48.576 Y48.576 F1200.000
G1 X47.167 Y49.732 E1.31461 F600.000
G1 X45.559 Y50.592 E1.33332
G1 X43.814 Y51.121 E1.35203
G1 X42.000 Y51.300 E1.37073
G1 X40.186 Y51.121 E1.38944
G1 X38.441 Y50.592 E1.40815
G1 X36.833 Y49.732 E1.42685
G1 X35.424 Y48.576 E1.44555
G1 X34.268 Y47.167 E1.46426
G1 X33.408 Y45.559 E1.48297
G1 X32.880 Y43.814 E1.50167
G1 X32.701 Y42.001 E1.52038
G1 X32.880 Y40.186 E1.53909
G1 X33.408 Y38.441 E1.55779
G1 X34.268 Y36.834 E1.57650
G1 X35.424 Y35.424 E1.59521
G1 X36.833 Y34.268 E1.61391
G1 X38.441 Y33.408 E1.63262
G1 X40.186 Y32.879 E1.65133
G1 X41.866 Y32.713 E1.66865
G1 X42.000 Y32.700 E1.67003 F600.000
G1 X43.814 Y32.879 E1.68874
G1 X45.559 Y33.408 E1.70745
G1 X47.167 Y34.268 E1.72615
G1 X48.576 Y35.424 E1.74486
G1 X49.733 Y36.834 E1.76357
G1 X50.592 Y38.441 E1.78228
G1 X51.121 Y40.185 E1.80098
G1 X51.300 Y42.001 E1.81969
G1 X51.121 Y43.815 E1.83840
G1 X50.592 Y45.559 E1.85710
G1 X49.733 Y47.167 E1.87581
G1 X48.604 Y48.541 E1.89406
G1 X48.644 Y48.868 F1200.000
G1 X48.859 Y48.921 F1200.000
G1 X47.416 Y50.105 E1.91321 F600.000
G1 X45.731 Y51.006 E1.93282
G1 X43.902 Y51.561 E1.95243
G1 X42.000 Y51.748 E1.97204
G1 X40.098 Y51.561 E1.99165
G1 X38.269 Y51.006 E2.01126
G1 X36.584 Y50.105 E2.03086
G1 X35.107 Y48.893 E2.05047
G1 X33.895 Y47.416 E2.07008
G1 X32.993 Y45.730 E2.08970
G1 X32.440 Y43.902 E2.10930
G1 X32.252 Y42.001 E2.12890
G1 X32.440 Y40.098 E2.14852
G1 X32.994 Y38.270 E2.16812
G1 X33.895 Y36.585 E2.18773
G1 X35.107 Y35.107 E2.20734
G1 X36.584 Y33.895 E2.22695
G1 X38.269 Y32.994 E2.24655
G1 X40.098 Y32.439 E2.26617
G1 X41.822 Y32.269 E2.28394
G1 X42.000 Y32.252 E2.28578 F600.000
G1 X43.902 Y32.439 E2.30538
G1 X45.731 Y32.994 E2.32500
G1 X47.416 Y33.895 E2.34460
G1 X48.893 Y35.107 E2.36421
G1 X50.106 Y36.585 E2.38383
G1 X51.006 Y38.270 E2.40343
G1 X51.561 Y40.098 E2.42304
G1 X51.749 Y42.001 E2.44265
G1 X51.561 Y43.902 E2.46226
G1 X51.006 Y45.730 E2.48186
G1 X50.106 Y47.416 E2.50148
G1 X48.893 Y48.893 E2.52108
G10 ; retract
G92 E0
G1 Z0.550 F1200.000
G1 X49.269 Y49.421 F1200.000
G11 ; unretract
G92 E0
G1 X47.777 Y50.646 E0.01255 F480.000
G1 X45.979 Y51.607 E0.02580
G1 X44.029 Y52.199 E0.03905
G1 X42.000 Y52.398 E0.05230
G1 X39.971 Y52.199 E0.06555
G1 X38.021 Y51.607 E0.07880
G1 X36.223 Y50.646 E0.09205
G1 X34.648 Y49.353 E0.10530
G1 X33.354 Y47.777 E0.11855
G1 X32.393 Y45.979 E0.13180
G1 X31.802 Y44.029 E0.14504
G1 X31.602 Y42.000 E0.15829
G1 X31.802 Y39.972 E0.17154
G1 X32.393 Y38.021 E0.18479
G1 X33.354 Y36.223 E0.19804
G1 X34.648 Y34.647 E0.21130
G1 X36.223 Y33.354 E0.22454
G1 X38.021 Y32.394 E0.23779
G1 X39.971 Y31.801 E0.25104
G1 X42.000 Y31.602 E0.26429
G1 X43.635 Y31.763 E0.27497
G1 X44.029 Y31.801 E0.27754 F480.000
G1 X45.979 Y32.394 E0.29079
G1 X47.777 Y33.354 E0.30404
G1 X49.352 Y34.647 E0.31729
G1 X50.646 Y36.223 E0.33054
G1 X51.607 Y38.021 E0.34379
G1 X52.198 Y39.972 E0.35704
G1 X52.398 Y42.000 E0.37029
G1 X52.198 Y44.029 E0.38354
G1 X51.607 Y45.979 E0.39679
G1 X50.646 Y47.777 E0.41004
G1 X49.304 Y49.393 E0.42369
G1 X48.982 Y49.333 F1200.000
G1 X49.115 Y49.233 F1200.000
G1 X47.641 Y50.443 E0.43687 F480.000
G1 X45.886 Y51.382 E0.45063
G1 X43.981 Y51.959 E0.46440
G1 X42.000 Y52.153 E0.47816
G1 X40.019 Y51.959 E0.49192
G1 X38.114 Y51.382 E0.50568
G1 X36.358 Y50.443 E0.51944
G1 X34.820 Y49.180 E0.53320
G1 X33.557 Y47.641 E0.54697
G1 X32.619 Y45.885 E0.56073
G1 X32.041 Y43.981 E0.57449
G1 X31.846 Y42.000 E0.58825
G1 X32.041 Y40.020 E0.60201
G1 X32.619 Y38.115 E0.61578
G1 X33.557 Y36.359 E0.62954
G1 X34.820 Y34.820 E0.64330
G1 X36.358 Y33.557 E0.65706
G1 X38.114 Y32.619 E0.67082
G1 X40.019 Y32.041 E0.68459
G1 X42.000 Y31.847 E0.69835
G1 X43.611 Y32.005 E0.70954
G1 X43.981 Y32.041 E0.71211 F480.000
G1 X45.886 Y32.619 E0.72588
G1 X47.642 Y33.557 E0.73964
G1 X49.180 Y34.820 E0.75340
G1 X50.443 Y36.359 E0.76716
G1 X51.381 Y38.115 E0.78092
G1 X51.959 Y40.020 E0.79469
G1 X52.154 Y42.000 E0.80845
G1 X51.959 Y43.981 E0.82221
G1 X51.381 Y45.885 E0.83597
G1 X50.443 Y47.641 E0.84973
G1 X49.150 Y49.205 E0.86376
G1 X48.956 Y49.040 F1200.000
G1 X47.502 Y50.234 E0.87677 F480.000
G1 X45.789 Y51.149 E0.89019
G1 X43.932 Y51.712 E0.90361
G1 X42.000 Y51.902 E0.91703
G1 X40.068 Y51.712 E0.93045
G1 X38.210 Y51.149 E0.94387
G1 X36.498 Y50.234 E0.95730
G1 X34.998 Y49.002 E0.97071
G1 X33.767 Y47.501 E0.98414
G1 X32.852 Y45.789 E0.99756
G1 X32.288 Y43.932 E1.01097
G1 X32.098 Y42.000 E1.02440
G1 X32.288 Y40.069 E1.03782
G1 X32.852 Y38.211 E1.05124
G1 X33.767 Y36.499 E1.06466
G1 X34.998 Y34.998 E1.07808
G1 X36.498 Y33.766 E1.09150
G1 X38.211 Y32.852 E1.10492
G1 X40.068 Y32.288 E1.11834
G1 X42.000 Y32.098 E1.13176
G1 X43.587 Y32.254 E1.14279
G1 X43.932 Y32.288 E1.14518 F480.000
G1 X45.789 Y32.852 E1.15861
G1 X47.502 Y33.766 E1.17203
G1 X49.002 Y34.998 E1.18544
G1 X50.233 Y36.499 E1.19887
G1 X51.148 Y38.211 E1.21229
G1 X51.712 Y40.069 E1.22571
G1 X51.902 Y42.000 E1.23913
G1 X51.712 Y43.932 E1.25255
G1 X51.148 Y45.789 E1.26597
G1 X50.233 Y47.501 E1.27939
G1 X48.991 Y49.011 E1.29291
G1 X48.505 Y48.505 F1200.000
G1 X47.111 Y49.649 E1.30463 F480.000
G1 X45.521 Y50.499 E1.31635
G1 X43.794 Y51.022 E1.32807
G1 X42.000 Y51.199 E1.33979
G1 X40.206 Y51.022 E1.35151
G1 X38.479 Y50.499 E1.36324
G1 X36.889 Y49.649 E1.37496
G1 X35.495 Y48.505 E1.38668
G1 X34.352 Y47.111 E1.39840
G1 X33.501 Y45.520 E1.41013
G1 X32.978 Y43.795 E1.42184
G1 X32.801 Y42.001 E1.43356
G1 X32.978 Y40.205 E1.44529
G1 X33.501 Y38.480 E1.45701
G1 X34.352 Y36.890 E1.46873
G1 X35.495 Y35.495 E1.48046
G1 X36.889 Y34.351 E1.49217
G1 X38.479 Y33.501 E1.50389
G1 X40.206 Y32.978 E1.51562
G1 X41.590 Y32.841 E1.52466
G1 X42.000 Y32.801 E1.52734 F480.000
G1 X43.794 Y32.978 E1.53906
G1 X45.521 Y33.501 E1.55079
G1 X47.111 Y34.351 E1.56250
G1 X48.505 Y35.495 E1.57422
G1 X49.649 Y36.890 E1.58595
G1 X50.499 Y38.480 E1.59767
G1 X51.023 Y40.205 E1.60939
G1 X51.200 Y42.001 E1.62112
G1 X51.023 Y43.795 E1.63284
G1 X50.499 Y45.520 E1.64456
G1 X49.649 Y47.111 E1.65628
G1 X48.533 Y48.470 E1.66771
G1 X48.573 Y48.797 F1200.000
G1 X48.659 Y48.693 F1200.000
G1 X47.246 Y49.852 E1.68035 F480.000
G1 X45.614 Y50.724 E1.69314
G1 X43.842 Y51.262 E1.70595
G1 X42.000 Y51.444 E1.71874
G1 X40.158 Y51.262 E1.73154
G1 X38.386 Y50.724 E1.74434
G1 X36.754 Y49.852 E1.75714
G1 X35.323 Y48.678 E1.76994
G1 X34.149 Y47.247 E1.78273
G1 X33.275 Y45.614 E1.79554
G1 X32.739 Y43.842 E1.80833
G1 X32.557 Y42.001 E1.82113
G1 X32.739 Y40.158 E1.83393
G1 X33.275 Y38.386 E1.84673
G1 X34.149 Y36.754 E1.85953
G1 X35.323 Y35.322 E1.87233
G1 X36.754 Y34.148 E1.88513
G1 X38.386 Y33.276 E1.89793
G1 X40.158 Y32.738 E1.91073
G1 X41.566 Y32.599 E1.92051
G1 X42.000 Y32.556 E1.92353 F480.000
G1 X43.842 Y32.738 E1.93632
G1 X45.614 Y33.276 E1.94913
G1 X47.246 Y34.148 E1.96192
G1 X48.677 Y35.322 E1.97472
G1 X49.852 Y36.754 E1.98753
G1 X50.725 Y38.386 E2.00032
G1 X51.262 Y40.157 E2.01312
G1 X51.444 Y42.001 E2.02592
G1 X51.262 Y43.843 E2.03872
G1 X50.725 Y45.614 E2.05152
G1 X49.852 Y47.247 E2.06432
G1 X48.691 Y48.662 E2.07698
G1 X48.818 Y48.887 F1200.000
G1 X47.386 Y50.061 E2.08978 F480.000
G1 X45.711 Y50.957 E2.10292
G1 X43.891 Y51.509 E2.11606
G1 X42.000 Y51.695 E2.12920
G1 X40.109 Y51.509 E2.14234
G1 X38.289 Y50.957 E2.15548
G1 X36.614 Y50.061 E2.16862
G1 X35.145 Y48.856 E2.18176
G1 X33.939 Y47.387 E2.19490
G1 X33.042 Y45.710 E2.20804
G1 X32.492 Y43.892 E2.22118
G1 X32.305 Y42.001 E2.23432
G1 X32.492 Y40.108 E2.24746
G1 X33.042 Y38.290 E2.26060
G1 X33.939 Y36.614 E2.27374
G1 X35.145 Y35.144 E2.28688
G1 X36.614 Y33.939 E2.30002
G1 X38.289 Y33.043 E2.31316
G1 X40.109 Y32.491 E2.32630
G1 X41.541 Y32.350 E2.33626
G1 X42.000 Y32.305 E2.33944 F480.000
G1 X43.891 Y32.491 E2.35258
G1 X45.711 Y33.043 E2.36573
G1 X47.386 Y33.939 E2.37886
G1 X48.855 Y35.144 E2.39200
G1 X50.062 Y36.614 E2.40515
G1 X50.958 Y38.290 E2.41829
G1 X51.509 Y40.108 E2.43143
G1 X51.696 Y42.001 E2.44457
G1 X51.509 Y43.892 E2.45771
G1 X50.958 Y45.710 E2.47085
G1 X50.062 Y47.387 E2.48399
G1 X48.853 Y48.858 E2.49716
G10 ; retract
G92 E0
G1 Z0.850 F1200.000
G1 X49.262 Y49.427 F1200.000
G11 ; unretract
G92 E0
G1 X47.777 Y50.646 E0.01248 F480.000
G1 X45.979 Y51.607 E0.02574
G1 X44.029 Y52.199 E0.03898
G1 X42.000 Y52.398 E0.05223
G1 X39.971 Y52.199 E0.06548
G1 X38.021 Y51.607 E0.07873
G1 X36.223 Y50.646 E0.09198
G1 X34.648 Y49.353 E0.10523
G1 X33.354 Y47.777 E0.11848
G1 X32.393 Y45.979 E0.13174
G1 X31.802 Y44.029 E0.14498
G1 X31.602 Y42.000 E0.15823
G1 X31.802 Y39.972 E0.17148
G1 X32.393 Y38.021 E0.18473
G1 X33.354 Y36.223 E0.19798
G1 X34.648 Y34.647 E0.21123
G1 X36.223 Y33.354 E0.22448
G1 X38.021 Y32.394 E0.23773
G1 X39.971 Y31.801 E0.25098
G1 X42.000 Y31.602 E0.26423
G1 X43.283 Y31.728 E0.27261
G1 X44.029 Y31.801 E0.27748 F480.000
G1 X45.979 Y32.394 E0.29073
G1 X47.777 Y33.354 E0.30398
G1 X49.352 Y34.647 E0.31723
G1 X50.646 Y36.223 E0.33048
G1 X51.607 Y38.021 E0.34373
G1 X52.198 Y39.972 E0.35698
G1 X52.398 Y42.000 E0.37023
G1 X52.198 Y44.029 E0.38348
G1 X51.607 Y45.979 E0.39672
G1 X50.646 Y47.777 E0.40997
G1 X49.352 Y49.353 E0.42323
G1 X49.296 Y49.399 E0.42370
G1 X48.981 Y49.322 F1200.000
G1 X49.107 Y49.240 F1200.000
G1 X47.641 Y50.443 E0.43681 F480.000
G1 X45.886 Y51.382 E0.45057
G1 X43.981 Y51.959 E0.46433
G1 X42.000 Y52.153 E0.47810
G1 X40.019 Y51.959 E0.49186
G1 X38.114 Y51.382 E0.50562
G1 X36.358 Y50.443 E0.51938
G1 X34.820 Y49.180 E0.53314
G1 X33.557 Y47.641 E0.54691
G1 X32.619 Y45.885 E0.56067
G1 X32.041 Y43.981 E0.57443
G1 X31.846 Y42.000 E0.58819
G1 X32.041 Y40.020 E0.60195
G1 X32.619 Y38.115 E0.61572
G1 X33.557 Y36.359 E0.62948
G1 X34.820 Y34.820 E0.64324
G1 X36.358 Y33.557 E0.65700
G1 X38.114 Y32.619 E0.67076
G1 X40.019 Y32.041 E0.68453
G1 X42.000 Y31.847 E0.69829
G1 X43.260 Y31.970 E0.70704
G1 X43.981 Y32.041 E0.71205 F480.000
G1 X45.886 Y32.619 E0.72582
G1 X47.642 Y33.557 E0.73958
G1 X49.180 Y34.820 E0.75334
G1 X50.443 Y36.359 E0.76710
G1 X51.381 Y38.115 E0.78086
G1 X51.959 Y40.020 E0.79463
G1 X52.154 Y42.000 E0.80839
G1 X51.959 Y43.981 E0.82215
G1 X51.381 Y45.885 E0.83591
G1 X50.443 Y47.641 E0.84967
G1 X49.142 Y49.211 E0.86377
G1 X48.948 Y49.046 F1200.000
G1 X47.502 Y50.234 E0.87671 F480.000
G1 X45.789 Y51.149 E0.89013
G1 X43.932 Y51.712 E0.90355
G1 X42.000 Y51.902 E0.91697
G1 X40.068 Y51.712 E0.93039
G1 X38.211 Y51.149 E0.94381
G1 X36.498 Y50.234 E0.95723
G1 X34.998 Y49.002 E0.97065
G1 X33.767 Y47.501 E0.98408
G1 X32.852 Y45.789 E0.99750
G1 X32.288 Y43.932 E1.01091
G1 X32.098 Y42.000 E1.02433
G1 X32.288 Y40.069 E1.03775
G1 X32.852 Y38.211 E1.05118
G1 X33.767 Y36.499 E1.06460
G1 X34.998 Y34.998 E1.07802
G1 X36.498 Y33.766 E1.09144
G1 X38.211 Y32.852 E1.10486
G1 X40.068 Y32.288 E1.11828
G1 X42.000 Y32.098 E1.13170
G1 X43.235 Y32.220 E1.14028
G1 X43.932 Y32.288 E1.14512 F480.000
G1 X45.789 Y32.852 E1.15855
G1 X47.502 Y33.766 E1.17197
G1 X49.002 Y34.998 E1.18538
G1 X50.233 Y36.499 E1.19881
G1 X51.148 Y38.211 E1.21223
G1 X51.712 Y40.069 E1.22565
G1 X51.902 Y42.000 E1.23907
G1 X51.712 Y43.932 E1.25249
G1 X51.148 Y45.789 E1.26591
G1 X50.233 Y47.501 E1.27933
G1 X48.983 Y49.017 E1.29291
G1 X48.505 Y48.505 F1200.000
G1 X47.111 Y49.649 E1.30463 F480.000
G1 X45.521 Y50.499 E1.31635
G1 X43.794 Y51.022 E1.32808
