; generated by Slic3r 1.2.9 on 2016-08-09 at 13:15:48

; external perimeters extrusion width = 0.30mm
; perimeters extrusion width = 0.31mm
; infill extrusion width = 0.31mm
; solid infill extrusion width = 0.31mm
; top infill extrusion width = 0.31mm

M104 S200 ; set temperature
;<-- Mini Metal Maker Start Procedure -->
G21 ; set units to millimeters
G28 ; home all axes
G90 ; use absolute coordinates
G92 E0
M82 ; use absolute distances for extrusion
G1 Z0.6 F5000 ; lift nozzle to printing start height
G92 Z0
G1 Z0.5 ; raise tip enough for pressurization flow to begin
G1 X70.000 ; offset from X to do the pressurization procedure
G5 X0.000, F900.000 E5.00000 ; return to home while pressurizing
G92 E0 ; set pressurized state as the zero reference for extruder
M106 ; turn on fan
;<--end Mini Metal Maker Start Procedure -->

M109 S200 ; wait for temperature to be reached
G21 ; set units to millimeters
G90 ; use absolute coordinates
M82 ; use absolute distances for extrusion
G92 E0
G10 ; retract
G92 E0
G1 Z0.250 F1200.000
G1 X29.670 Y29.670 F1200.000
G11 ; unretract
G92 E0
G1 X30.117 Y29.224 E0.00648 F600.000
G1 X31.787 Y27.853 E0.02865
G1 X32.836 Y27.151 E0.04160
G1 X34.741 Y26.132 E0.06377
G1 X35.912 Y25.647 E0.07677
G1 X37.980 Y25.020 E0.09894
G1 X39.217 Y24.774 E0.11189
G1 X41.367 Y24.562 E0.13406
G1 X42.632 Y24.562 E0.14704
G1 X44.783 Y24.774 E0.16922
G1 X46.022 Y25.021 E0.18218 F600.000
G1 X48.089 Y25.648 E0.20435
G1 X49.257 Y26.132 E0.21732
G1 X51.163 Y27.151 E0.23950
G1 X52.214 Y27.853 E0.25247
G1 X53.884 Y29.224 E0.27464
G1 X54.776 Y30.116 E0.28759
G1 X56.147 Y31.786 E0.30976
G1 X56.850 Y32.838 E0.32274
G1 X57.868 Y34.743 E0.34491
G1 X58.351 Y35.908 E0.35785
G1 X58.979 Y37.976 E0.38002
G1 X59.227 Y39.220 E0.39303
G1 X59.438 Y41.370 E0.41520
G1 X59.438 Y42.629 E0.42812
G1 X59.227 Y44.780 E0.45030
G1 X58.979 Y46.024 E0.46332
G1 X58.351 Y48.091 E0.48548
G1 X57.869 Y49.254 E0.49840
G1 X56.851 Y51.160 E0.52057
G1 X56.147 Y52.214 E0.53357
G1 X54.776 Y53.884 E0.55574
G1 X53.884 Y54.776 E0.56869
G1 X52.214 Y56.147 E0.59086
G1 X51.161 Y56.851 E0.60386
G1 X49.255 Y57.869 E0.62603
G1 X48.092 Y58.350 E0.63895
G1 X46.025 Y58.978 E0.66112
G1 X44.783 Y59.226 E0.67411
G1 X42.632 Y59.438 E0.69629
G1 X41.367 Y59.438 E0.70927
G1 X39.217 Y59.226 E0.73143
G1 X37.977 Y58.979 E0.74441
G1 X35.909 Y58.351 E0.76659
G1 X34.744 Y57.868 E0.77953
G1 X32.839 Y56.850 E0.80170
G1 X31.787 Y56.147 E0.81468
G1 X30.117 Y54.776 E0.83685
G1 X29.225 Y53.884 E0.84980
G1 X27.854 Y52.214 E0.87197
G1 X27.151 Y51.163 E0.88494
G1 X26.132 Y49.257 E0.90712
G1 X25.648 Y48.089 E0.92009
G1 X25.021 Y46.022 E0.94225
G1 X24.775 Y44.783 E0.95522
G1 X24.563 Y42.632 E0.97740
G1 X24.563 Y41.367 E0.99037
G1 X24.775 Y39.217 E1.01254
G1 X25.021 Y37.979 E1.02549
G1 X25.648 Y35.911 E1.04767
G1 X26.133 Y34.741 E1.06066
G1 X27.152 Y32.836 E1.08283
G1 X27.854 Y31.786 E1.09579
G1 X29.225 Y30.116 E1.11796
G1 X29.639 Y29.702 E1.12397
G10 ; retract
G92 E0
G1 X49.616 Y49.616 F1200.000
G11 ; unretract
G92 E0
G1 X47.984 Y50.956 E0.02167 F600.000
G1 X46.122 Y51.950 E0.04333
G1 X44.102 Y52.564 E0.06500
G1 X42.000 Y52.771 E0.08667
G1 X39.899 Y52.564 E0.10833
G1 X37.878 Y51.950 E0.13000
G1 X36.017 Y50.956 E0.15166
G1 X34.385 Y49.616 E0.17333
G1 X33.045 Y47.984 E0.19499
G1 X32.049 Y46.121 E0.21666
G1 X31.436 Y44.101 E0.23832
G1 X31.229 Y42.000 E0.26000
G1 X31.436 Y39.899 E0.28166
G1 X32.049 Y37.878 E0.30333
G1 X33.045 Y36.016 E0.32499
G1 X34.385 Y34.384 E0.34666
G1 X36.017 Y33.044 E0.36832
G1 X37.878 Y32.049 E0.38999
G1 X39.899 Y31.436 E0.41165
G1 X42.000 Y31.229 E0.43332
G1 X43.994 Y31.425 E0.45387
G1 X44.102 Y31.436 E0.45499 F600.000
G1 X46.122 Y32.049 E0.47665
G1 X47.984 Y33.044 E0.49832
G1 X49.616 Y34.384 E0.51999
G1 X50.956 Y36.016 E0.54165
G1 X51.951 Y37.878 E0.56331
G1 X52.565 Y39.899 E0.58498
G1 X52.771 Y42.000 E0.60665
G1 X52.565 Y44.101 E0.62832
G1 X51.951 Y46.121 E0.64998
G1 X50.956 Y47.984 E0.67165
G1 X49.645 Y49.581 E0.69285
G1 X49.329 Y49.529 F1200.000
G1 X49.299 Y49.299 F1200.000
G1 X47.735 Y50.583 E0.71361 F600.000
G1 X45.950 Y51.536 E0.73438
G1 X44.014 Y52.124 E0.75514
G1 X42.000 Y52.323 E0.77591
G1 X39.987 Y52.124 E0.79667
G1 X38.050 Y51.536 E0.81744
G1 X36.266 Y50.583 E0.83820
G1 X34.702 Y49.299 E0.85896
G1 X33.418 Y47.735 E0.87972
G1 X32.463 Y45.950 E0.90049
G1 X31.876 Y44.014 E0.92125
G1 X31.678 Y42.000 E0.94202
G1 X31.876 Y39.986 E0.96278
G1 X32.463 Y38.049 E0.98355
G1 X33.418 Y36.265 E1.00431
G1 X34.702 Y34.701 E1.02507
G1 X36.266 Y33.417 E1.04584
G1 X38.050 Y32.463 E1.06660
G1 X39.986 Y31.876 E1.08736
G1 X42.000 Y31.677 E1.10813
G1 X43.950 Y31.869 E1.12823
G1 X45.950 Y32.463 E1.14964 F600.000
G1 X47.735 Y33.417 E1.17041
G1 X49.299 Y34.701 E1.19117
G1 X50.583 Y36.265 E1.21194
G1 X51.537 Y38.049 E1.23269
G1 X52.125 Y39.986 E1.25346
G1 X52.322 Y42.000 E1.27422
G1 X52.125 Y44.014 E1.29499
G1 X51.537 Y45.950 E1.31575
G1 X50.583 Y47.735 E1.33652
G1 X49.328 Y49.264 E1.35682
G1 X48.906 Y48.905 F1200.000
G1 X47.426 Y50.119 E1.37646 F600.000
G1 X45.737 Y51.023 E1.39611
G1 X43.905 Y51.578 E1.41576
G1 X42.000 Y51.766 E1.43540
G1 X40.095 Y51.578 E1.45504
G1 X38.263 Y51.023 E1.47469
G1 X36.574 Y50.119 E1.49433
G1 X35.095 Y48.905 E1.51397
G1 X33.880 Y47.425 E1.53362
G1 X32.978 Y45.737 E1.55326
G1 X32.423 Y43.906 E1.57290
G1 X32.235 Y41.999 E1.59255
G1 X32.423 Y40.095 E1.61219
G1 X32.978 Y38.262 E1.63184
G1 X33.880 Y36.575 E1.65147
G1 X35.095 Y35.095 E1.67112
G1 X36.574 Y33.881 E1.69076
G1 X38.263 Y32.977 E1.71041
G1 X40.095 Y32.422 E1.73005
G1 X41.861 Y32.248 E1.74826
G1 X42.000 Y32.234 E1.74969 F600.000
G1 X43.905 Y32.422 E1.76934
G1 X45.737 Y32.977 E1.78898
G1 X47.426 Y33.881 E1.80863
G1 X48.906 Y35.095 E1.82827
G1 X50.120 Y36.575 E1.84792
G1 X51.022 Y38.262 E1.86755
G1 X51.578 Y40.094 E1.88720
G1 X51.766 Y41.999 E1.90684
G1 X51.578 Y43.906 E1.92649
G1 X51.022 Y45.737 E1.94613
G1 X50.120 Y47.425 E1.96577
G1 X48.934 Y48.870 E1.98496
G1 X48.974 Y49.197 F1200.000
G1 X49.251 Y49.188 F1200.000
G1 X47.675 Y50.492 E2.00595 F600.000
G1 X45.909 Y51.437 E2.02650
G1 X43.992 Y52.018 E2.04704
G1 X42.000 Y52.214 E2.06759
G1 X40.008 Y52.018 E2.08813
G1 X38.091 Y51.437 E2.10868
G1 X36.325 Y50.492 E2.12923
G1 X34.778 Y49.222 E2.14977
G1 X33.507 Y47.674 E2.17032
G1 X32.564 Y45.908 E2.19087
G1 X31.983 Y43.993 E2.21140
G1 X31.786 Y41.999 E2.23196
G1 X31.983 Y40.007 E2.25250
G1 X32.564 Y38.091 E2.27305
G1 X33.507 Y36.326 E2.29359
G1 X34.778 Y34.778 E2.31414
G1 X36.325 Y33.508 E2.33467
G1 X38.091 Y32.563 E2.35523
G1 X40.008 Y31.982 E2.37577
G1 X41.817 Y31.804 E2.39443
G1 X42.000 Y31.786 E2.39632 F600.000
G1 X43.992 Y31.982 E2.41686
G1 X45.909 Y32.563 E2.43741
G1 X47.675 Y33.508 E2.45796
G1 X49.223 Y34.778 E2.47851
G1 X50.493 Y36.326 E2.49905
G1 X51.436 Y38.091 E2.51959
G1 X52.018 Y40.007 E2.54014
G1 X52.215 Y41.999 E2.56068
G1 X52.018 Y43.993 E2.58124
G1 X51.436 Y45.908 E2.60178
G1 X50.493 Y47.674 E2.62232
G1 X49.279 Y49.153 E2.64196
G10 ; retract
G92 E0
G1 Z0.550 F1200.000
G1 X49.756 Y49.603 F1200.000
G11 ; unretract
G92 E0
G1 X49.687 Y49.687 E0.00070 F480.000
G1 X48.040 Y51.039 E0.01456
G1 X46.160 Y52.043 E0.02841
G1 X44.122 Y52.663 E0.04226
G1 X42.000 Y52.872 E0.05612
G1 X39.879 Y52.663 E0.06997
G1 X37.840 Y52.043 E0.08382
G1 X35.961 Y51.039 E0.09767
G1 X34.314 Y49.687 E0.11152
G1 X32.961 Y48.040 E0.12538
G1 X31.956 Y46.160 E0.13923
G1 X31.338 Y44.121 E0.15308
G1 X31.129 Y42.000 E0.16694
G1 X31.338 Y39.879 E0.18079
G1 X31.956 Y37.839 E0.19464
G1 X32.961 Y35.960 E0.20849
G1 X34.314 Y34.313 E0.22235
G1 X35.961 Y32.961 E0.23620
G1 X37.840 Y31.956 E0.25005
G1 X39.879 Y31.337 E0.26390
G1 X42.000 Y31.128 E0.27775
G1 X43.711 Y31.297 E0.28893
G1 X44.122 Y31.337 E0.29161 F480.000
G1 X46.160 Y31.956 E0.30546
G1 X48.040 Y32.961 E0.31931
G1 X49.687 Y34.313 E0.33317
G1 X51.040 Y35.960 E0.34702
G1 X52.044 Y37.839 E0.36087
G1 X52.663 Y39.879 E0.37472
G1 X52.871 Y42.000 E0.38857
G1 X52.663 Y44.121 E0.40243
G1 X52.044 Y46.160 E0.41628
G1 X51.040 Y48.040 E0.43013
G1 X49.785 Y49.568 E0.44299
G1 X49.649 Y49.586 F1200.000
G1 X49.568 Y49.449 F1200.000
G1 X49.515 Y49.514 E0.44357 F480.000
G1 X47.905 Y50.836 E0.45798
G1 X46.067 Y51.818 E0.47238
G1 X44.074 Y52.423 E0.48678
G1 X42.000 Y52.627 E0.50119
G1 X39.927 Y52.423 E0.51559
G1 X37.933 Y51.818 E0.53000
G1 X36.096 Y50.836 E0.54439
G1 X34.486 Y49.514 E0.55880
G1 X33.164 Y47.904 E0.57320
G1 X32.182 Y46.066 E0.58761
G1 X31.577 Y44.073 E0.60201
G1 X31.373 Y42.000 E0.61642
G1 X31.577 Y39.927 E0.63082
G1 X32.182 Y37.933 E0.64522
G1 X33.164 Y36.096 E0.65962
G1 X34.486 Y34.486 E0.67403
G1 X36.097 Y33.164 E0.68843
G1 X37.933 Y32.181 E0.70283
G1 X39.927 Y31.577 E0.71724
G1 X42.000 Y31.373 E0.73164
G1 X43.687 Y31.539 E0.74336
G1 X44.074 Y31.577 E0.74605 F480.000
G1 X46.067 Y32.181 E0.76044
G1 X47.904 Y33.164 E0.77485
G1 X49.515 Y34.486 E0.78925
G1 X50.837 Y36.096 E0.80366
G1 X51.818 Y37.933 E0.81806
G1 X52.424 Y39.927 E0.83246
G1 X52.627 Y42.000 E0.84686
G1 X52.424 Y44.073 E0.86127
G1 X51.818 Y46.066 E0.87567
G1 X50.837 Y47.904 E0.89008
G1 X49.597 Y49.414 E0.90358
G1 X49.375 Y49.290 F1200.000
G1 X47.765 Y50.627 E0.91805 F480.000
G1 X45.970 Y51.585 E0.93211
G1 X44.025 Y52.176 E0.94617
G1 X42.000 Y52.376 E0.96024
G1 X39.976 Y52.176 E0.97430
G1 X38.030 Y51.585 E0.98837
G1 X36.236 Y50.627 E1.00242
G1 X34.664 Y49.336 E1.01648
G1 X33.374 Y47.764 E1.03055
G1 X32.415 Y45.970 E1.04461
G1 X31.824 Y44.024 E1.05867
G1 X31.625 Y42.000 E1.07274
G1 X31.824 Y39.976 E1.08680
G1 X32.415 Y38.029 E1.10086
G1 X33.374 Y36.236 E1.11492
G1 X34.664 Y34.664 E1.12898
G1 X36.236 Y33.373 E1.14304
G1 X38.030 Y32.414 E1.15710
G1 X39.976 Y31.824 E1.17117
G1 X42.000 Y31.624 E1.18523
G1 X43.663 Y31.788 E1.19678
G1 X44.025 Y31.824 E1.19929 F480.000
G1 X45.970 Y32.414 E1.21335
G1 X47.765 Y33.373 E1.22742
G1 X49.337 Y34.664 E1.24148
G1 X50.627 Y36.236 E1.25554
G1 X51.585 Y38.029 E1.26960
G1 X52.177 Y39.976 E1.28366
G1 X52.375 Y42.000 E1.29772
G1 X52.177 Y44.024 E1.31179
G1 X51.585 Y45.970 E1.32585
G1 X50.627 Y47.764 E1.33991
G1 X49.403 Y49.255 E1.35325
G1 X48.835 Y48.834 F1200.000
G1 X47.370 Y50.036 E1.36556 F480.000
G1 X45.699 Y50.930 E1.37788
G1 X43.885 Y51.479 E1.39020
G1 X42.000 Y51.665 E1.40251
G1 X40.115 Y51.479 E1.41483
G1 X38.301 Y50.930 E1.42714
G1 X36.630 Y50.036 E1.43946
G1 X35.166 Y48.834 E1.45177
G1 X33.964 Y47.369 E1.46409
G1 X33.071 Y45.698 E1.47641
G1 X32.521 Y43.886 E1.48872
G1 X32.335 Y41.999 E1.50104
G1 X32.521 Y40.114 E1.51335
G1 X33.071 Y38.301 E1.52567
G1 X33.964 Y36.631 E1.53798
G1 X35.166 Y35.166 E1.55030
G1 X36.630 Y33.964 E1.56261
G1 X38.301 Y33.070 E1.57493
G1 X40.115 Y32.521 E1.58724
G1 X41.618 Y32.372 E1.59706
G1 X42.000 Y32.335 E1.59956 F480.000
G1 X43.885 Y32.521 E1.61187
G1 X45.699 Y33.070 E1.62419
G1 X47.370 Y33.964 E1.63651
G1 X48.835 Y35.166 E1.64882
G1 X50.036 Y36.631 E1.66114
G1 X50.929 Y38.301 E1.67345
G1 X51.480 Y40.114 E1.68576
G1 X51.666 Y41.999 E1.69808
G1 X51.480 Y43.886 E1.71040
G1 X50.929 Y45.698 E1.72271
G1 X50.036 Y47.369 E1.73503
G1 X48.863 Y48.799 E1.74705
G1 X48.903 Y49.126 F1200.000
G1 X48.989 Y49.022 F1200.000
G1 X47.505 Y50.239 E1.76031 F480.000
G1 X45.792 Y51.155 E1.77375
G1 X43.933 Y51.719 E1.78718
G1 X42.000 Y51.910 E1.80061
G1 X40.067 Y51.719 E1.81404
G1 X38.208 Y51.155 E1.82747
G1 X36.494 Y50.239 E1.84090
G1 X34.994 Y49.007 E1.85433
G1 X33.761 Y47.505 E1.86776
G1 X32.845 Y45.792 E1.88119
G1 X32.282 Y43.934 E1.89462
G1 X32.091 Y41.999 E1.90805
G1 X32.282 Y40.066 E1.92148
G1 X32.845 Y38.207 E1.93492
G1 X33.761 Y36.495 E1.94834
G1 X34.994 Y34.993 E1.96178
G1 X36.494 Y33.761 E1.97520
G1 X38.208 Y32.845 E1.98863
G1 X40.067 Y32.281 E2.00207
G1 X41.594 Y32.130 E2.01268
G1 X42.000 Y32.090 E2.01549 F480.000
G1 X43.933 Y32.281 E2.02892
G1 X45.792 Y32.845 E2.04236
G1 X47.505 Y33.761 E2.05579
G1 X49.007 Y34.993 E2.06922
G1 X50.239 Y36.495 E2.08265
G1 X51.155 Y38.207 E2.09607
G1 X51.719 Y40.066 E2.10951
G1 X51.910 Y41.999 E2.12294
G1 X51.719 Y43.934 E2.13637
G1 X51.155 Y45.792 E2.14980
G1 X50.239 Y47.505 E2.16323
G1 X49.021 Y48.991 E2.17652
G1 X49.148 Y49.216 F1200.000
G1 X47.645 Y50.448 E2.18995 F480.000
G1 X45.889 Y51.388 E2.20373
G1 X43.982 Y51.966 E2.21750
G1 X42.000 Y52.161 E2.23127
G1 X40.018 Y51.966 E2.24504
G1 X38.111 Y51.388 E2.25881
G1 X36.354 Y50.448 E2.27259
G1 X34.816 Y49.185 E2.28635
G1 X33.551 Y47.645 E2.30013
G1 X32.612 Y45.888 E2.31390
G1 X32.035 Y43.983 E2.32767
G1 X31.839 Y41.999 E2.34145
G1 X32.035 Y40.017 E2.35522
G1 X32.612 Y38.111 E2.36899
G1 X33.551 Y36.355 E2.38276
G1 X34.816 Y34.815 E2.39653
G1 X36.354 Y33.552 E2.41030
G1 X38.111 Y32.612 E2.42407
G1 X40.018 Y32.034 E2.43785
G1 X41.570 Y31.881 E2.44863
G1 X42.000 Y31.839 E2.45162 F480.000
G1 X43.982 Y32.034 E2.46539
G1 X45.889 Y32.612 E2.47916
G1 X47.645 Y33.552 E2.49294
G1 X49.185 Y34.815 E2.50671
G1 X50.449 Y36.355 E2.52048
G1 X51.388 Y38.111 E2.53424
G1 X51.966 Y40.017 E2.54802
G1 X52.162 Y41.999 E2.56179
G1 X51.966 Y43.983 E2.57557
G1 X51.388 Y45.888 E2.58934
G1 X50.449 Y47.645 E2.60311
G1 X49.183 Y49.187 E2.61690
G10 ; retract
G92 E0
G1 Z0.850 F1200.000
G1 X49.596 Y49.762 F1200.000
G11 ; unretract
G92 E0
G1 X48.040 Y51.039 E0.01308 F480.000
G1 X46.160 Y52.043 E0.02694
G1 X44.122 Y52.663 E0.04079
G1 X42.000 Y52.872 E0.05464
G1 X39.879 Y52.663 E0.06850
G1 X37.840 Y52.043 E0.08235
G1 X35.961 Y51.039 E0.09620
G1 X34.314 Y49.687 E0.11005
G1 X32.961 Y48.040 E0.12390
G1 X31.956 Y46.160 E0.13776
G1 X31.338 Y44.121 E0.15161
G1 X31.129 Y42.000 E0.16547
G1 X31.338 Y39.879 E0.17932
G1 X31.956 Y37.839 E0.19317
G1 X32.961 Y35.960 E0.20702
G1 X34.314 Y34.313 E0.22087
G1 X35.961 Y32.961 E0.23473
G1 X37.840 Y31.956 E0.24858
G1 X39.879 Y31.337 E0.26243
G1 X42.000 Y31.128 E0.27628
G1 X43.347 Y31.261 E0.28508
G1 X44.122 Y31.337 E0.29014 F480.000
G1 X46.160 Y31.956 E0.30399
G1 X48.040 Y32.961 E0.31784
G1 X49.687 Y34.313 E0.33169
G1 X51.040 Y35.960 E0.34555
G1 X52.044 Y37.839 E0.35939
G1 X52.663 Y39.879 E0.37325
G1 X52.871 Y42.000 E0.38710
G1 X52.663 Y44.121 E0.40096
G1 X52.044 Y46.160 E0.41481
G1 X51.040 Y48.040 E0.42866
G1 X49.687 Y49.687 E0.44251
G1 X49.631 Y49.733 E0.44299
G1 X49.315 Y49.656 F1200.000
G1 X49.442 Y49.574 F1200.000
G1 X47.905 Y50.836 E0.45674 F480.000
G1 X46.067 Y51.818 E0.47114
G1 X44.074 Y52.423 E0.48555
G1 X42.000 Y52.627 E0.49995
G1 X39.927 Y52.423 E0.51435
G1 X37.933 Y51.818 E0.52876
G1 X36.096 Y50.836 E0.54316
G1 X34.486 Y49.514 E0.55756
G1 X33.164 Y47.904 E0.57197
G1 X32.182 Y46.066 E0.58637
G1 X31.577 Y44.073 E0.60077
G1 X31.373 Y42.000 E0.61518
G1 X31.577 Y39.927 E0.62958
G1 X32.182 Y37.933 E0.64399
G1 X33.164 Y36.096 E0.65839
G1 X34.486 Y34.486 E0.67279
G1 X36.097 Y33.164 E0.68719
G1 X37.933 Y32.181 E0.70160
G1 X39.927 Y31.577 E0.71600
G1 X42.000 Y31.373 E0.73040
G1 X43.323 Y31.503 E0.73959
G1 X44.074 Y31.577 E0.74481 F480.000
G1 X46.067 Y32.181 E0.75921
G1 X47.904 Y33.164 E0.77362
G1 X49.515 Y34.486 E0.78802
G1 X50.837 Y36.096 E0.80242
G1 X51.818 Y37.933 E0.81682
G1 X52.424 Y39.927 E0.83123
G1 X52.627 Y42.000 E0.84563
G1 X52.424 Y44.073 E0.86004
G1 X51.818 Y46.066 E0.87444
G1 X50.837 Y47.904 E0.88884
G1 X49.477 Y49.545 E0.90358
G1 X49.283 Y49.380 F1200.000
G1 X47.765 Y50.627 E0.91716 F480.000
G1 X45.970 Y51.585 E0.93122
G1 X44.025 Y52.176 E0.94528
G1 X42.000 Y52.376 E0.95935
G1 X39.976 Y52.176 E0.97341
G1 X38.030 Y51.585 E0.98747
G1 X36.236 Y50.627 E1.00153
G1 X34.664 Y49.336 E1.01559
G1 X33.374 Y47.764 E1.02965
G1 X32.415 Y45.970 E1.04372
G1 X31.824 Y44.024 E1.05778
G1 X31.625 Y42.000 E1.07184
G1 X31.824 Y39.976 E1.08590
G1 X32.415 Y38.029 E1.09997
G1 X33.374 Y36.236 E1.11403
G1 X34.664 Y34.664 E1.12809
G1 X36.236 Y33.373 E1.14215
G1 X38.030 Y32.414 E1.15621
G1 X39.976 Y31.824 E1.17027
G1 X42.000 Y31.624 E1.18433
G1 X43.299 Y31.752 E1.19336
G1 X44.025 Y31.824 E1.19840 F480.000
G1 X45.970 Y32.414 E1.21246
G1 X47.765 Y33.373 E1.22652
G1 X49.337 Y34.664 E1.24059
G1 X50.627 Y36.236 E1.25465
G1 X51.585 Y38.029 E1.26870
G1 X52.177 Y39.976 E1.28277
G1 X52.375 Y42.000 E1.29683
G1 X52.177 Y44.024 E1.31090
G1 X51.585 Y45.970 E1.32495
G1 X50.627 Y47.764 E1.33902
G1 X49.318 Y49.352 E1.35325
G1 X48.835 Y48.834 F1200.000
G1 X47.370 Y50.036 E1.36556 F480.000
