; generated by Slic3r 1.2.9 on 2016-08-09 at 12:42:19

; external perimeters extrusion width = 0.30mm
; perimeters extrusion width = 0.31mm
; infill extrusion width = 0.31mm
; solid infill extrusion width = 0.31mm
; top infill extrusion width = 0.31mm

M104 S200 ; set temperature
;<-- Mini Metal Maker Start Procedure -->
G21 ; set units to millimeters
G28 ; home all axes
G90 ; use absolute coordinates
G92 E0
M82 ; use absolute distances for extrusion
G1 Z0.6 F5000 ; lift nozzle to printing start height
G92 Z0
G1 Z0.5 ; raise tip enough for pressurization flow to begin
G1 X70.000 ; offset from X to do the pressurization procedure
G5 X0.000, F900.000 E5.00000 ; return to home while pressurizing
G92 E0 ; set pressurized state as the zero reference for extruder
M106 ; turn on fan
;<--end Mini Metal Maker Start Procedure -->

M109 S200 ; wait for temperature to be reached
G21 ; set units to millimeters
G90 ; use absolute coordinates
M82 ; use absolute distances for extrusion
G92 E0
G10 ; retract
G92 E0
G1 Z0.250 F1200.000
G1 X28.961 Y28.960 F1200.000
G11 ; unretract
G92 E0
G1 X29.407 Y28.514 E0.00647 F600.000
G1 X31.230 Y27.018 E0.03067
G1 X32.281 Y26.316 E0.04364
G1 X34.360 Y25.205 E0.06783
G1 X35.528 Y24.721 E0.08080
G1 X37.784 Y24.037 E0.10499
G1 X39.020 Y23.791 E0.11792
G1 X41.366 Y23.559 E0.14211
G1 X42.635 Y23.559 E0.15513
G1 X44.981 Y23.791 E0.17932 F600.000
G1 X46.217 Y24.037 E0.19225
G1 X48.473 Y24.721 E0.21644
G1 X49.641 Y25.205 E0.22941
G1 X51.720 Y26.316 E0.25360
G1 X52.772 Y27.019 E0.26659
G1 X54.594 Y28.515 E0.29078
G1 X55.486 Y29.406 E0.30371
G1 X56.982 Y31.228 E0.32790
G1 X57.685 Y32.281 E0.34089
G1 X58.796 Y34.360 E0.36508
G1 X59.280 Y35.528 E0.37805
G1 X59.964 Y37.784 E0.40224
G1 X60.210 Y39.022 E0.41520
G1 X60.441 Y41.368 E0.43939
G1 X60.441 Y42.632 E0.45235
G1 X60.210 Y44.978 E0.47654
G1 X59.964 Y46.216 E0.48950
G1 X59.280 Y48.472 E0.51369
G1 X58.796 Y49.640 E0.52666
G1 X57.685 Y51.719 E0.55085
G1 X56.982 Y52.772 E0.56384
G1 X55.486 Y54.594 E0.58803
G1 X54.594 Y55.485 E0.60096
G1 X52.772 Y56.981 E0.62515
G1 X51.720 Y57.684 E0.63814
G1 X49.641 Y58.795 E0.66233
G1 X48.473 Y59.279 E0.67530
G1 X46.217 Y59.963 E0.69949
G1 X44.981 Y60.209 E0.71242
G1 X42.635 Y60.441 E0.73661
G1 X41.366 Y60.441 E0.74963
G1 X39.020 Y60.209 E0.77382
G1 X37.784 Y59.963 E0.78675
G1 X35.528 Y59.279 E0.81094
G1 X34.360 Y58.795 E0.82391
G1 X32.281 Y57.684 E0.84810
G1 X31.230 Y56.982 E0.86107
G1 X29.407 Y55.486 E0.88527
G1 X28.513 Y54.592 E0.89825
G1 X27.018 Y52.770 E0.92243
G1 X26.316 Y51.719 E0.93540
G1 X25.205 Y49.640 E0.95959
G1 X24.722 Y48.475 E0.97253
G1 X24.037 Y46.219 E0.99672
G1 X23.790 Y44.978 E1.00971
G1 X23.559 Y42.632 E1.03390
G1 X23.559 Y41.368 E1.04686
G1 X23.790 Y39.022 E1.07105
G1 X24.037 Y37.781 E1.08404
G1 X24.722 Y35.525 E1.10823
G1 X25.205 Y34.360 E1.12117
G1 X26.316 Y32.281 E1.14536
G1 X27.018 Y31.230 E1.15833
G1 X28.513 Y29.408 E1.18251
G1 X28.930 Y28.991 E1.18856
G10 ; retract
G92 E0
G1 X50.326 Y50.325 F1200.000
G11 ; unretract
G92 E0
G1 X48.542 Y51.790 E0.02369 F600.000
G1 X46.506 Y52.878 E0.04737
G1 X44.297 Y53.548 E0.07105
G1 X42.001 Y53.775 E0.09474
G1 X39.704 Y53.548 E0.11842
G1 X37.495 Y52.878 E0.14211
G1 X35.459 Y51.790 E0.16579
G1 X33.674 Y50.325 E0.18948
G1 X32.210 Y48.541 E0.21316
G1 X31.123 Y46.506 E0.23684
G1 X30.452 Y44.297 E0.26053
G1 X30.226 Y42.000 E0.28421
G1 X30.452 Y39.703 E0.30790
G1 X31.123 Y37.494 E0.33159
G1 X32.210 Y35.459 E0.35527
G1 X33.674 Y33.675 E0.37895
G1 X35.459 Y32.210 E0.40264
G1 X37.495 Y31.122 E0.42632
G1 X39.704 Y30.452 E0.45001
G1 X42.000 Y30.225 E0.47369
G1 X44.279 Y30.451 E0.49719
G1 X46.507 Y31.122 E0.52106 F600.000
G1 X48.542 Y32.210 E0.54474
G1 X50.326 Y33.675 E0.56843
G1 X51.791 Y35.459 E0.59211
G1 X52.878 Y37.494 E0.61579
G1 X53.548 Y39.703 E0.63948
G1 X53.774 Y42.000 E0.66316
G1 X53.548 Y44.297 E0.68684
G1 X52.878 Y46.506 E0.71053
G1 X51.791 Y48.541 E0.73421
G1 X50.354 Y50.291 E0.75744
G1 X50.039 Y50.238 F1200.000
G1 X50.009 Y50.008 F1200.000
G1 X48.293 Y51.417 E0.78022 F600.000
G1 X46.335 Y52.464 E0.80300
G1 X44.210 Y53.108 E0.82578
G1 X42.000 Y53.326 E0.84856
G1 X39.791 Y53.108 E0.87135
G1 X37.666 Y52.464 E0.89413
G1 X35.708 Y51.417 E0.91691
G1 X33.991 Y50.008 E0.93970
G1 X32.583 Y48.292 E0.96248
G1 X31.537 Y46.334 E0.98526
G1 X30.892 Y44.209 E1.00804
G1 X30.674 Y42.000 E1.03082
G1 X30.892 Y39.791 E1.05360
G1 X31.537 Y37.666 E1.07639
G1 X32.583 Y35.708 E1.09917
G1 X33.991 Y33.992 E1.12195
G1 X35.708 Y32.583 E1.14474
G1 X37.666 Y31.536 E1.16752
G1 X39.791 Y30.892 E1.19030
G1 X42.000 Y30.674 E1.21308
G1 X44.192 Y30.890 E1.23568
G1 X46.335 Y31.537 E1.25865 F600.000
G1 X48.293 Y32.583 E1.28142
G1 X50.009 Y33.992 E1.30421
G1 X51.418 Y35.708 E1.32699
G1 X52.464 Y37.666 E1.34977
G1 X53.108 Y39.790 E1.37255
G1 X53.326 Y42.000 E1.39533
G1 X53.108 Y44.210 E1.41812
G1 X52.464 Y46.334 E1.44090
G1 X51.418 Y48.292 E1.46368
G1 X50.037 Y49.973 E1.48600
G1 X49.263 Y49.263 F1200.000
G1 X47.706 Y50.540 E1.50666 F600.000
G1 X45.931 Y51.489 E1.52732
G1 X44.004 Y52.073 E1.54799
G1 X42.001 Y52.271 E1.56864
G1 X39.996 Y52.073 E1.58930
G1 X38.069 Y51.489 E1.60997
G1 X36.294 Y50.540 E1.63062
G1 X34.738 Y49.263 E1.65128
G1 X33.461 Y47.707 E1.67194
G1 X32.511 Y45.930 E1.69261
G1 X31.927 Y44.004 E1.71326
G1 X31.729 Y42.000 E1.73392
G1 X31.927 Y39.996 E1.75458
G1 X32.501 Y38.090 E1.77501
G1 X33.461 Y36.293 E1.79591
G1 X34.738 Y34.737 E1.81657
G1 X36.294 Y33.460 E1.83723
G1 X38.070 Y32.511 E1.85789
G1 X40.058 Y31.921 E1.87917
G1 X42.000 Y31.729 E1.89920 F600.000
G1 X43.998 Y31.925 E1.91979
G1 X45.931 Y32.511 E1.94052
G1 X47.706 Y33.460 E1.96118
G1 X49.263 Y34.737 E1.98184
G1 X50.540 Y36.293 E2.00250
G1 X51.490 Y38.070 E2.02316
G1 X52.074 Y39.996 E2.04382
G1 X52.271 Y42.000 E2.06448
G1 X52.074 Y44.004 E2.08514
G1 X51.490 Y45.930 E2.10580
G1 X50.540 Y47.707 E2.12646
G1 X49.292 Y49.228 E2.14666
G1 X49.331 Y49.555 F1200.000
G1 X49.608 Y49.546 F1200.000
G1 X47.955 Y50.913 E2.16867 F600.000
G1 X46.102 Y51.903 E2.19023
G1 X44.091 Y52.513 E2.21179
G1 X42.001 Y52.720 E2.23335
G1 X39.909 Y52.513 E2.25492
G1 X37.898 Y51.903 E2.27648
G1 X36.045 Y50.913 E2.29804
G1 X34.421 Y49.580 E2.31960
G1 X33.088 Y47.956 E2.34116
G1 X32.097 Y46.102 E2.36273
G1 X31.487 Y44.092 E2.38428
G1 X31.281 Y42.000 E2.40585
G1 X31.487 Y39.909 E2.42741
G1 X32.086 Y37.918 E2.44874
G1 X33.088 Y36.044 E2.47055
G1 X34.421 Y34.420 E2.49211
G1 X36.045 Y33.087 E2.51366
G1 X37.900 Y32.096 E2.53525
G1 X39.972 Y31.481 E2.55743
G1 X42.000 Y31.280 E2.57834 F600.000
G1 X44.085 Y31.485 E2.59984
G1 X46.102 Y32.097 E2.62147
G1 X47.955 Y33.087 E2.64303
G1 X49.580 Y34.420 E2.66459
G1 X50.913 Y36.044 E2.68615
G1 X51.904 Y37.898 E2.70772
G1 X52.514 Y39.909 E2.72928
G1 X52.719 Y42.000 E2.75084
G1 X52.514 Y44.091 E2.77241
G1 X51.904 Y46.102 E2.79396
G1 X50.913 Y47.956 E2.81553
G1 X49.637 Y49.511 E2.83618
G1 X49.841 Y49.737 F1200.000
G1 X49.788 Y49.799 E2.83701 F600.000
G1 X48.117 Y51.169 E2.85919
G1 X46.219 Y52.183 E2.88127
G1 X44.151 Y52.810 E2.90345
G1 X41.993 Y53.022 E2.92570
G1 X39.850 Y52.810 E2.94779
G1 X37.782 Y52.183 E2.96996
G1 X35.870 Y51.160 E2.99222
G1 X34.206 Y49.794 E3.01431
G1 X32.836 Y48.124 E3.03648
G1 X31.817 Y46.218 E3.05865
G1 X31.192 Y44.158 E3.08074
G1 X30.978 Y41.992 E3.10307
G1 X31.190 Y39.850 E3.12516 F600.000
G1 X31.806 Y37.811 E3.14702
G1 X32.832 Y35.883 E3.16943
G1 X34.206 Y34.206 E3.19167
G1 X35.877 Y32.835 E3.21385
G1 X37.792 Y31.813 E3.23613
G1 X39.851 Y31.195 E3.25819
G1 X41.993 Y30.978 E3.28027
G1 X44.136 Y31.188 E3.30237
G1 X46.219 Y31.817 E3.32470
G1 X48.130 Y32.840 E3.34694
G1 X49.794 Y34.206 E3.36904
G1 X51.160 Y35.870 E3.39113
G1 X52.184 Y37.782 E3.41338
G1 X52.811 Y39.850 E3.43555
G1 X53.022 Y42.000 E3.45772
G1 X52.809 Y44.158 E3.47997
G1 X52.180 Y46.225 E3.50214
G1 X51.165 Y48.124 E3.52423
G1 X49.870 Y49.702 E3.54519
G10 ; retract
G92 E0
G1 Z0.550 F1200.000
G1 X50.496 Y50.275 F1200.000
G11 ; unretract
G92 E0
G1 X50.397 Y50.396 E0.00102 F480.000
G1 X48.598 Y51.874 E0.01615
G1 X46.545 Y52.971 E0.03128
G1 X44.317 Y53.646 E0.04641
G1 X42.000 Y53.875 E0.06154
G1 X39.684 Y53.646 E0.07667
G1 X37.456 Y52.971 E0.09181
G1 X35.403 Y51.874 E0.10694
G1 X33.603 Y50.396 E0.12207
G1 X32.127 Y48.597 E0.13720
G1 X31.030 Y46.544 E0.15233
G1 X30.353 Y44.317 E0.16746
G1 X30.125 Y42.000 E0.18259
G1 X30.353 Y39.683 E0.19772
G1 X31.030 Y37.456 E0.21286
G1 X32.127 Y35.403 E0.22799
G1 X33.603 Y33.604 E0.24311
G1 X35.403 Y32.126 E0.25825
G1 X37.456 Y31.029 E0.27338
G1 X39.684 Y30.354 E0.28851
G1 X42.001 Y30.125 E0.30364
G1 X44.098 Y30.332 E0.31734
G1 X44.317 Y30.354 E0.31877 F480.000
G1 X46.545 Y31.029 E0.33391
G1 X48.598 Y32.126 E0.34904
G1 X50.397 Y33.604 E0.36417
G1 X51.874 Y35.403 E0.37930
G1 X52.971 Y37.456 E0.39443
G1 X53.647 Y39.683 E0.40956
G1 X53.875 Y42.000 E0.42469
G1 X53.647 Y44.317 E0.43982
G1 X52.971 Y46.544 E0.45495
G1 X51.874 Y48.597 E0.47008
G1 X50.525 Y50.240 E0.48390
G1 X50.342 Y50.250 F1200.000
G1 X50.309 Y50.121 F1200.000
G1 X50.224 Y50.224 E0.48482 F480.000
G1 X48.462 Y51.671 E0.50059
G1 X46.451 Y52.745 E0.51635
G1 X44.269 Y53.407 E0.53211
G1 X42.000 Y53.631 E0.54787
G1 X39.732 Y53.407 E0.56364
G1 X37.550 Y52.745 E0.57940
G1 X35.539 Y51.671 E0.59516
G1 X33.776 Y50.224 E0.61093
G1 X32.330 Y48.462 E0.62669
G1 X31.255 Y46.451 E0.64245
G1 X30.593 Y44.269 E0.65822
G1 X30.370 Y42.000 E0.67398
G1 X30.593 Y39.731 E0.68974
G1 X31.255 Y37.549 E0.70551
G1 X32.330 Y35.538 E0.72127
G1 X33.776 Y33.776 E0.73703
G1 X35.539 Y32.329 E0.75280
G1 X37.550 Y31.255 E0.76856
G1 X39.732 Y30.593 E0.78433
G1 X42.001 Y30.369 E0.80009
G1 X44.074 Y30.574 E0.81450
G1 X44.269 Y30.593 E0.81585 F480.000
G1 X46.451 Y31.255 E0.83162
G1 X48.462 Y32.329 E0.84738
G1 X50.224 Y33.776 E0.86314
G1 X51.671 Y35.538 E0.87891
G1 X52.746 Y37.549 E0.89467
G1 X53.407 Y39.731 E0.91043
G1 X53.630 Y42.000 E0.92619
G1 X53.407 Y44.269 E0.94196
G1 X52.746 Y46.451 E0.95772
G1 X51.671 Y48.462 E0.97348
G1 X50.337 Y50.086 E0.98802
G1 X50.115 Y49.962 F1200.000
G1 X50.046 Y50.046 E0.98876 F480.000
G1 X48.322 Y51.461 E1.00419
G1 X46.355 Y52.512 E1.01961
G1 X44.220 Y53.160 E1.03503
G1 X42.000 Y53.379 E1.05045
G1 X39.781 Y53.160 E1.06587
G1 X37.646 Y52.512 E1.08130
G1 X35.679 Y51.461 E1.09672
G1 X33.954 Y50.046 E1.11214
G1 X32.539 Y48.322 E1.12756
G1 X31.488 Y46.354 E1.14298
G1 X30.840 Y44.220 E1.15841
G1 X30.621 Y42.000 E1.17383
G1 X30.840 Y39.780 E1.18925
G1 X31.488 Y37.646 E1.20467
G1 X32.539 Y35.678 E1.22010
G1 X33.954 Y33.954 E1.23551
G1 X35.679 Y32.539 E1.25094
G1 X37.646 Y31.488 E1.26636
G1 X39.781 Y30.840 E1.28178
G1 X42.000 Y30.621 E1.29721
G1 X44.050 Y30.824 E1.31144
G1 X44.220 Y30.840 E1.31263 F480.000
G1 X46.355 Y31.488 E1.32805
G1 X48.322 Y32.539 E1.34347
G1 X50.046 Y33.954 E1.35889
G1 X51.462 Y35.678 E1.37432
G1 X52.513 Y37.645 E1.38974
G1 X53.160 Y39.780 E1.40516
G1 X53.379 Y42.000 E1.42058
G1 X53.160 Y44.220 E1.43600
G1 X52.513 Y46.355 E1.45142
G1 X51.462 Y48.322 E1.46684
G1 X50.143 Y49.927 E1.48121
G1 X49.192 Y49.192 F1200.000
G1 X47.650 Y50.456 E1.49417 F480.000
G1 X45.892 Y51.396 E1.50713
G1 X43.984 Y51.975 E1.52009
G1 X42.001 Y52.171 E1.53304
G1 X40.016 Y51.975 E1.54600
G1 X38.108 Y51.396 E1.55897
G1 X36.350 Y50.456 E1.57192
G1 X34.809 Y49.192 E1.58488
G1 X33.544 Y47.651 E1.59784
G1 X32.604 Y45.892 E1.61080
G1 X32.026 Y43.984 E1.62376
G1 X31.830 Y42.000 E1.63672
G1 X32.026 Y40.016 E1.64968
G1 X32.604 Y38.108 E1.66263
G1 X33.544 Y36.349 E1.67560
G1 X34.809 Y34.808 E1.68856
G1 X36.350 Y33.544 E1.70151
G1 X38.108 Y32.604 E1.71447
G1 X40.016 Y32.025 E1.72743 F480.000
G1 X42.001 Y31.829 E1.74039
G1 X43.984 Y32.025 E1.75335
G1 X45.892 Y32.604 E1.76631
G1 X47.650 Y33.544 E1.77927
G1 X49.192 Y34.808 E1.79223
G1 X50.457 Y36.349 E1.80519
G1 X51.397 Y38.108 E1.81815
G1 X51.975 Y40.016 E1.83111
G1 X52.170 Y42.000 E1.84407
G1 X51.975 Y43.984 E1.85703
G1 X51.397 Y45.892 E1.86998
G1 X50.457 Y47.651 E1.88295
G1 X49.221 Y49.157 E1.89561
G1 X49.260 Y49.484 F1200.000
G1 X49.380 Y49.346 F1200.000
G1 X47.786 Y50.659 E1.90989 F480.000
G1 X45.986 Y51.622 E1.92401
G1 X44.032 Y52.214 E1.93812
G1 X42.001 Y52.415 E1.95224
G1 X39.968 Y52.214 E1.96635
G1 X38.014 Y51.622 E1.98047
G1 X36.214 Y50.659 E1.99459
G1 X34.636 Y49.364 E2.00870
G1 X33.341 Y47.786 E2.02281
G1 X32.379 Y45.985 E2.03693
G1 X31.786 Y44.032 E2.05104
G1 X31.585 Y42.000 E2.06516
G1 X31.786 Y39.968 E2.07928
G1 X32.379 Y38.015 E2.09339
G1 X33.341 Y36.214 E2.10751
G1 X34.636 Y34.636 E2.12162
G1 X36.214 Y33.341 E2.13574
G1 X38.014 Y32.378 E2.14985
G1 X39.968 Y31.786 E2.16397
G1 X40.202 Y31.763 E2.16559
G1 X42.001 Y31.585 E2.17809 F480.000
G1 X44.032 Y31.786 E2.19220
G1 X45.986 Y32.378 E2.20631
G1 X47.786 Y33.341 E2.22043
G1 X49.365 Y34.636 E2.23455
G1 X50.660 Y36.214 E2.24866
G1 X51.622 Y38.015 E2.26278
G1 X52.215 Y39.968 E2.27689
G1 X52.415 Y42.000 E2.29101
G1 X52.215 Y44.032 E2.30512
G1 X51.622 Y45.985 E2.31924
G1 X50.660 Y47.786 E2.33336
G1 X49.409 Y49.311 E2.34699
G1 X49.574 Y49.505 F1200.000
G1 X47.926 Y50.869 E2.36178 F480.000
G1 X46.082 Y51.855 E2.37624
G1 X44.081 Y52.461 E2.39070
G1 X42.001 Y52.667 E2.40515
G1 X39.919 Y52.461 E2.41961
G1 X37.918 Y51.855 E2.43407
G1 X36.074 Y50.869 E2.44852
G1 X34.458 Y49.542 E2.46298
G1 X33.132 Y47.926 E2.47743
G1 X32.146 Y46.081 E2.49189
G1 X31.539 Y44.081 E2.50634
G1 X31.334 Y42.000 E2.52080
G1 X31.539 Y39.919 E2.53526
G1 X32.146 Y37.918 E2.54971
G1 X33.132 Y36.074 E2.56418
G1 X34.458 Y34.458 E2.57863
G1 X36.074 Y33.131 E2.59309
G1 X37.918 Y32.145 E2.60754
G1 X39.919 Y31.539 E2.62200
G1 X40.177 Y31.513 E2.62379
G1 X42.001 Y31.333 E2.63646 F480.000
G1 X44.081 Y31.539 E2.65091
G1 X46.082 Y32.145 E2.66537
G1 X47.926 Y33.131 E2.67982
G1 X49.543 Y34.458 E2.69428
G1 X50.869 Y36.074 E2.70874
G1 X51.855 Y37.918 E2.72320
G1 X52.462 Y39.919 E2.73765
G1 X52.666 Y42.000 E2.75211
G1 X52.462 Y44.081 E2.76657
G1 X51.855 Y46.081 E2.78102
G1 X50.869 Y47.926 E2.79548
G1 X49.602 Y49.470 E2.80929
G1 X50.093 Y49.696 F1200.000
G1 X49.697 Y50.092 E2.81316 F480.000
G1 X48.174 Y50.905 F1200.000
G1 X47.227 Y51.852 E2.82243 F480.000
G1 X47.358 Y51.366 E2.82592
G1 X46.465 Y52.259 E2.83465
G1 X46.596 Y51.774 E2.83813
G1 X45.877 Y52.493 E2.84516
G1 X45.958 Y52.057 E2.84823
G1 X45.368 Y52.647 E2.85401
G1 X45.449 Y52.211 E2.85708
G1 X44.859 Y52.801 E2.86285
G1 X44.940 Y52.366 E2.86592
G1 X44.350 Y52.956 E2.87170
G1 X44.431 Y52.520 E2.87477
G1 X43.906 Y53.045 E2.87990
G1 X43.512 Y53.084 E2.88264
G1 X43.978 Y52.618 E2.88720
G1 X43.584 Y52.656 E2.88994
G1 X43.118 Y53.123 E2.89450
G1 X42.725 Y53.161 E2.89724
G1 X43.191 Y52.695 E2.90180
G1 X42.797 Y52.734 E2.90454
G1 X42.331 Y53.200 E2.90910
G1 X41.939 Y53.238 E2.91183
G1 X42.403 Y52.773 E2.91637
G1 X42.018 Y52.804 E2.91905
G1 X41.616 Y53.206 E2.92298
G1 X41.293 Y53.174 E2.92523
G1 X41.695 Y52.772 E2.92916
G1 X41.372 Y52.740 E2.93140
G1 X40.970 Y53.142 E2.93533
G1 X40.647 Y53.110 E2.93758
G1 X41.049 Y52.708 E2.94151
G1 X40.726 Y52.677 E2.94375
G1 X40.325 Y53.078 E2.94768
G1 X40.002 Y53.046 E2.94993
G1 X40.403 Y52.645 E2.95385
G1 X40.080 Y52.613 E2.95610
G1 X39.692 Y53.000 E2.95989
G1 X39.420 Y52.918 E2.96186
G1 X39.785 Y52.553 E2.96543
G1 X39.513 Y52.471 E2.96740
G1 X39.148 Y52.835 E2.97097
G1 X38.876 Y52.753 E2.97294
G1 X39.240 Y52.388 E2.97651
G1 X38.968 Y52.305 E2.97848
G1 X38.603 Y52.670 E2.98205
G1 X38.331 Y52.588 E2.98402
G1 X38.696 Y52.223 E2.98759
G1 X38.424 Y52.140 E2.98956
G1 X38.059 Y52.505 E2.99313
G1 X37.787 Y52.423 E2.99510
G1 X38.151 Y52.058 E2.99867
G1 X37.882 Y51.973 E3.00063
G1 X37.537 Y52.317 E3.00400
G1 X37.306 Y52.193 E3.00581
G1 X37.651 Y51.849 E3.00919
G1 X37.419 Y51.725 E3.01100
G1 X37.075 Y52.070 E3.01437
G1 X36.844 Y51.946 E3.01619
G1 X37.188 Y51.602 E3.01956
G1 X36.957 Y51.478 E3.02138
G1 X36.612 Y51.823 E3.02475
G1 X36.381 Y51.699 E3.02656
G1 X36.726 Y51.355 E3.02994
G1 X36.495 Y51.231 E3.03175
G1 X36.150 Y51.576 E3.03513
G1 X35.919 Y51.452 E3.03694
G1 X36.263 Y51.107 E3.04031
G1 X36.032 Y50.984 E3.04213
G1 X35.695 Y51.321 E3.04543
G1 X35.500 Y51.161 E3.04718
G1 X35.835 Y50.826 E3.05046
G1 X35.640 Y50.666 E3.05221
G1 X35.305 Y51.001 E3.05549
G1 X35.110 Y50.841 E3.05724
G1 X35.446 Y50.506 E3.06052
