; generated by Slic3r 1.2.9 on 2016-08-09 at 13:01:28

; external perimeters extrusion width = 0.30mm
; perimeters extrusion width = 0.31mm
; infill extrusion width = 0.31mm
; solid infill extrusion width = 0.31mm
; top infill extrusion width = 0.31mm

M104 S200 ; set temperature
;<-- Mini Metal Maker Start Procedure -->
G21 ; set units to millimeters
G28 ; home all axes
G90 ; use absolute coordinates
G92 E0
M82 ; use absolute distances for extrusion
G1 Z0.6 F5000 ; lift nozzle to printing start height
G92 Z0
G1 Z0.5 ; raise tip enough for pressurization flow to begin
G1 X70.000 ; offset from X to do the pressurization procedure
G5 X0.000, F900.000 E5.00000 ; return to home while pressurizing
G92 E0 ; set pressurized state as the zero reference for extruder
M106 ; turn on fan
;<--end Mini Metal Maker Start Procedure -->

M109 S200 ; wait for temperature to be reached
G21 ; set units to millimeters
G90 ; use absolute coordinates
M82 ; use absolute distances for extrusion
G92 E0
G10 ; retract
G92 E0
G1 Z0.250 F1200.000
G1 X30.313 Y30.322 F1200.000
G11 ; unretract
G92 E0
G1 X30.765 Y29.870 E0.00656 F600.000
G1 X32.297 Y28.613 E0.02689
G1 X33.346 Y27.912 E0.03985
G1 X35.093 Y26.978 E0.06017
G1 X36.262 Y26.494 E0.07315
G1 X38.158 Y25.919 E0.09348
G1 X39.397 Y25.673 E0.10645
G1 X41.368 Y25.479 E0.12677
G1 X42.631 Y25.479 E0.13973
G1 X44.479 Y25.660 E0.15879
G1 X45.842 Y25.919 E0.17302 F600.000
G1 X47.738 Y26.494 E0.19335
G1 X48.907 Y26.978 E0.20633
G1 X50.654 Y27.912 E0.22666
G1 X51.705 Y28.615 E0.23963
G1 X53.236 Y29.872 E0.25996
G1 X54.128 Y30.763 E0.27290
G1 X55.385 Y32.294 E0.29322
G1 X56.087 Y33.346 E0.30620
G1 X57.021 Y35.093 E0.32653
G1 X57.505 Y36.261 E0.33950
G1 X58.080 Y38.157 E0.35983
G1 X58.327 Y39.394 E0.37277
G1 X58.522 Y41.366 E0.39311
G1 X58.522 Y42.635 E0.40613
G1 X58.327 Y44.606 E0.42645
G1 X58.080 Y45.842 E0.43938
G1 X57.505 Y47.738 E0.45971
G1 X57.021 Y48.906 E0.47269
G1 X56.087 Y50.653 E0.49302
G1 X55.386 Y51.703 E0.50597
G1 X54.129 Y53.235 E0.52631
G1 X53.236 Y54.128 E0.53927
G1 X51.705 Y55.385 E0.55959
G1 X50.654 Y56.088 E0.57257
G1 X48.907 Y57.022 E0.59290
G1 X47.738 Y57.506 E0.60587
G1 X45.842 Y58.081 E0.62620
G1 X44.603 Y58.327 E0.63917
G1 X42.631 Y58.521 E0.65951
G1 X41.368 Y58.521 E0.67246
G1 X39.397 Y58.327 E0.69278
G1 X38.158 Y58.081 E0.70575
G1 X36.262 Y57.506 E0.72608
G1 X35.093 Y57.022 E0.73906
G1 X33.346 Y56.088 E0.75939
G1 X32.297 Y55.387 E0.77234
G1 X30.765 Y54.130 E0.79267
G1 X29.870 Y53.235 E0.80566
G1 X28.691 Y51.799 E0.82472
G1 X27.910 Y50.651 E0.83897
G1 X26.977 Y48.904 E0.85929
G1 X26.495 Y47.741 E0.87221
G1 X25.919 Y45.845 E0.89254
G1 X25.672 Y44.602 E0.90554
G1 X25.478 Y42.631 E0.92586
G1 X25.478 Y41.369 E0.93882
G1 X25.672 Y39.397 E0.95915
G1 X25.919 Y38.154 E0.97215
G1 X26.496 Y36.258 E0.99249
G1 X26.977 Y35.095 E1.00540
G1 X27.910 Y33.348 E1.02572
G1 X28.614 Y32.294 E1.03873
G1 X29.871 Y30.763 E1.05905
G1 X30.281 Y30.354 E1.06500
G10 ; retract
G92 E0
G1 X48.968 Y48.968 F1200.000
G11 ; unretract
G92 E0
G1 X47.475 Y50.194 E0.01982 F600.000
G1 X45.771 Y51.105 E0.03964
G1 X43.923 Y51.666 E0.05947
G1 X42.000 Y51.855 E0.07929
G1 X40.077 Y51.666 E0.09911
G1 X38.229 Y51.105 E0.11894
G1 X36.525 Y50.194 E0.13876
G1 X35.031 Y48.968 E0.15859
G1 X33.805 Y47.474 E0.17842
G1 X32.896 Y45.771 E0.19823
G1 X32.334 Y43.922 E0.21806
G1 X32.145 Y42.000 E0.23788
G1 X32.334 Y40.077 E0.25771
G1 X32.896 Y38.228 E0.27753
G1 X33.805 Y36.525 E0.29735
G1 X35.031 Y35.032 E0.31717
G1 X36.525 Y33.806 E0.33700
G1 X38.229 Y32.895 E0.35682
G1 X40.077 Y32.334 E0.37665
G1 X42.000 Y32.145 E0.39647
G1 X43.824 Y32.325 E0.41528
G1 X43.923 Y32.334 E0.41629 F600.000
G1 X45.771 Y32.895 E0.43612
G1 X47.475 Y33.806 E0.45594
G1 X48.968 Y35.032 E0.47576
G1 X50.194 Y36.525 E0.49558
G1 X51.104 Y38.228 E0.51540
G1 X51.665 Y40.077 E0.53523
G1 X51.855 Y42.000 E0.55506
G1 X51.665 Y43.922 E0.57487
G1 X51.104 Y45.771 E0.59470
G1 X50.194 Y47.474 E0.61452
G1 X48.996 Y48.934 E0.63389
G1 X48.681 Y48.881 F1200.000
G1 X48.651 Y48.651 F1200.000
G1 X47.226 Y49.821 E0.65281 F600.000
G1 X45.600 Y50.691 E0.67173
G1 X43.835 Y51.226 E0.69065
G1 X42.000 Y51.406 E0.70958
G1 X40.165 Y51.226 E0.72849
G1 X38.400 Y50.691 E0.74741
G1 X36.774 Y49.821 E0.76633
G1 X35.348 Y48.651 E0.78526
G1 X34.178 Y47.225 E0.80418
G1 X33.310 Y45.599 E0.82310
G1 X32.774 Y43.834 E0.84203
G1 X32.593 Y42.000 E0.86094
G1 X32.774 Y40.165 E0.87987
G1 X33.310 Y38.400 E0.89879
G1 X34.178 Y36.774 E0.91771
G1 X35.348 Y35.349 E0.93663
G1 X36.774 Y34.179 E0.95555
G1 X38.400 Y33.309 E0.97447
G1 X40.165 Y32.774 E0.99340
G1 X42.000 Y32.594 E1.01231
G1 X43.780 Y32.769 E1.03067
G1 X45.600 Y33.309 E1.05015 F600.000
G1 X47.226 Y34.179 E1.06907
G1 X48.651 Y35.349 E1.08799
G1 X49.821 Y36.774 E1.10691
G1 X50.690 Y38.400 E1.12583
G1 X51.225 Y40.165 E1.14475
G1 X51.407 Y42.000 E1.16367
G1 X51.225 Y43.834 E1.18259
G1 X50.690 Y45.599 E1.20151
G1 X49.821 Y47.225 E1.22043
G1 X48.679 Y48.617 E1.23890
G1 X48.254 Y48.255 F1200.000
G1 X46.914 Y49.354 E1.25668 F600.000
G1 X45.385 Y50.172 E1.27448
G1 X43.725 Y50.675 E1.29227
G1 X41.999 Y50.845 E1.31007
G1 X40.274 Y50.675 E1.32786
G1 X38.615 Y50.172 E1.34565
G1 X37.086 Y49.354 E1.36344
G1 X35.745 Y48.255 E1.38124
G1 X34.646 Y46.914 E1.39903
G1 X33.827 Y45.384 E1.41683
G1 X33.324 Y43.725 E1.43462
G1 X33.154 Y42.000 E1.45241
G1 X33.324 Y40.274 E1.47020
G1 X33.827 Y38.615 E1.48799
G1 X34.646 Y37.085 E1.50579
G1 X35.745 Y35.745 E1.52358
G1 X37.086 Y34.645 E1.54138
G1 X38.615 Y33.828 E1.55917
G1 X40.274 Y33.325 E1.57696
G1 X41.870 Y33.167 E1.59341
G1 X41.999 Y33.154 E1.59475 F600.000
G1 X43.726 Y33.325 E1.61254
G1 X45.385 Y33.828 E1.63033
G1 X46.914 Y34.645 E1.64813
G1 X48.254 Y35.745 E1.66592
G1 X49.354 Y37.085 E1.68371
G1 X50.172 Y38.615 E1.70151
G1 X50.675 Y40.274 E1.71929
G1 X50.846 Y42.000 E1.73709
G1 X50.675 Y43.725 E1.75488
G1 X50.172 Y45.384 E1.77267
G1 X49.354 Y46.914 E1.79046
G1 X48.283 Y48.220 E1.80780
G1 X48.322 Y48.547 F1200.000
G1 X48.599 Y48.538 F1200.000
G1 X47.163 Y49.727 E1.82693 F600.000
G1 X45.556 Y50.586 E1.84563
G1 X43.813 Y51.115 E1.86433
G1 X41.999 Y51.294 E1.88302
G1 X40.187 Y51.115 E1.90171
G1 X38.444 Y50.586 E1.92041
G1 X36.837 Y49.727 E1.93911
G1 X35.428 Y48.572 E1.95780
G1 X34.273 Y47.163 E1.97650
G1 X33.413 Y45.556 E1.99520
G1 X32.884 Y43.812 E2.01389
G1 X32.706 Y42.000 E2.03258
G1 X32.884 Y40.187 E2.05128
G1 X33.413 Y38.443 E2.06997
G1 X34.273 Y36.836 E2.08867
G1 X35.428 Y35.428 E2.10736
G1 X36.837 Y34.272 E2.12606
G1 X38.444 Y33.414 E2.14476
G1 X40.187 Y32.885 E2.16345
G1 X41.826 Y32.722 E2.18035
G1 X41.999 Y32.705 E2.18214 F600.000
G1 X43.813 Y32.885 E2.20084
G1 X45.556 Y33.414 E2.21953
G1 X47.163 Y34.272 E2.23823
G1 X48.571 Y35.428 E2.25692
G1 X49.727 Y36.836 E2.27561
G1 X50.586 Y38.443 E2.29431
G1 X51.115 Y40.186 E2.31300
G1 X51.294 Y42.000 E2.33170
G1 X51.115 Y43.813 E2.35039
G1 X50.586 Y45.556 E2.36908
G1 X49.727 Y47.163 E2.38778
G1 X48.628 Y48.503 E2.40557
G10 ; retract
G92 E0
G1 Z0.550 F1200.000
G1 X49.108 Y48.955 F1200.000
G11 ; unretract
G92 E0
G1 X49.039 Y49.039 E0.00071 F480.000
G1 X47.531 Y50.278 E0.01339
G1 X45.810 Y51.198 E0.02608
G1 X43.942 Y51.764 E0.03876
G1 X42.000 Y51.955 E0.05145
G1 X40.058 Y51.764 E0.06413
G1 X38.190 Y51.198 E0.07682
G1 X36.469 Y50.278 E0.08950
G1 X34.960 Y49.039 E0.10219
G1 X33.722 Y47.530 E0.11488
G1 X32.803 Y45.809 E0.12756
G1 X32.235 Y43.942 E0.14025
G1 X32.044 Y42.000 E0.15293
G1 X32.235 Y40.057 E0.16562
G1 X32.803 Y38.190 E0.17831
G1 X33.722 Y36.469 E0.19099
G1 X34.960 Y34.961 E0.20367
G1 X36.469 Y33.722 E0.21636
G1 X38.190 Y32.802 E0.22905
G1 X40.058 Y32.236 E0.24173
G1 X42.000 Y32.045 E0.25441
G1 X43.563 Y32.198 E0.26462
G1 X43.942 Y32.236 E0.26710 F480.000
G1 X45.810 Y32.802 E0.27979
G1 X47.531 Y33.722 E0.29247
G1 X49.039 Y34.961 E0.30516
G1 X50.277 Y36.469 E0.31784
G1 X51.197 Y38.190 E0.33052
G1 X51.764 Y40.057 E0.34321
G1 X51.956 Y42.000 E0.35590
G1 X51.764 Y43.942 E0.36858
G1 X51.197 Y45.809 E0.38127
G1 X50.277 Y47.530 E0.39395
G1 X49.137 Y48.920 E0.40564
G1 X49.001 Y48.937 F1200.000
G1 X48.920 Y48.801 F1200.000
G1 X48.866 Y48.867 E0.40623 F480.000
G1 X47.395 Y50.075 E0.41939
G1 X45.716 Y50.972 E0.43255
G1 X43.894 Y51.525 E0.44571
G1 X42.000 Y51.711 E0.45887
G1 X40.106 Y51.525 E0.47203
G1 X38.284 Y50.972 E0.48520
G1 X36.605 Y50.075 E0.49836
G1 X35.133 Y48.867 E0.51152
G1 X33.925 Y47.395 E0.52469
G1 X33.028 Y45.716 E0.53785
G1 X32.475 Y43.894 E0.55101
G1 X32.289 Y42.000 E0.56417
G1 X32.475 Y40.105 E0.57733
G1 X33.028 Y38.283 E0.59050
G1 X33.925 Y36.604 E0.60365
G1 X35.133 Y35.133 E0.61681
G1 X36.605 Y33.925 E0.62998
G1 X38.284 Y33.028 E0.64314
G1 X40.106 Y32.475 E0.65630
G1 X42.000 Y32.289 E0.66946
G1 X43.539 Y32.440 E0.68015
G1 X43.894 Y32.475 E0.68263 F480.000
G1 X45.716 Y33.028 E0.69579
G1 X47.395 Y33.925 E0.70895
G1 X48.866 Y35.133 E0.72211
G1 X50.074 Y36.605 E0.73527
G1 X50.972 Y38.283 E0.74843
G1 X51.524 Y40.105 E0.76159
G1 X51.711 Y42.000 E0.77476
G1 X51.524 Y43.894 E0.78792
G1 X50.972 Y45.716 E0.80108
G1 X50.074 Y47.395 E0.81424
G1 X48.949 Y48.766 E0.82651
G1 X48.726 Y48.642 F1200.000
G1 X47.255 Y49.865 E0.83974 F480.000
G1 X45.620 Y50.739 E0.85255
G1 X43.845 Y51.278 E0.86538
G1 X42.000 Y51.459 E0.87820
G1 X40.155 Y51.278 E0.89102
G1 X38.380 Y50.739 E0.90384
G1 X36.745 Y49.865 E0.91666
G1 X35.311 Y48.689 E0.92948
G1 X34.134 Y47.255 E0.94230
G1 X33.261 Y45.619 E0.95512
G1 X32.722 Y43.845 E0.96795
G1 X32.540 Y42.000 E0.98076
G1 X32.722 Y40.154 E0.99358
G1 X33.261 Y38.380 E1.00641
G1 X34.134 Y36.744 E1.01922
G1 X35.311 Y35.311 E1.03204
G1 X36.745 Y34.135 E1.04487
G1 X38.380 Y33.261 E1.05769
G1 X40.155 Y32.722 E1.07051
G1 X42.000 Y32.541 E1.08332
G1 X43.514 Y32.690 E1.09385
G1 X43.845 Y32.722 E1.09615 F480.000
G1 X45.620 Y33.261 E1.10897
G1 X47.255 Y34.135 E1.12179
G1 X48.688 Y35.311 E1.13461
G1 X49.865 Y36.744 E1.14743
G1 X50.739 Y38.380 E1.16025
G1 X51.277 Y40.154 E1.17307
G1 X51.460 Y42.000 E1.18589
G1 X51.277 Y43.845 E1.19871
G1 X50.739 Y45.619 E1.21153
G1 X49.865 Y47.255 E1.22435
G1 X48.755 Y48.607 E1.23645
G1 X48.183 Y48.184 F1200.000
G1 X46.858 Y49.270 E1.24758 F480.000
G1 X45.346 Y50.079 E1.25873
G1 X43.706 Y50.577 E1.26987
G1 X41.999 Y50.745 E1.28102
G1 X40.294 Y50.577 E1.29216
G1 X38.654 Y50.079 E1.30330
G1 X37.142 Y49.270 E1.31444
G1 X35.816 Y48.184 E1.32559
G1 X34.729 Y46.858 E1.33673
G1 X33.920 Y45.346 E1.34788
G1 X33.423 Y43.705 E1.35902
G1 X33.255 Y42.000 E1.37016
G1 X33.423 Y40.294 E1.38130
G1 X33.920 Y38.653 E1.39244
G1 X34.729 Y37.141 E1.40359
G1 X35.816 Y35.816 E1.41473
G1 X37.142 Y34.729 E1.42587
G1 X38.654 Y33.921 E1.43702
G1 X40.294 Y33.423 E1.44816
G1 X41.650 Y33.289 E1.45701
G1 X41.999 Y33.254 E1.45930 F480.000
G1 X43.706 Y33.423 E1.47044
G1 X45.346 Y33.921 E1.48159
G1 X46.858 Y34.729 E1.49273
G1 X48.183 Y35.816 E1.50387
G1 X49.271 Y37.141 E1.51501
G1 X50.079 Y38.653 E1.52616
G1 X50.576 Y40.294 E1.53730
G1 X50.745 Y42.000 E1.54844
G1 X50.576 Y43.705 E1.55958
G1 X50.079 Y45.346 E1.57073
G1 X49.271 Y46.858 E1.58187
G1 X48.212 Y48.149 E1.59272
G1 X48.251 Y48.476 F1200.000
G1 X48.371 Y48.338 F1200.000
G1 X46.994 Y49.473 E1.60506 F480.000
G1 X45.440 Y50.305 E1.61725
G1 X43.754 Y50.816 E1.62943
G1 X41.999 Y50.989 E1.64162
G1 X40.246 Y50.816 E1.65380
G1 X38.560 Y50.305 E1.66598
G1 X37.006 Y49.473 E1.67817
G1 X35.643 Y48.356 E1.69035
G1 X34.526 Y46.993 E1.70253
G1 X33.695 Y45.439 E1.71472
G1 X33.183 Y43.753 E1.72690
G1 X33.010 Y42.000 E1.73908
G1 X33.183 Y40.246 E1.75127
G1 X33.695 Y38.560 E1.76345
G1 X34.526 Y37.006 E1.77564
G1 X35.643 Y35.644 E1.78782
G1 X37.006 Y34.526 E1.80000
G1 X38.560 Y33.695 E1.81219
G1 X40.246 Y33.184 E1.82437
G1 X41.626 Y33.047 E1.83395
G1 X41.999 Y33.010 E1.83655 F480.000
G1 X43.754 Y33.184 E1.84874
G1 X45.440 Y33.695 E1.86092
G1 X46.994 Y34.526 E1.87310
G1 X48.356 Y35.644 E1.88528
G1 X49.474 Y37.006 E1.89747
G1 X50.304 Y38.560 E1.90965
G1 X50.816 Y40.246 E1.92183
G1 X50.990 Y42.000 E1.93402
G1 X50.816 Y43.753 E1.94620
G1 X50.304 Y45.439 E1.95838
G1 X49.474 Y46.993 E1.97056
G1 X48.400 Y48.303 E1.98228
G1 X48.565 Y48.497 F1200.000
G1 X47.134 Y49.683 E1.99513 F480.000
G1 X45.536 Y50.538 E2.00765
G1 X43.803 Y51.063 E2.02018
G1 X41.999 Y51.241 E2.03270
G1 X40.197 Y51.063 E2.04522
G1 X38.464 Y50.538 E2.05775
G1 X36.866 Y49.683 E2.07028
G1 X35.465 Y48.534 E2.08280
G1 X34.317 Y47.133 E2.09533
G1 X33.462 Y45.536 E2.10785
G1 X32.936 Y43.802 E2.12038
G1 X32.759 Y42.000 E2.13290
G1 X32.936 Y40.197 E2.14543
G1 X33.462 Y38.463 E2.15795
G1 X34.317 Y36.866 E2.17048
G1 X35.465 Y35.466 E2.18300
G1 X36.866 Y34.316 E2.19553
G1 X38.464 Y33.462 E2.20805
G1 X40.197 Y32.937 E2.22057
G1 X41.601 Y32.798 E2.23033
G1 X41.999 Y32.758 E2.23310 F480.000
G1 X43.803 Y32.937 E2.24562
G1 X45.536 Y33.462 E2.25815
G1 X47.134 Y34.316 E2.27067
G1 X48.534 Y35.466 E2.28320
G1 X49.683 Y36.866 E2.29572
G1 X50.537 Y38.464 E2.30824
G1 X51.063 Y40.197 E2.32077
G1 X51.241 Y42.000 E2.33330
G1 X51.063 Y43.802 E2.34582
G1 X50.537 Y45.535 E2.35834
G1 X49.683 Y47.133 E2.37086
G1 X48.593 Y48.462 E2.38275
G10 ; retract
G92 E0
G1 Z0.850 F1200.000
G1 X49.114 Y48.948 F1200.000
G11 ; unretract
G92 E0
G1 X49.039 Y49.039 E0.00077 F480.000
G1 X47.531 Y50.278 E0.01346
G1 X45.810 Y51.198 E0.02614
G1 X43.942 Y51.764 E0.03883
G1 X42.000 Y51.955 E0.05151
G1 X40.058 Y51.764 E0.06420
G1 X38.190 Y51.198 E0.07688
G1 X36.469 Y50.278 E0.08957
G1 X34.960 Y49.039 E0.10226
G1 X33.722 Y47.530 E0.11494
G1 X32.803 Y45.809 E0.12763
G1 X32.235 Y43.942 E0.14031
G1 X32.044 Y42.000 E0.15300
G1 X32.235 Y40.057 E0.16568
G1 X32.803 Y38.190 E0.17837
G1 X33.722 Y36.469 E0.19105
G1 X34.960 Y34.961 E0.20374
G1 X36.469 Y33.722 E0.21643
G1 X38.190 Y32.802 E0.22911
G1 X40.058 Y32.236 E0.24180
G1 X42.000 Y32.045 E0.25448
G1 X43.267 Y32.169 E0.26276
G1 X43.942 Y32.236 E0.26717 F480.000
G1 X45.810 Y32.802 E0.27985
G1 X47.531 Y33.722 E0.29254
G1 X49.039 Y34.961 E0.30522
G1 X50.277 Y36.469 E0.31790
G1 X51.197 Y38.190 E0.33059
G1 X51.764 Y40.057 E0.34327
G1 X51.956 Y42.000 E0.35596
G1 X51.764 Y43.942 E0.36864
G1 X51.197 Y45.809 E0.38133
G1 X50.277 Y47.530 E0.39402
G1 X49.143 Y48.913 E0.40564
G1 X48.997 Y48.928 F1200.000
G1 X48.926 Y48.793 F1200.000
G1 X48.866 Y48.867 E0.40630 F480.000
G1 X47.395 Y50.075 E0.41946
G1 X45.716 Y50.972 E0.43262
G1 X43.894 Y51.525 E0.44578
G1 X42.000 Y51.711 E0.45894
G1 X40.106 Y51.525 E0.47210
G1 X38.284 Y50.972 E0.48526
G1 X36.605 Y50.075 E0.49842
G1 X35.133 Y48.867 E0.51159
G1 X33.925 Y47.395 E0.52475
G1 X33.028 Y45.716 E0.53791
G1 X32.475 Y43.894 E0.55108
G1 X32.289 Y42.000 E0.56424
G1 X32.475 Y40.105 E0.57740
G1 X33.028 Y38.283 E0.59056
G1 X33.925 Y36.604 E0.60372
G1 X35.133 Y35.133 E0.61688
G1 X36.605 Y33.925 E0.63005
G1 X38.284 Y33.028 E0.64321
G1 X40.106 Y32.475 E0.65637
G1 X42.000 Y32.289 E0.66953
G1 X43.243 Y32.411 E0.67817
G1 X43.894 Y32.475 E0.68269 F480.000
G1 X45.716 Y33.028 E0.69586
G1 X47.395 Y33.925 E0.70902
G1 X48.866 Y35.133 E0.72218
G1 X50.074 Y36.605 E0.73534
G1 X50.972 Y38.283 E0.74850
G1 X51.524 Y40.105 E0.76166
G1 X51.711 Y42.000 E0.77483
G1 X51.524 Y43.894 E0.78798
G1 X50.972 Y45.716 E0.80115
G1 X50.074 Y47.395 E0.81431
G1 X48.955 Y48.759 E0.82651
G1 X48.733 Y48.634 F1200.000
G1 X48.688 Y48.689 E0.82699 F480.000
G1 X47.255 Y49.865 E0.83981
G1 X45.620 Y50.739 E0.85263
G1 X43.845 Y51.278 E0.86545
G1 X42.000 Y51.459 E0.87827
G1 X40.155 Y51.278 E0.89109
G1 X38.380 Y50.739 E0.90391
G1 X36.745 Y49.865 E0.91673
G1 X35.311 Y48.689 E0.92956
G1 X34.134 Y47.255 E0.94238
G1 X33.261 Y45.619 E0.95520
G1 X32.722 Y43.845 E0.96802
G1 X32.540 Y42.000 E0.98084
G1 X32.722 Y40.154 E0.99366
G1 X33.261 Y38.380 E1.00648
G1 X34.134 Y36.744 E1.01930
G1 X35.311 Y35.311 E1.03212
G1 X36.745 Y34.135 E1.04494
G1 X38.380 Y33.261 E1.05776
G1 X40.155 Y32.722 E1.07058
G1 X42.000 Y32.541 E1.08340
G1 X43.219 Y32.661 E1.09187
G1 X43.845 Y32.722 E1.09622 F480.000
G1 X45.620 Y33.261 E1.10904
G1 X47.255 Y34.135 E1.12186
G1 X48.688 Y35.311 E1.13468
G1 X49.865 Y36.744 E1.14750
G1 X50.739 Y38.380 E1.16032
G1 X51.277 Y40.154 E1.17314
G1 X51.460 Y42.000 E1.18597
G1 X51.277 Y43.845 E1.19878
G1 X50.739 Y45.619 E1.21160
G1 X49.865 Y47.255 E1.22442
G1 X48.761 Y48.600 E1.23645
