; generated by Slic3r 1.2.9 on 2016-08-09 at 11:59:15

; external perimeters extrusion width = 0.30mm
; perimeters extrusion width = 0.31mm
; infill extrusion width = 0.31mm
; solid infill extrusion width = 0.31mm
; top infill extrusion width = 0.31mm

M104 S200 ; set temperature
;<-- Mini Metal Maker Start Procedure -->
G21 ; set units to millimeters
G28 ; home all axes
G90 ; use absolute coordinates
G92 E0
M82 ; use absolute distances for extrusion
G1 Z0.6 F5000 ; lift nozzle to printing start height
G92 Z0
G1 Z0.5 ; raise tip enough for pressurization flow to begin
G1 X70.000 ; offset from X to do the pressurization procedure
G5 X0.000, F900.000 E5.00000 ; return to home while pressurizing
G92 E0 ; set pressurized state as the zero reference for extruder
M106 ; turn on fan
;<--end Mini Metal Maker Start Procedure -->

M109 S200 ; wait for temperature to be reached
G21 ; set units to millimeters
G90 ; use absolute coordinates
M82 ; use absolute distances for extrusion
G92 E0
G10 ; retract
G92 E0
G1 Z0.250 F1200.000
G1 X29.644 Y29.644 F1200.000
G11 ; unretract
G92 E0
G1 X30.092 Y29.197 E0.00650 F600.000
G1 X31.768 Y27.822 E0.02874
G1 X32.818 Y27.120 E0.04170
G1 X34.730 Y26.098 E0.06394
G1 X35.898 Y25.615 E0.07691
G1 X37.972 Y24.986 E0.09915
G1 X39.209 Y24.739 E0.11210
G1 X41.366 Y24.526 E0.13434
G1 X42.633 Y24.526 E0.14734
G1 X44.724 Y24.733 E0.16891
G1 X46.028 Y24.986 E0.18254 F600.000
G1 X48.102 Y25.615 E0.20478
G1 X49.270 Y26.098 E0.21775
G1 X51.182 Y27.120 E0.23999
G1 X52.232 Y27.822 E0.25295
G1 X53.908 Y29.197 E0.27519
G1 X54.803 Y30.092 E0.28818
G1 X56.178 Y31.768 E0.31043
G1 X56.880 Y32.818 E0.32338
G1 X57.902 Y34.730 E0.34563
G1 X58.385 Y35.898 E0.35860
G1 X59.014 Y37.972 E0.38084
G1 X59.261 Y39.209 E0.39379
G1 X59.474 Y41.366 E0.41603
G1 X59.474 Y42.633 E0.42902
G1 X59.261 Y44.791 E0.45127
G1 X59.014 Y46.028 E0.46422
G1 X58.385 Y48.102 E0.48646
G1 X57.902 Y49.270 E0.49943
G1 X56.880 Y51.182 E0.52168
G1 X56.178 Y52.232 E0.53464
G1 X54.803 Y53.908 E0.55688
G1 X53.908 Y54.803 E0.56987
G1 X52.232 Y56.178 E0.59211
G1 X51.182 Y56.880 E0.60507
G1 X49.270 Y57.902 E0.62732
G1 X48.102 Y58.385 E0.64029
G1 X46.028 Y59.014 E0.66253
G1 X44.791 Y59.261 E0.67548
G1 X42.633 Y59.474 E0.69773
G1 X41.366 Y59.474 E0.71072
G1 X39.209 Y59.261 E0.73297
G1 X37.972 Y59.014 E0.74591
G1 X35.898 Y58.385 E0.76815
G1 X34.730 Y57.902 E0.78112
G1 X32.818 Y56.880 E0.80337
G1 X31.768 Y56.178 E0.81632
G1 X30.092 Y54.803 E0.83857
G1 X29.197 Y53.908 E0.85156
G1 X27.822 Y52.232 E0.87380
G1 X27.120 Y51.182 E0.88676
G1 X26.098 Y49.270 E0.90901
G1 X25.615 Y48.102 E0.92198
G1 X24.986 Y46.028 E0.94422
G1 X24.739 Y44.791 E0.95716
G1 X24.526 Y42.633 E0.97942
G1 X24.526 Y41.366 E0.99241
G1 X24.739 Y39.209 E1.01465
G1 X24.986 Y37.972 E1.02760
G1 X25.615 Y35.898 E1.04984
G1 X26.098 Y34.730 E1.06281
G1 X27.120 Y32.818 E1.08506
G1 X27.822 Y31.768 E1.09801
G1 X29.197 Y30.092 E1.12026
G1 X29.612 Y29.676 E1.12629
G10 ; retract
G92 E0
G1 X49.642 Y49.642 F1200.000
G11 ; unretract
G92 E0
G1 X48.004 Y50.986 E0.02174 F600.000
G1 X46.135 Y51.984 E0.04348
G1 X44.108 Y52.599 E0.06521
G1 X42.000 Y52.807 E0.08696
G1 X39.892 Y52.599 E0.10869
G1 X37.865 Y51.984 E0.13043
G1 X35.996 Y50.986 E0.15217
G1 X34.358 Y49.642 E0.17391
G1 X33.014 Y48.004 E0.19565
G1 X32.016 Y46.135 E0.21739
G1 X31.401 Y44.108 E0.23912
G1 X31.193 Y42.000 E0.26087
G1 X31.401 Y39.892 E0.28260
G1 X32.016 Y37.865 E0.30434
G1 X33.014 Y35.996 E0.32608
G1 X34.358 Y34.358 E0.34782
G1 X35.996 Y33.014 E0.36956
G1 X37.865 Y32.016 E0.39130
G1 X39.892 Y31.401 E0.41303
G1 X42.000 Y31.193 E0.43477
G1 X44.067 Y31.397 E0.45608
G1 X46.135 Y32.016 E0.47824 F600.000
G1 X48.004 Y33.014 E0.49998
G1 X49.642 Y34.358 E0.52172
G1 X50.986 Y35.996 E0.54346
G1 X51.984 Y37.865 E0.56520
G1 X52.599 Y39.892 E0.58693
G1 X52.807 Y42.000 E0.60867
G1 X52.599 Y44.108 E0.63041
G1 X51.984 Y46.135 E0.65215
G1 X50.986 Y48.004 E0.67389
G1 X49.670 Y49.607 E0.69517
G1 X49.355 Y49.555 F1200.000
G1 X49.325 Y49.325 F1200.000
G1 X47.755 Y50.613 E0.71600 F600.000
G1 X45.964 Y51.570 E0.73684
G1 X44.021 Y52.159 E0.75767
G1 X42.000 Y52.359 E0.77852
G1 X39.979 Y52.159 E0.79935
G1 X38.036 Y51.570 E0.82018
G1 X36.245 Y50.613 E0.84102
G1 X34.675 Y49.325 E0.86186
G1 X33.387 Y47.755 E0.88269
G1 X32.430 Y45.964 E0.90353
G1 X31.841 Y44.021 E0.92437
G1 X31.641 Y42.000 E0.94521
G1 X31.841 Y39.979 E0.96604
G1 X32.430 Y38.036 E0.98687
G1 X33.387 Y36.245 E1.00771
G1 X34.675 Y34.675 E1.02855
G1 X36.245 Y33.387 E1.04939
G1 X38.036 Y32.430 E1.07022
G1 X39.979 Y31.841 E1.09106
G1 X42.000 Y31.641 E1.11189
G1 X44.021 Y31.841 E1.13273
G1 X45.964 Y32.430 E1.15356 F600.000
G1 X47.755 Y33.387 E1.17440
G1 X49.325 Y34.675 E1.19524
G1 X50.613 Y36.245 E1.21608
G1 X51.570 Y38.036 E1.23692
G1 X52.159 Y39.979 E1.25775
G1 X52.359 Y42.000 E1.27858
G1 X52.159 Y44.021 E1.29942
G1 X51.570 Y45.964 E1.32026
G1 X50.613 Y47.755 E1.34110
G1 X49.353 Y49.290 E1.36147
G1 X48.576 Y48.576 F1200.000
G1 X47.166 Y49.732 E1.38018 F600.000
G1 X45.533 Y50.605 E1.39918
G1 X43.814 Y51.121 E1.41760
G1 X41.999 Y51.300 E1.43631
G1 X40.185 Y51.121 E1.45501
G1 X38.441 Y50.592 E1.47371
G1 X36.833 Y49.732 E1.49242
G1 X35.424 Y48.576 E1.51113
G1 X34.268 Y47.166 E1.52984
G1 X33.408 Y45.559 E1.54854
G1 X32.879 Y43.815 E1.56724
G1 X32.700 Y41.999 E1.58596
G1 X32.879 Y40.185 E1.60466
G1 X33.408 Y38.441 E1.62337
G1 X34.268 Y36.833 E1.64208
G1 X35.424 Y35.424 E1.66078
G1 X36.833 Y34.268 E1.67948
G1 X38.441 Y33.408 E1.69820
G1 X40.185 Y32.879 E1.71690
G1 X41.999 Y32.700 E1.73560 F600.000
G1 X43.815 Y32.879 E1.75432
G1 X45.559 Y33.408 E1.77302
G1 X47.166 Y34.268 E1.79172
G1 X48.576 Y35.424 E1.81043
G1 X49.732 Y36.833 E1.82914
G1 X50.592 Y38.441 E1.84785
G1 X51.121 Y40.185 E1.86655
G1 X51.300 Y41.999 E1.88525
G1 X51.121 Y43.815 E1.90397
G1 X50.592 Y45.559 E1.92267
G1 X49.732 Y47.166 E1.94137
G1 X48.605 Y48.541 E1.95962
G1 X48.644 Y48.868 F1200.000
G1 X48.921 Y48.859 F1200.000
G1 X47.415 Y50.105 E1.97968 F600.000
G1 X45.704 Y51.020 E1.99959
G1 X43.901 Y51.561 E2.01891
G1 X41.999 Y51.748 E2.03852
G1 X40.098 Y51.561 E2.05812
G1 X38.270 Y51.006 E2.07772
G1 X36.584 Y50.105 E2.09734
G1 X35.107 Y48.893 E2.11695
G1 X33.895 Y47.415 E2.13656
G1 X32.994 Y45.730 E2.15616
G1 X32.439 Y43.902 E2.17577
G1 X32.252 Y41.999 E2.19538
G1 X32.439 Y40.098 E2.21499
G1 X32.994 Y38.270 E2.23459
G1 X33.895 Y36.584 E2.25421
G1 X35.107 Y35.107 E2.27381
G1 X36.584 Y33.895 E2.29342
G1 X38.270 Y32.994 E2.31303
G1 X40.098 Y32.439 E2.33264
G1 X41.999 Y32.252 E2.35224 F600.000
G1 X43.902 Y32.439 E2.37186
G1 X45.730 Y32.994 E2.39147
G1 X47.415 Y33.895 E2.41107
G1 X48.893 Y35.107 E2.43068
G1 X50.105 Y36.584 E2.45029
G1 X51.006 Y38.270 E2.46990
G1 X51.561 Y40.098 E2.48951
G1 X51.748 Y41.999 E2.50911
G1 X51.561 Y43.902 E2.52873
G1 X51.006 Y45.730 E2.54834
G1 X50.105 Y47.415 E2.56794
G1 X48.950 Y48.824 E2.58664
G1 X49.156 Y49.052 F1200.000
G1 X49.103 Y49.114 E2.58748 F600.000
G1 X47.578 Y50.363 E2.60771
G1 X45.827 Y51.296 E2.62807
G1 X43.961 Y51.860 E2.64806
G1 X41.991 Y52.053 E2.66838
G1 X40.039 Y51.860 E2.68851
G1 X38.153 Y51.288 E2.70873
G1 X36.415 Y50.359 E2.72895
G1 X34.897 Y49.114 E2.74910
G1 X33.641 Y47.585 E2.76940
G1 X32.712 Y45.847 E2.78962
G1 X32.142 Y43.969 E2.80976
G1 X31.947 Y41.992 E2.83015
G1 X32.140 Y40.039 E2.85028 F600.000
G1 X32.710 Y38.161 E2.87042
G1 X33.637 Y36.421 E2.89065
G1 X34.891 Y34.891 E2.91095
G1 X36.415 Y33.641 E2.93117
G1 X38.161 Y32.710 E2.95147
G1 X40.039 Y32.140 E2.97161
G1 X41.991 Y31.947 E2.99174
G1 X43.961 Y32.140 E3.01206
G1 X45.847 Y32.712 E3.03228
G1 X47.585 Y33.641 E3.05250
G1 X49.114 Y34.897 E3.07280
G1 X50.359 Y36.415 E3.09294
G1 X51.284 Y38.146 E3.11309
G1 X51.860 Y40.039 E3.13339
G1 X52.053 Y42.000 E3.15360
G1 X51.858 Y43.969 E3.17391
G1 X51.284 Y45.854 E3.19413
G1 X50.359 Y47.585 E3.21427
G1 X49.185 Y49.017 E3.23327
G10 ; retract
G92 E0
G1 Z0.550 F1200.000
G1 X49.813 Y49.591 F1200.000
G11 ; unretract
G92 E0
G1 X49.713 Y49.713 E0.00103 F480.000
G1 X48.060 Y51.069 E0.01493
G1 X46.174 Y52.077 E0.02883
G1 X44.128 Y52.698 E0.04272
G1 X42.000 Y52.908 E0.05662
G1 X39.872 Y52.698 E0.07052
G1 X37.826 Y52.077 E0.08442
G1 X35.940 Y51.069 E0.09832
G1 X34.287 Y49.713 E0.11222
G1 X32.931 Y48.060 E0.12611
G1 X31.923 Y46.174 E0.14001
G1 X31.302 Y44.128 E0.15391
G1 X31.092 Y42.000 E0.16781
G1 X31.302 Y39.872 E0.18171
G1 X31.923 Y37.826 E0.19560
G1 X32.931 Y35.940 E0.20950
G1 X34.287 Y34.287 E0.22340
G1 X35.940 Y32.931 E0.23730
G1 X37.826 Y31.923 E0.25120
G1 X39.872 Y31.302 E0.26510
G1 X42.000 Y31.092 E0.27899
G1 X43.930 Y31.283 E0.29161
G1 X44.128 Y31.302 E0.29290 F480.000
G1 X46.174 Y31.923 E0.30679
G1 X48.060 Y32.931 E0.32069
G1 X49.713 Y34.287 E0.33459
G1 X51.069 Y35.940 E0.34849
G1 X52.077 Y37.826 E0.36239
G1 X52.698 Y39.872 E0.37629
G1 X52.908 Y42.000 E0.39018
G1 X52.698 Y44.128 E0.40409
G1 X52.077 Y46.174 E0.41798
G1 X51.069 Y48.060 E0.43188
G1 X49.842 Y49.556 E0.44446
G1 X49.657 Y49.565 F1200.000
G1 X49.625 Y49.437 F1200.000
G1 X49.540 Y49.540 E0.44539 F480.000
G1 X47.924 Y50.866 E0.45984
G1 X46.080 Y51.852 E0.47429
G1 X44.080 Y52.458 E0.48874
G1 X42.000 Y52.663 E0.50320
G1 X39.920 Y52.458 E0.51765
G1 X37.920 Y51.852 E0.53210
G1 X36.076 Y50.866 E0.54655
G1 X34.460 Y49.540 E0.56100
G1 X33.134 Y47.924 E0.57546
G1 X32.148 Y46.080 E0.58991
G1 X31.542 Y44.080 E0.60436
G1 X31.337 Y42.000 E0.61882
G1 X31.542 Y39.920 E0.63327
G1 X32.148 Y37.920 E0.64772
G1 X33.134 Y36.076 E0.66217
G1 X34.460 Y34.460 E0.67662
G1 X36.076 Y33.134 E0.69108
G1 X37.920 Y32.148 E0.70553
G1 X39.920 Y31.542 E0.71998
G1 X42.000 Y31.337 E0.73443
G1 X43.906 Y31.525 E0.74768
G1 X44.080 Y31.542 E0.74888 F480.000
G1 X46.080 Y32.148 E0.76333
G1 X47.924 Y33.134 E0.77779
G1 X49.540 Y34.460 E0.79224
G1 X50.866 Y36.076 E0.80669
G1 X51.852 Y37.920 E0.82115
G1 X52.458 Y39.920 E0.83560
G1 X52.663 Y42.000 E0.85005
G1 X52.458 Y44.080 E0.86450
G1 X51.852 Y46.080 E0.87895
G1 X50.866 Y47.924 E0.89341
G1 X49.654 Y49.402 E0.90662
G1 X49.431 Y49.278 F1200.000
G1 X49.362 Y49.362 E0.90738 F480.000
G1 X47.784 Y50.657 E0.92149
G1 X45.984 Y51.619 E0.93560
G1 X44.031 Y52.211 E0.94971
G1 X42.000 Y52.412 E0.96382
G1 X39.969 Y52.211 E0.97793
G1 X38.016 Y51.619 E0.99204
G1 X36.216 Y50.657 E1.00615
G1 X34.638 Y49.362 E1.02026
G1 X33.343 Y47.784 E1.03437
G1 X32.381 Y45.984 E1.04849
G1 X31.789 Y44.031 E1.06260
G1 X31.588 Y42.000 E1.07671
G1 X31.789 Y39.969 E1.09082
G1 X32.381 Y38.016 E1.10493
G1 X33.343 Y36.216 E1.11904
G1 X34.638 Y34.638 E1.13315
G1 X36.216 Y33.343 E1.14726
G1 X38.016 Y32.381 E1.16137
G1 X39.969 Y31.789 E1.17548
G1 X42.000 Y31.588 E1.18959
G1 X43.882 Y31.774 E1.20267
G1 X44.031 Y31.789 E1.20371 F480.000
G1 X45.984 Y32.381 E1.21781
G1 X47.784 Y33.343 E1.23193
G1 X49.362 Y34.638 E1.24604
G1 X50.657 Y36.216 E1.26015
G1 X51.619 Y38.016 E1.27426
G1 X52.211 Y39.969 E1.28837
G1 X52.412 Y42.000 E1.30248
G1 X52.211 Y44.031 E1.31659
G1 X51.619 Y45.984 E1.33070
G1 X50.657 Y47.784 E1.34481
G1 X49.460 Y49.243 E1.35786
G1 X48.505 Y48.505 F1200.000
G1 X47.110 Y49.649 E1.36958 F480.000
G1 X45.520 Y50.499 E1.38130
G1 X43.795 Y51.022 E1.39302
G1 X41.999 Y51.199 E1.40475
G1 X40.205 Y51.022 E1.41647
G1 X38.480 Y50.499 E1.42819
G1 X36.889 Y49.649 E1.43991
G1 X35.495 Y48.505 E1.45163
G1 X34.351 Y47.110 E1.46336
G1 X33.501 Y45.520 E1.47508
G1 X32.978 Y43.795 E1.48680
G1 X32.801 Y41.999 E1.49852
G1 X32.978 Y40.205 E1.51024
G1 X33.501 Y38.480 E1.52196
G1 X34.351 Y36.889 E1.53369
G1 X35.495 Y35.495 E1.54541
G1 X36.889 Y34.351 E1.55713
G1 X38.480 Y33.501 E1.56885
G1 X40.205 Y32.978 E1.58057
G1 X41.811 Y32.819 E1.59106
G1 X41.999 Y32.801 E1.59229 F480.000
G1 X43.795 Y32.978 E1.60402
G1 X45.520 Y33.501 E1.61574
G1 X47.110 Y34.351 E1.62746
G1 X48.505 Y35.495 E1.63918
G1 X49.649 Y36.889 E1.65090
G1 X50.499 Y38.480 E1.66263
G1 X51.022 Y40.205 E1.67435
G1 X51.199 Y41.999 E1.68607
G1 X51.022 Y43.795 E1.69779
G1 X50.499 Y45.520 E1.70951
G1 X49.649 Y47.110 E1.72123
G1 X48.534 Y48.470 E1.73266
G1 X48.573 Y48.797 F1200.000
G1 X48.659 Y48.693 F1200.000
G1 X47.246 Y49.852 E1.74530 F480.000
G1 X45.614 Y50.724 E1.75810
G1 X43.843 Y51.262 E1.77089
G1 X41.999 Y51.444 E1.78370
G1 X40.157 Y51.262 E1.79649
G1 X38.386 Y50.724 E1.80929
G1 X36.753 Y49.852 E1.82209
G1 X35.322 Y48.678 E1.83489
G1 X34.148 Y47.246 E1.84769
G1 X33.276 Y45.614 E1.86049
G1 X32.738 Y43.843 E1.87328
G1 X32.556 Y41.999 E1.88609
G1 X32.738 Y40.157 E1.89889
G1 X33.276 Y38.386 E1.91168
G1 X34.148 Y36.753 E1.92448
G1 X35.322 Y35.322 E1.93728
G1 X36.753 Y34.148 E1.95008
G1 X38.386 Y33.276 E1.96288
G1 X40.157 Y32.738 E1.97568
G1 X41.787 Y32.577 E1.98700
G1 X41.999 Y32.556 E1.98848 F480.000
G1 X43.843 Y32.738 E2.00128
G1 X45.614 Y33.276 E2.01408
G1 X47.246 Y34.148 E2.02687
G1 X48.678 Y35.322 E2.03967
G1 X49.852 Y36.753 E2.05247
G1 X50.724 Y38.386 E2.06527
G1 X51.262 Y40.157 E2.07807
G1 X51.444 Y41.999 E2.09087
G1 X51.262 Y43.843 E2.10367
G1 X50.724 Y45.614 E2.11647
G1 X49.852 Y47.246 E2.12927
G1 X48.691 Y48.662 E2.14192
G1 X48.818 Y48.887 F1200.000
G1 X47.386 Y50.061 E2.15473 F480.000
G1 X45.710 Y50.957 E2.16787
G1 X43.892 Y51.509 E2.18100
G1 X41.999 Y51.695 E2.19415
G1 X40.108 Y51.509 E2.20729
G1 X38.290 Y50.957 E2.22043
G1 X36.613 Y50.061 E2.23357
G1 X35.144 Y48.856 E2.24671
G1 X33.939 Y47.386 E2.25985
G1 X33.043 Y45.710 E2.27299
G1 X32.491 Y43.892 E2.28613
G1 X32.305 Y41.999 E2.29927
G1 X32.491 Y40.108 E2.31241
G1 X33.043 Y38.290 E2.32555
G1 X33.939 Y36.613 E2.33869
G1 X35.144 Y35.144 E2.35183
G1 X36.613 Y33.939 E2.36497
G1 X38.290 Y33.043 E2.37811
G1 X40.108 Y32.491 E2.39125
G1 X41.763 Y32.328 E2.40274
G1 X41.999 Y32.305 E2.40439 F480.000
G1 X43.892 Y32.491 E2.41754
G1 X45.710 Y33.043 E2.43067
G1 X47.386 Y33.939 E2.44381
G1 X48.856 Y35.144 E2.45695
G1 X50.061 Y36.613 E2.47009
G1 X50.957 Y38.290 E2.48324
G1 X51.509 Y40.108 E2.49638
G1 X51.695 Y41.999 E2.50951
G1 X51.509 Y43.892 E2.52266
G1 X50.957 Y45.710 E2.53580
G1 X50.061 Y47.386 E2.54893
G1 X48.853 Y48.858 E2.56211
G1 X49.014 Y49.408 F1200.000
G1 X49.408 Y49.014 E2.56598 F480.000
G1 X50.177 Y47.532 F1200.000
G1 X51.080 Y46.630 E2.57484 F480.000
G1 X50.586 Y46.767 E2.57840
G1 X51.489 Y45.865 E2.58726
G1 X50.995 Y46.002 E2.59082
G1 X51.646 Y45.351 E2.59722
G1 X51.205 Y45.436 E2.60034
G1 X51.801 Y44.840 E2.60620
G1 X51.360 Y44.925 E2.60932
G1 X51.956 Y44.329 E2.61517
G1 X51.515 Y44.414 E2.61829
G1 X52.083 Y43.845 E2.62388
G1 X52.122 Y43.450 E2.62663
G1 X51.652 Y43.921 E2.63125
G1 X51.691 Y43.526 E2.63401
G1 X52.161 Y43.055 E2.63863
G1 X52.200 Y42.660 E2.64139
G1 X51.730 Y43.131 E2.64601
G1 X51.769 Y42.736 E2.64877
G1 X52.239 Y42.265 E2.65339
G1 X52.265 Y41.884 E2.65605
G1 X51.808 Y42.341 E2.66053
G1 X51.827 Y41.965 E2.66315
G1 X52.233 Y41.560 E2.66713
G1 X52.201 Y41.236 E2.66939
G1 X51.796 Y41.641 E2.67337
G1 X51.764 Y41.317 E2.67563
G1 X52.169 Y40.912 E2.67961
G1 X52.137 Y40.587 E2.68187
G1 X51.732 Y40.992 E2.68585
G1 X51.700 Y40.668 E2.68811
G1 X52.105 Y40.263 E2.69209
G1 X52.070 Y39.941 E2.69434
G1 X51.668 Y40.344 E2.69830
G1 X51.619 Y40.036 E2.70046
G1 X51.988 Y39.668 E2.70408
G1 X51.905 Y39.395 E2.70606
G1 X51.537 Y39.763 E2.70968
G1 X51.454 Y39.490 E2.71166
G1 X51.822 Y39.122 E2.71528
G1 X51.739 Y38.849 E2.71726
G1 X51.371 Y39.217 E2.72088
G1 X51.288 Y38.944 E2.72286
G1 X51.656 Y38.575 E2.72648
G1 X51.573 Y38.302 E2.72846
G1 X51.205 Y38.670 E2.73208
G1 X51.122 Y38.397 E2.73406
G1 X51.489 Y38.030 E2.73767
G1 X51.365 Y37.798 E2.73949
G1 X51.017 Y38.146 E2.74291
G1 X50.893 Y37.914 E2.74474
G1 X51.241 Y37.566 E2.74815
G1 X51.117 Y37.334 E2.74998
G1 X50.769 Y37.682 E2.75340
G1 X50.645 Y37.450 E2.75523
G1 X50.993 Y37.102 E2.75864
G1 X50.869 Y36.870 E2.76047
G1 X50.521 Y37.217 E2.76388
G1 X50.397 Y36.985 E2.76571
G1 X50.745 Y36.638 E2.76912
G1 X50.621 Y36.406 E2.77095
G1 X50.273 Y36.753 E2.77436
G1 X50.144 Y36.527 E2.77618
G1 X50.482 Y36.189 E2.77950
G1 X50.321 Y35.993 E2.78125
G1 X49.983 Y36.331 E2.78458
G1 X49.823 Y36.136 E2.78633
G1 X50.161 Y35.798 E2.78966
G1 X50.000 Y35.602 E2.79141
G1 X49.662 Y35.940 E2.79473
G1 X49.502 Y35.745 E2.79649
G1 X49.840 Y35.406 E2.79981
G1 X49.679 Y35.211 E2.80157
G1 X49.341 Y35.549 E2.80489
G1 X49.181 Y35.353 E2.80665
