; generated by Slic3r 1.2.9 on 2016-08-09 at 13:24:18

; external perimeters extrusion width = 0.30mm
; perimeters extrusion width = 0.31mm
; infill extrusion width = 0.31mm
; solid infill extrusion width = 0.31mm
; top infill extrusion width = 0.31mm

M104 S200 ; set temperature
;<-- Mini Metal Maker Start Procedure -->
G21 ; set units to millimeters
G28 ; home all axes
G90 ; use absolute coordinates
G92 E0
M82 ; use absolute distances for extrusion
G1 Z0.6 F5000 ; lift nozzle to printing start height
G92 Z0
G1 Z0.5 ; raise tip enough for pressurization flow to begin
G1 X70.000 ; offset from X to do the pressurization procedure
G5 X0.000, F900.000 E5.00000 ; return to home while pressurizing
G92 E0 ; set pressurized state as the zero reference for extruder
M106 ; turn on fan
;<--end Mini Metal Maker Start Procedure -->

M109 S200 ; wait for temperature to be reached
G21 ; set units to millimeters
G90 ; use absolute coordinates
M82 ; use absolute distances for extrusion
G92 E0
G10 ; retract
G92 E0
G1 Z0.250 F1200.000
G1 X29.310 Y29.310 F1200.000
G11 ; unretract
G92 E0
G1 X29.756 Y28.863 E0.00648 F600.000
G1 X31.503 Y27.429 E0.02967
G1 X32.554 Y26.727 E0.04264
G1 X34.548 Y25.661 E0.06584
G1 X35.716 Y25.177 E0.07881
G1 X37.879 Y24.521 E0.10201
G1 X39.117 Y24.275 E0.11496
G1 X41.367 Y24.053 E0.13816
G1 X42.633 Y24.053 E0.15115
G1 X44.883 Y24.275 E0.17435 F600.000
G1 X46.121 Y24.521 E0.18730
G1 X48.284 Y25.177 E0.21049
G1 X49.452 Y25.661 E0.22347
G1 X51.446 Y26.727 E0.24667
G1 X52.497 Y27.429 E0.25964
G1 X54.244 Y28.863 E0.28283
G1 X55.137 Y29.756 E0.29579
G1 X56.571 Y31.503 E0.31898
G1 X57.273 Y32.554 E0.33195
G1 X58.339 Y34.548 E0.35515
G1 X58.823 Y35.716 E0.36812
G1 X59.479 Y37.879 E0.39132
G1 X59.725 Y39.117 E0.40427
G1 X59.947 Y41.367 E0.42747
G1 X59.947 Y42.633 E0.44046
G1 X59.725 Y44.883 E0.46366
G1 X59.479 Y46.121 E0.47661
G1 X58.823 Y48.284 E0.49980
G1 X58.338 Y49.453 E0.51279
G1 X57.272 Y51.446 E0.53598
G1 X56.572 Y52.495 E0.54892
G1 X55.138 Y54.243 E0.57212
G1 X54.244 Y55.137 E0.58509
G1 X52.497 Y56.571 E0.60828
G1 X51.446 Y57.273 E0.62125
G1 X49.452 Y58.339 E0.64445
G1 X48.284 Y58.823 E0.65743
G1 X46.121 Y59.479 E0.68062
G1 X44.883 Y59.725 E0.69358
G1 X42.633 Y59.947 E0.71677
G1 X41.367 Y59.947 E0.72976
G1 X39.117 Y59.725 E0.75296
G1 X37.879 Y59.479 E0.76592
G1 X35.716 Y58.823 E0.78911
G1 X34.548 Y58.339 E0.80209
G1 X32.554 Y57.273 E0.82529
G1 X31.503 Y56.571 E0.83825
G1 X29.756 Y55.137 E0.86145
G1 X28.862 Y54.243 E0.87442
G1 X27.428 Y52.495 E0.89762
G1 X26.728 Y51.446 E0.91056
G1 X25.662 Y49.453 E0.93375
G1 X25.177 Y48.284 E0.94674
G1 X24.521 Y46.121 E0.96993
G1 X24.275 Y44.883 E0.98288
G1 X24.053 Y42.633 E1.00608
G1 X24.053 Y41.367 E1.01907
G1 X24.275 Y39.117 E1.04227
G1 X24.521 Y37.879 E1.05522
G1 X25.177 Y35.716 E1.07842
G1 X25.661 Y34.548 E1.09139
G1 X26.727 Y32.554 E1.11459
G1 X27.429 Y31.503 E1.12756
G1 X28.863 Y29.756 E1.15075
G1 X29.278 Y29.341 E1.15677
G10 ; retract
G92 E0
G1 X49.976 Y49.976 F1200.000
G11 ; unretract
G92 E0
G1 X48.267 Y51.379 E0.02269 F600.000
G1 X46.317 Y52.422 E0.04538
G1 X44.201 Y53.064 E0.06807
G1 X42.000 Y53.281 E0.09076
G1 X39.799 Y53.064 E0.11346
G1 X37.683 Y52.422 E0.13615
G1 X35.733 Y51.379 E0.15884
G1 X34.024 Y49.976 E0.18153
G1 X32.621 Y48.266 E0.20422
G1 X31.578 Y46.317 E0.22691
G1 X30.936 Y44.201 E0.24960
G1 X30.719 Y42.000 E0.27229
G1 X30.936 Y39.799 E0.29499
G1 X31.578 Y37.683 E0.31767
G1 X32.621 Y35.733 E0.34037
G1 X34.024 Y34.024 E0.36306
G1 X35.733 Y32.621 E0.38574
G1 X37.683 Y31.578 E0.40844
G1 X39.799 Y30.936 E0.43113
G1 X42.000 Y30.719 E0.45382
G1 X44.087 Y30.925 E0.47534
G1 X44.201 Y30.936 E0.47652 F600.000
G1 X46.317 Y31.578 E0.49920
G1 X48.267 Y32.621 E0.52190
G1 X49.976 Y34.024 E0.54459
G1 X51.379 Y35.733 E0.56727
G1 X52.422 Y37.683 E0.58997
G1 X53.064 Y39.799 E0.61266
G1 X53.281 Y42.000 E0.63535
G1 X53.064 Y44.201 E0.65804
G1 X52.422 Y46.317 E0.68073
G1 X51.379 Y48.266 E0.70342
G1 X50.005 Y49.942 E0.72565
G1 X49.689 Y49.889 F1200.000
G1 X49.659 Y49.659 F1200.000
G1 X48.018 Y51.006 E0.74744 F600.000
G1 X46.145 Y52.008 E0.76923
G1 X44.113 Y52.624 E0.79102
G1 X42.000 Y52.832 E0.81281
G1 X39.887 Y52.624 E0.83460
G1 X37.855 Y52.008 E0.85639
G1 X35.982 Y51.006 E0.87818
G1 X34.341 Y49.659 E0.89996
G1 X32.994 Y48.017 E0.92176
G1 X31.992 Y46.145 E0.94354
G1 X31.376 Y44.113 E0.96533
G1 X31.168 Y42.000 E0.98712
G1 X31.376 Y39.887 E1.00891
G1 X31.992 Y37.855 E1.03070
G1 X32.994 Y35.982 E1.05249
G1 X34.341 Y34.341 E1.07427
G1 X35.982 Y32.994 E1.09606
G1 X37.855 Y31.992 E1.11785
G1 X39.887 Y31.376 E1.13964
G1 X42.000 Y31.168 E1.16143
G1 X44.043 Y31.369 E1.18250
G1 X44.113 Y31.376 E1.18322 F600.000
G1 X46.145 Y31.992 E1.20501
G1 X48.018 Y32.994 E1.22680
G1 X49.659 Y34.341 E1.24859
G1 X51.006 Y35.982 E1.27037
G1 X52.008 Y37.855 E1.29216
G1 X52.624 Y39.887 E1.31395
G1 X52.832 Y42.000 E1.33574
G1 X52.624 Y44.113 E1.35753
G1 X52.008 Y46.145 E1.37932
G1 X51.006 Y48.017 E1.40110
G1 X49.688 Y49.624 E1.42244
G1 X49.263 Y49.263 F1200.000
G1 X47.706 Y50.540 E1.44310 F600.000
G1 X45.930 Y51.489 E1.46376
G1 X44.004 Y52.073 E1.48441
G1 X42.000 Y52.271 E1.50508
G1 X39.996 Y52.073 E1.52574
G1 X38.070 Y51.489 E1.54639
G1 X36.293 Y50.540 E1.56706
G1 X34.737 Y49.263 E1.58772
G1 X33.460 Y47.706 E1.60838
G1 X32.511 Y45.930 E1.62904
G1 X31.927 Y44.004 E1.64969
G1 X31.729 Y42.000 E1.67036
G1 X31.927 Y39.996 E1.69102
G1 X32.511 Y38.070 E1.71167
G1 X33.460 Y36.293 E1.73234
G1 X34.737 Y34.737 E1.75300
G1 X36.293 Y33.460 E1.77366
G1 X38.070 Y32.511 E1.79432
G1 X39.996 Y31.927 E1.81498
G1 X40.141 Y31.912 E1.81647
G1 X42.000 Y31.729 E1.83564 F600.000
G1 X44.004 Y31.927 E1.85630
G1 X45.930 Y32.511 E1.87696
G1 X47.706 Y33.460 E1.89761
G1 X49.263 Y34.737 E1.91828
G1 X50.540 Y36.293 E1.93894
G1 X51.489 Y38.070 E1.95960
G1 X52.073 Y39.996 E1.98026
G1 X52.271 Y42.000 E2.00092
G1 X52.073 Y44.004 E2.02159
G1 X51.489 Y45.930 E2.04224
G1 X50.540 Y47.706 E2.06290
G1 X49.291 Y49.228 E2.08310
G1 X49.331 Y49.555 F1200.000
G1 X49.608 Y49.546 F1200.000
G1 X47.955 Y50.913 E2.10511 F600.000
G1 X46.102 Y51.903 E2.12667
G1 X44.092 Y52.513 E2.14823
G1 X42.000 Y52.720 E2.16979
G1 X39.908 Y52.513 E2.19136
G1 X37.898 Y51.903 E2.21291
G1 X36.044 Y50.913 E2.23448
G1 X34.420 Y49.580 E2.25604
G1 X33.087 Y47.955 E2.27761
G1 X32.097 Y46.102 E2.29917
G1 X31.487 Y44.092 E2.32073
G1 X31.280 Y42.000 E2.34229
G1 X31.487 Y39.908 E2.36386
G1 X32.097 Y37.898 E2.38541
G1 X33.087 Y36.044 E2.40698
G1 X34.420 Y34.420 E2.42854
G1 X36.044 Y33.087 E2.45010
G1 X37.898 Y32.097 E2.47167
G1 X39.908 Y31.487 E2.49323
G1 X40.097 Y31.468 E2.49517
G1 X42.000 Y31.280 E2.51479 F600.000
G1 X44.092 Y31.487 E2.53636
G1 X46.102 Y32.097 E2.55791
G1 X47.955 Y33.087 E2.57947
G1 X49.580 Y34.420 E2.60104
G1 X50.913 Y36.044 E2.62260
G1 X51.903 Y37.898 E2.64417
G1 X52.513 Y39.908 E2.66572
G1 X52.720 Y42.000 E2.68729
G1 X52.513 Y44.092 E2.70886
G1 X51.903 Y46.102 E2.73041
G1 X50.913 Y47.955 E2.75197
G1 X49.636 Y49.511 E2.77263
G10 ; retract
G92 E0
G1 Z0.550 F1200.000
G1 X50.117 Y49.963 F1200.000
G11 ; unretract
G92 E0
G1 X50.047 Y50.047 E0.00071 F480.000
G1 X48.323 Y51.463 E0.01521
G1 X46.355 Y52.515 E0.02971
G1 X44.221 Y53.162 E0.04421
G1 X42.000 Y53.381 E0.05872
G1 X39.779 Y53.162 E0.07322
G1 X37.645 Y52.515 E0.08772
G1 X35.677 Y51.463 E0.10222
G1 X33.953 Y50.047 E0.11672
G1 X32.537 Y48.322 E0.13123
G1 X31.485 Y46.355 E0.14573
G1 X30.838 Y44.221 E0.16023
G1 X30.619 Y42.000 E0.17473
G1 X30.838 Y39.779 E0.18923
G1 X31.485 Y37.645 E0.20373
G1 X32.537 Y35.677 E0.21824
G1 X33.953 Y33.953 E0.23274
G1 X35.677 Y32.537 E0.24724
G1 X37.645 Y31.485 E0.26174
G1 X39.779 Y30.838 E0.27624
G1 X42.000 Y30.619 E0.29075
G1 X43.793 Y30.796 E0.30246
G1 X44.221 Y30.838 E0.30525 F480.000
G1 X46.355 Y31.485 E0.31975
G1 X48.323 Y32.537 E0.33425
G1 X50.047 Y33.953 E0.34875
G1 X51.463 Y35.677 E0.36325
G1 X52.515 Y37.645 E0.37776
G1 X53.162 Y39.779 E0.39226
G1 X53.381 Y42.000 E0.40676
G1 X53.162 Y44.221 E0.42127
G1 X52.515 Y46.355 E0.43577
G1 X51.463 Y48.322 E0.45026
G1 X50.145 Y49.928 E0.46377
G1 X50.009 Y49.945 F1200.000
G1 X49.929 Y49.809 F1200.000
G1 X49.875 Y49.875 E0.46436 F480.000
G1 X48.188 Y51.260 E0.47945
G1 X46.262 Y52.289 E0.49454
G1 X44.173 Y52.923 E0.50964
G1 X42.000 Y53.137 E0.52473
G1 X39.827 Y52.923 E0.53983
G1 X37.738 Y52.289 E0.55492
G1 X35.812 Y51.260 E0.57002
G1 X34.125 Y49.875 E0.58511
G1 X32.740 Y48.187 E0.60020
G1 X31.711 Y46.262 E0.61530
G1 X31.077 Y44.173 E0.63039
G1 X30.863 Y42.000 E0.64548
G1 X31.077 Y39.827 E0.66058
G1 X31.711 Y37.738 E0.67567
G1 X32.740 Y35.812 E0.69077
G1 X34.125 Y34.125 E0.70586
G1 X35.812 Y32.740 E0.72095
G1 X37.738 Y31.711 E0.73605
G1 X39.827 Y31.077 E0.75114
G1 X42.000 Y30.863 E0.76623
G1 X43.769 Y31.038 E0.77853
G1 X44.173 Y31.077 E0.78133 F480.000
G1 X46.262 Y31.711 E0.79642
G1 X48.188 Y32.740 E0.81152
G1 X49.875 Y34.125 E0.82661
G1 X51.260 Y35.812 E0.84170
G1 X52.289 Y37.738 E0.85680
G1 X52.923 Y39.827 E0.87189
G1 X53.137 Y42.000 E0.88699
G1 X52.923 Y44.173 E0.90208
G1 X52.289 Y46.262 E0.91717
G1 X51.260 Y48.187 E0.93227
G1 X49.957 Y49.774 E0.94646
G1 X49.735 Y49.650 F1200.000
G1 X48.048 Y51.050 E0.96162 F480.000
G1 X46.165 Y52.056 E0.97638
G1 X44.124 Y52.676 E0.99113
G1 X42.000 Y52.885 E1.00588
G1 X39.876 Y52.676 E1.02064
G1 X37.835 Y52.056 E1.03539
G1 X35.952 Y51.050 E1.05014
G1 X34.303 Y49.697 E1.06489
G1 X32.950 Y48.047 E1.07965
G1 X31.944 Y46.165 E1.09440
G1 X31.324 Y44.124 E1.10915
G1 X31.115 Y42.000 E1.12390
G1 X31.324 Y39.876 E1.13866
G1 X31.944 Y37.835 E1.15341
G1 X32.950 Y35.952 E1.16817
G1 X34.303 Y34.303 E1.18292
G1 X35.952 Y32.950 E1.19767
G1 X37.835 Y31.944 E1.21242
G1 X39.876 Y31.324 E1.22717
G1 X42.000 Y31.115 E1.24193
G1 X43.745 Y31.287 E1.25405
G1 X44.124 Y31.324 E1.25668 F480.000
G1 X46.165 Y31.944 E1.27143
G1 X48.048 Y32.950 E1.28619
G1 X49.697 Y34.303 E1.30094
G1 X51.050 Y35.952 E1.31569
G1 X52.056 Y37.835 E1.33044
G1 X52.676 Y39.876 E1.34519
G1 X52.885 Y42.000 E1.35995
G1 X52.676 Y44.124 E1.37470
G1 X52.056 Y46.165 E1.38945
G1 X51.050 Y48.047 E1.40420
G1 X49.763 Y49.615 E1.41823
G1 X49.192 Y49.192 F1200.000
G1 X47.650 Y50.456 E1.43119 F480.000
G1 X45.892 Y51.396 E1.44415
G1 X43.984 Y51.975 E1.45711
G1 X42.000 Y52.171 E1.47007
G1 X40.016 Y51.975 E1.48303
G1 X38.108 Y51.396 E1.49598
G1 X36.349 Y50.456 E1.50895
G1 X34.808 Y49.192 E1.52190
G1 X33.544 Y47.650 E1.53487
G1 X32.604 Y45.892 E1.54782
G1 X32.025 Y43.984 E1.56078
G1 X31.829 Y42.000 E1.57374
G1 X32.025 Y40.016 E1.58670
G1 X32.604 Y38.108 E1.59966
G1 X33.544 Y36.349 E1.61262
G1 X34.808 Y34.808 E1.62558
G1 X36.349 Y33.544 E1.63854
G1 X38.108 Y32.604 E1.65150
G1 X40.016 Y32.025 E1.66445
G1 X40.415 Y31.986 E1.66706
G1 X42.000 Y31.829 E1.67742 F480.000
G1 X43.984 Y32.025 E1.69038
G1 X45.892 Y32.604 E1.70333
G1 X47.650 Y33.544 E1.71629
G1 X49.192 Y34.808 E1.72925
G1 X50.456 Y36.349 E1.74221
G1 X51.396 Y38.108 E1.75517
G1 X51.975 Y40.016 E1.76813
G1 X52.171 Y42.000 E1.78109
G1 X51.975 Y43.984 E1.79405
G1 X51.396 Y45.892 E1.80701
G1 X50.456 Y47.650 E1.81997
G1 X49.220 Y49.157 E1.83264
G1 X49.260 Y49.484 F1200.000
G1 X49.346 Y49.380 F1200.000
G1 X47.785 Y50.659 E1.84659 F480.000
G1 X45.985 Y51.622 E1.86070
G1 X44.032 Y52.214 E1.87481
G1 X42.000 Y52.415 E1.88893
G1 X39.968 Y52.214 E1.90305
G1 X38.015 Y51.622 E1.91716
G1 X36.214 Y50.659 E1.93128
G1 X34.636 Y49.364 E1.94539
G1 X33.341 Y47.785 E1.95951
G1 X32.378 Y45.985 E1.97363
G1 X31.786 Y44.032 E1.98774
G1 X31.585 Y42.000 E2.00185
G1 X31.786 Y39.968 E2.01597
G1 X32.378 Y38.015 E2.03008
G1 X33.341 Y36.214 E2.04420
G1 X34.636 Y34.636 E2.05832
G1 X36.214 Y33.341 E2.07243
G1 X38.015 Y32.378 E2.08655
G1 X39.968 Y31.786 E2.10066
G1 X40.391 Y31.744 E2.10360
G1 X42.000 Y31.585 E2.11478 F480.000
G1 X44.032 Y31.786 E2.12890
G1 X45.985 Y32.378 E2.14301
G1 X47.785 Y33.341 E2.15712
G1 X49.364 Y34.636 E2.17124
G1 X50.659 Y36.214 E2.18535
G1 X51.622 Y38.015 E2.19947
G1 X52.214 Y39.968 E2.21358
G1 X52.415 Y42.000 E2.22770
G1 X52.214 Y44.032 E2.24182
G1 X51.622 Y45.985 E2.25593
G1 X50.659 Y47.785 E2.27004
G1 X49.378 Y49.348 E2.28402
G1 X49.505 Y49.573 F1200.000
G1 X47.925 Y50.869 E2.29814 F480.000
G1 X46.082 Y51.855 E2.31260
G1 X44.081 Y52.461 E2.32705
G1 X42.000 Y52.667 E2.34151
G1 X39.919 Y52.461 E2.35597
G1 X37.918 Y51.855 E2.37042
G1 X36.074 Y50.869 E2.38488
G1 X34.458 Y49.542 E2.39934
G1 X33.131 Y47.925 E2.41380
G1 X32.145 Y46.082 E2.42825
G1 X31.539 Y44.081 E2.44270
G1 X31.333 Y42.000 E2.45716
G1 X31.539 Y39.919 E2.47162
G1 X32.145 Y37.918 E2.48607
G1 X33.131 Y36.074 E2.50053
G1 X34.458 Y34.458 E2.51499
G1 X36.074 Y33.131 E2.52944
G1 X37.918 Y32.145 E2.54391
G1 X39.919 Y31.539 E2.55836
G1 X40.366 Y31.494 E2.56146
G1 X42.000 Y31.333 E2.57282 F480.000
G1 X44.081 Y31.539 E2.58728
G1 X46.082 Y32.145 E2.60173
G1 X47.925 Y33.131 E2.61618
G1 X49.542 Y34.458 E2.63064
G1 X50.869 Y36.074 E2.64510
G1 X51.855 Y37.918 E2.65956
G1 X52.461 Y39.919 E2.67401
G1 X52.667 Y42.000 E2.68847
G1 X52.461 Y44.081 E2.70293
G1 X51.855 Y46.082 E2.71738
G1 X50.869 Y47.925 E2.73184
G1 X49.540 Y49.545 E2.74632
G10 ; retract
G92 E0
G1 Z0.850 F1200.000
G1 X49.956 Y50.123 F1200.000
G11 ; unretract
G92 E0
G1 X48.323 Y51.463 E0.01373 F480.000
G1 X46.355 Y52.515 E0.02823
G1 X44.221 Y53.162 E0.04273
G1 X42.000 Y53.381 E0.05724
G1 X39.779 Y53.162 E0.07174
G1 X37.645 Y52.515 E0.08624
G1 X35.677 Y51.463 E0.10074
G1 X33.953 Y50.047 E0.11524
G1 X32.537 Y48.322 E0.12975
G1 X31.485 Y46.355 E0.14425
G1 X30.838 Y44.221 E0.15875
G1 X30.619 Y42.000 E0.17325
G1 X30.838 Y39.779 E0.18775
G1 X31.485 Y37.645 E0.20225
G1 X32.537 Y35.677 E0.21676
G1 X33.953 Y33.953 E0.23126
G1 X35.677 Y32.537 E0.24576
G1 X37.645 Y31.485 E0.26026
G1 X39.779 Y30.838 E0.27476
G1 X42.000 Y30.619 E0.28927
G1 X43.461 Y30.763 E0.29881
G1 X44.221 Y30.838 E0.30377 F480.000
G1 X46.355 Y31.485 E0.31827
G1 X48.323 Y32.537 E0.33277
G1 X50.047 Y33.953 E0.34727
G1 X51.463 Y35.677 E0.36177
G1 X52.515 Y37.645 E0.37628
G1 X53.162 Y39.779 E0.39078
G1 X53.381 Y42.000 E0.40528
G1 X53.162 Y44.221 E0.41979
G1 X52.515 Y46.355 E0.43429
G1 X51.463 Y48.322 E0.44878
G1 X50.047 Y50.047 E0.46329
G1 X49.990 Y50.094 E0.46377
G1 X49.675 Y50.017 F1200.000
G1 X49.801 Y49.935 F1200.000
G1 X48.188 Y51.260 E0.47820 F480.000
G1 X46.262 Y52.289 E0.49330
G1 X44.173 Y52.923 E0.50839
G1 X42.000 Y53.137 E0.52349
G1 X39.827 Y52.923 E0.53858
G1 X37.738 Y52.289 E0.55368
G1 X35.812 Y51.260 E0.56877
G1 X34.125 Y49.875 E0.58386
G1 X32.740 Y48.187 E0.59896
G1 X31.711 Y46.262 E0.61405
G1 X31.077 Y44.173 E0.62914
G1 X30.863 Y42.000 E0.64424
G1 X31.077 Y39.827 E0.65934
G1 X31.711 Y37.738 E0.67443
G1 X32.740 Y35.812 E0.68952
G1 X34.125 Y34.125 E0.70462
G1 X35.812 Y32.740 E0.71971
G1 X37.738 Y31.711 E0.73480
G1 X39.827 Y31.077 E0.74990
G1 X42.000 Y30.863 E0.76499
G1 X43.437 Y31.005 E0.77498
G1 X44.173 Y31.077 E0.78009 F480.000
G1 X46.262 Y31.711 E0.79518
G1 X48.188 Y32.740 E0.81028
G1 X49.875 Y34.125 E0.82537
G1 X51.260 Y35.812 E0.84046
G1 X52.289 Y37.738 E0.85556
G1 X52.923 Y39.827 E0.87065
G1 X53.137 Y42.000 E0.88574
G1 X52.923 Y44.173 E0.90084
G1 X52.289 Y46.262 E0.91593
G1 X51.260 Y48.187 E0.93102
G1 X49.836 Y49.906 E0.94646
G1 X49.642 Y49.741 F1200.000
G1 X48.048 Y51.050 E0.96072 F480.000
G1 X46.165 Y52.056 E0.97548
G1 X44.124 Y52.676 E0.99023
G1 X42.000 Y52.885 E1.00498
G1 X39.876 Y52.676 E1.01974
G1 X37.835 Y52.056 E1.03449
G1 X35.952 Y51.050 E1.04924
G1 X34.303 Y49.697 E1.06399
G1 X32.950 Y48.047 E1.07875
G1 X31.944 Y46.165 E1.09350
G1 X31.324 Y44.124 E1.10825
G1 X31.115 Y42.000 E1.12300
G1 X31.324 Y39.876 E1.13776
G1 X31.944 Y37.835 E1.15251
G1 X32.950 Y35.952 E1.16727
G1 X34.303 Y34.303 E1.18202
G1 X35.952 Y32.950 E1.19677
G1 X37.835 Y31.944 E1.21152
G1 X39.876 Y31.324 E1.22627
G1 X42.000 Y31.115 E1.24103
G1 X43.413 Y31.254 E1.25084
G1 X44.124 Y31.324 E1.25578 F480.000
G1 X46.165 Y31.944 E1.27053
G1 X48.048 Y32.950 E1.28529
G1 X49.697 Y34.303 E1.30004
G1 X51.050 Y35.952 E1.31479
G1 X52.056 Y37.835 E1.32954
G1 X52.676 Y39.876 E1.34429
G1 X52.885 Y42.000 E1.35905
G1 X52.676 Y44.124 E1.37380
G1 X52.056 Y46.165 E1.38855
G1 X51.050 Y48.047 E1.40330
G1 X49.677 Y49.713 E1.41823
G1 X49.192 Y49.192 F1200.000
