; generated by Slic3r 1.2.9 on 2016-08-09 at 11:39:02

; external perimeters extrusion width = 0.30mm
; perimeters extrusion width = 0.31mm
; infill extrusion width = 0.31mm
; solid infill extrusion width = 0.31mm
; top infill extrusion width = 0.31mm

M104 S200 ; set temperature
;<-- Mini Metal Maker Start Procedure -->
G21 ; set units to millimeters
G28 ; home all axes
G90 ; use absolute coordinates
G92 E0
M82 ; use absolute distances for extrusion
G1 Z0.6 F5000 ; lift nozzle to printing start height
G92 Z0
G1 Z0.5 ; raise tip enough for pressurization flow to begin
G1 X70.000 ; offset from X to do the pressurization procedure
G5 X0.000, F900.000 E5.00000 ; return to home while pressurizing
G92 E0 ; set pressurized state as the zero reference for extruder
M106 ; turn on fan
;<--end Mini Metal Maker Start Procedure -->

M109 S200 ; wait for temperature to be reached
G21 ; set units to millimeters
G90 ; use absolute coordinates
M82 ; use absolute distances for extrusion
G92 E0
G10 ; retract
G92 E0
G1 Z0.250 F1200.000
G1 X29.983 Y29.983 F1200.000
G11 ; unretract
G92 E0
G1 X30.430 Y29.537 E0.00648 F600.000
G1 X32.033 Y28.221 E0.02776
G1 X33.086 Y27.518 E0.04075
G1 X34.915 Y26.541 E0.06203
G1 X36.080 Y26.058 E0.07497
G1 X38.064 Y25.456 E0.09625
G1 X39.305 Y25.209 E0.10923
G1 X41.369 Y25.006 E0.13051
G1 X42.631 Y25.006 E0.14346
G1 X44.695 Y25.209 E0.16474 F600.000
G1 X45.935 Y25.456 E0.17771
G1 X47.920 Y26.058 E0.19900
G1 X49.086 Y26.541 E0.21195
G1 X50.915 Y27.518 E0.23323
G1 X51.968 Y28.221 E0.24623
G1 X53.571 Y29.537 E0.26751
G1 X54.465 Y30.431 E0.28048
G1 X55.780 Y32.034 E0.30175
G1 X56.481 Y33.083 E0.31469
G1 X57.459 Y34.912 E0.33598
G1 X57.943 Y36.081 E0.34896
G1 X58.545 Y38.066 E0.37024
G1 X58.791 Y39.306 E0.38322
G1 X58.994 Y41.370 E0.40450
G1 X58.994 Y42.632 E0.41745
G1 X58.791 Y44.695 E0.43872
G1 X58.545 Y45.934 E0.45169
G1 X57.943 Y47.919 E0.47297
G1 X57.459 Y49.088 E0.48595
G1 X56.481 Y50.917 E0.50724
G1 X55.780 Y51.966 E0.52018
G1 X54.465 Y53.569 E0.54146
G1 X53.571 Y54.463 E0.55442
G1 X51.968 Y55.779 E0.57571
G1 X50.915 Y56.482 E0.58870
G1 X49.086 Y57.459 E0.60998
G1 X47.920 Y57.942 E0.62293
G1 X45.935 Y58.544 E0.64422
G1 X44.695 Y58.791 E0.65719
G1 X42.631 Y58.994 E0.67847
G1 X41.369 Y58.994 E0.69142
G1 X39.305 Y58.791 E0.71270
G1 X38.064 Y58.544 E0.72568
G1 X36.080 Y57.942 E0.74696
G1 X34.915 Y57.459 E0.75990
G1 X33.086 Y56.482 E0.78118
G1 X32.033 Y55.779 E0.79417
G1 X30.430 Y54.463 E0.81546
G1 X29.538 Y53.571 E0.82840
G1 X28.222 Y51.968 E0.84968
G1 X27.518 Y50.915 E0.86268
G1 X26.541 Y49.086 E0.88396
G1 X26.058 Y47.919 E0.89691
G1 X25.456 Y45.934 E0.91819
G1 X25.210 Y44.698 E0.93113
G1 X25.006 Y42.635 E0.95240
G1 X25.006 Y41.366 E0.96542
G1 X25.210 Y39.302 E0.98670
G1 X25.456 Y38.066 E0.99964
G1 X26.058 Y36.081 E1.02093
G1 X26.541 Y34.914 E1.03388
G1 X27.518 Y33.085 E1.05516
G1 X28.222 Y32.032 E1.06815
G1 X29.538 Y30.429 E1.08943
G1 X29.952 Y30.015 E1.09544
G10 ; retract
G92 E0
G1 X49.303 Y49.303 F1200.000
G11 ; unretract
G92 E0
G1 X47.738 Y50.588 E0.02078 F600.000
G1 X45.953 Y51.541 E0.04155
G1 X44.015 Y52.129 E0.06233
G1 X42.000 Y52.327 E0.08310
G1 X39.985 Y52.129 E0.10388
G1 X38.048 Y51.541 E0.12465
G1 X36.263 Y50.588 E0.14542
G1 X34.698 Y49.303 E0.16620
G1 X33.413 Y47.738 E0.18697
G1 X32.459 Y45.952 E0.20774
G1 X31.871 Y44.014 E0.22852
G1 X31.672 Y42.000 E0.24929
G1 X31.871 Y39.986 E0.27007
G1 X32.459 Y38.048 E0.29085
G1 X33.413 Y36.262 E0.31162
G1 X34.698 Y34.697 E0.33240
G1 X36.263 Y33.412 E0.35317
G1 X38.048 Y32.459 E0.37394
G1 X39.985 Y31.871 E0.39471
G1 X42.000 Y31.673 E0.41549
G1 X43.951 Y31.865 E0.43561
G1 X45.954 Y32.459 E0.45704 F600.000
G1 X47.738 Y33.412 E0.47780
G1 X49.303 Y34.697 E0.49858
G1 X50.587 Y36.262 E0.51935
G1 X51.542 Y38.048 E0.54013
G1 X52.130 Y39.985 E0.56091
G1 X52.328 Y42.000 E0.58168
G1 X52.130 Y44.015 E0.60245
G1 X51.542 Y45.952 E0.62323
G1 X50.587 Y47.738 E0.64400
G1 X49.332 Y49.268 E0.66431
G1 X49.016 Y49.216 F1200.000
G1 X48.986 Y48.986 F1200.000
G1 X47.489 Y50.215 E0.68418 F600.000
G1 X45.781 Y51.127 E0.70405
G1 X43.928 Y51.689 E0.72393
G1 X42.000 Y51.879 E0.74381
G1 X40.072 Y51.689 E0.76368
G1 X38.220 Y51.127 E0.78355
G1 X36.512 Y50.215 E0.80342
G1 X35.015 Y48.986 E0.82329
G1 X33.786 Y47.489 E0.84316
G1 X32.873 Y45.781 E0.86303
G1 X32.311 Y43.927 E0.88291
G1 X32.121 Y42.000 E0.90278
G1 X32.311 Y40.073 E0.92265
G1 X32.873 Y38.219 E0.94253
G1 X33.786 Y36.511 E0.96240
G1 X35.015 Y35.014 E0.98227
G1 X36.512 Y33.785 E1.00214
G1 X38.220 Y32.873 E1.02201
G1 X40.072 Y32.311 E1.04188
G1 X42.000 Y32.121 E1.06176
G1 X43.865 Y32.305 E1.08099
G1 X45.783 Y32.874 E1.10152 F600.000
G1 X47.489 Y33.785 E1.12136
G1 X48.986 Y35.014 E1.14124
G1 X50.214 Y36.511 E1.16111
G1 X51.128 Y38.219 E1.18098
G1 X51.690 Y40.073 E1.20086
G1 X51.879 Y42.000 E1.22073
G1 X51.690 Y43.927 E1.24060
G1 X51.128 Y45.781 E1.26047
G1 X50.214 Y47.489 E1.28035
G1 X49.015 Y48.951 E1.29975
G1 X48.255 Y48.254 F1200.000
G1 X46.915 Y49.354 E1.31754 F600.000
G1 X45.385 Y50.172 E1.33534
G1 X43.726 Y50.676 E1.35313
G1 X42.000 Y50.846 E1.37093
G1 X40.275 Y50.676 E1.38872
G1 X38.615 Y50.172 E1.40652
G1 X37.086 Y49.354 E1.42430
G1 X35.745 Y48.254 E1.44210
G1 X34.645 Y46.914 E1.45989
G1 X33.828 Y45.385 E1.47769
G1 X33.325 Y43.726 E1.49548
G1 X33.155 Y42.001 E1.51326
G1 X33.325 Y40.275 E1.53106
G1 X33.813 Y38.643 E1.54854
G1 X34.645 Y37.086 E1.56665
G1 X35.745 Y35.746 E1.58444
G1 X37.086 Y34.646 E1.60224
G1 X38.615 Y33.828 E1.62003
G1 X40.275 Y33.324 E1.63783
G1 X41.947 Y33.160 E1.65507 F600.000
G1 X43.725 Y33.324 E1.67339
G1 X45.385 Y33.828 E1.69120
G1 X46.915 Y34.646 E1.70899
G1 X48.255 Y35.746 E1.72678
G1 X49.355 Y37.086 E1.74457
G1 X50.172 Y38.615 E1.76237
G1 X50.675 Y40.275 E1.78016
G1 X50.845 Y42.001 E1.79795
G1 X50.675 Y43.726 E1.81574
G1 X50.172 Y45.385 E1.83353
G1 X49.355 Y46.914 E1.85132
G1 X48.283 Y48.219 E1.86865
G1 X48.323 Y48.546 F1200.000
G1 X48.600 Y48.537 F1200.000
G1 X47.164 Y49.727 E1.88779 F600.000
G1 X45.557 Y50.586 E1.90648
G1 X43.814 Y51.116 E1.92518
G1 X42.000 Y51.294 E1.94388
G1 X40.187 Y51.116 E1.96257
G1 X38.443 Y50.586 E1.98127
G1 X36.837 Y49.727 E1.99996
G1 X35.428 Y48.571 E2.01866
G1 X34.272 Y47.163 E2.03735
G1 X33.414 Y45.556 E2.05605
G1 X32.885 Y43.813 E2.07474
G1 X32.706 Y42.001 E2.09343
G1 X32.885 Y40.188 E2.11212
G1 X33.399 Y38.472 E2.13050
G1 X34.272 Y36.837 E2.14952
G1 X35.428 Y35.429 E2.16822
G1 X36.837 Y34.273 E2.18692
G1 X38.443 Y33.414 E2.20560
G1 X40.187 Y32.884 E2.22431
G1 X41.946 Y32.711 E2.24244 F600.000
G1 X43.812 Y32.884 E2.26167
G1 X45.557 Y33.414 E2.28039
G1 X47.164 Y34.273 E2.29908
G1 X48.572 Y35.429 E2.31777
G1 X49.728 Y36.837 E2.33647
G1 X50.586 Y38.444 E2.35516
G1 X51.115 Y40.187 E2.37386
G1 X51.294 Y42.001 E2.39255
G1 X51.115 Y43.813 E2.41124
G1 X50.586 Y45.556 E2.42994
G1 X49.728 Y47.163 E2.44863
G1 X48.628 Y48.503 E2.46641
G1 X48.825 Y48.722 F1200.000
G1 X48.774 Y48.783 E2.46723 F600.000
G1 X47.321 Y49.974 E2.48651
G1 X45.669 Y50.856 E2.50572
G1 X43.871 Y51.402 E2.52501
G1 X42.000 Y51.586 E2.54429
G1 X40.137 Y51.403 E2.56350
G1 X38.332 Y50.856 E2.58286
G1 X36.669 Y49.967 E2.60221
G1 X35.222 Y48.779 E2.62142
G1 X34.029 Y47.326 E2.64071
G1 X33.141 Y45.662 E2.66006
G1 X32.598 Y43.870 E2.67928
G1 X32.414 Y42.000 E2.69855
G1 X32.598 Y40.130 E2.71783 F600.000
G1 X33.129 Y38.368 E2.73672
G1 X34.026 Y36.680 E2.75633
G1 X35.222 Y35.221 E2.77569
G1 X36.675 Y34.029 E2.79497
G1 X38.337 Y33.142 E2.81431
G1 X40.130 Y32.598 E2.83353
G1 X41.938 Y32.420 E2.85218
G1 X43.861 Y32.601 E2.87199
G1 X45.672 Y33.145 E2.89140
G1 X47.332 Y34.033 E2.91072
G1 X48.779 Y35.221 E2.92993
G1 X49.967 Y36.669 E2.94914
G1 X50.857 Y38.331 E2.96849
G1 X51.402 Y40.130 E2.98778
G1 X51.586 Y42.000 E3.00706
G1 X51.401 Y43.877 E3.02641
G1 X50.854 Y45.674 E3.04569
G1 X49.971 Y47.326 E3.06491
G1 X48.854 Y48.688 E3.08298
G10 ; retract
G92 E0
G1 Z0.550 F1200.000
G1 X49.473 Y49.254 F1200.000
G11 ; unretract
G92 E0
G1 X49.374 Y49.374 E0.00101 F480.000
G1 X47.794 Y50.671 E0.01430
G1 X45.991 Y51.634 E0.02758
G1 X44.035 Y52.228 E0.04088
G1 X42.000 Y52.428 E0.05416
G1 X39.965 Y52.228 E0.06745
G1 X38.010 Y51.634 E0.08074
G1 X36.207 Y50.671 E0.09402
G1 X34.627 Y49.374 E0.10731
G1 X33.329 Y47.794 E0.12060
G1 X32.366 Y45.991 E0.13389
G1 X31.773 Y44.034 E0.14718
G1 X31.572 Y42.000 E0.16046
G1 X31.773 Y39.966 E0.17375
G1 X32.366 Y38.009 E0.18704
G1 X33.329 Y36.206 E0.20033
G1 X34.627 Y34.626 E0.21362
G1 X36.207 Y33.329 E0.22691
G1 X38.010 Y32.366 E0.24019
G1 X39.965 Y31.772 E0.25348
G1 X42.000 Y31.572 E0.26676
G1 X43.843 Y31.753 E0.27880
G1 X44.035 Y31.772 E0.28005 F480.000
G1 X45.991 Y32.366 E0.29334
G1 X47.794 Y33.329 E0.30663
G1 X49.374 Y34.626 E0.31992
G1 X50.671 Y36.206 E0.33320
G1 X51.635 Y38.009 E0.34649
G1 X52.228 Y39.966 E0.35978
G1 X52.428 Y42.000 E0.37307
G1 X52.228 Y44.034 E0.38636
G1 X51.635 Y45.991 E0.39965
G1 X50.671 Y47.794 E0.41294
G1 X49.501 Y49.219 E0.42492
G1 X49.320 Y49.229 F1200.000
G1 X49.285 Y49.100 F1200.000
G1 X49.202 Y49.201 E0.42583 F480.000
G1 X47.659 Y50.468 E0.43963
G1 X45.898 Y51.409 E0.45343
G1 X43.987 Y51.988 E0.46724
G1 X42.000 Y52.183 E0.48104
G1 X40.013 Y51.988 E0.49484
G1 X38.103 Y51.409 E0.50864
G1 X36.342 Y50.468 E0.52244
G1 X34.799 Y49.201 E0.53625
G1 X33.532 Y47.658 E0.55005
G1 X32.592 Y45.897 E0.56385
G1 X32.012 Y43.986 E0.57766
G1 X31.816 Y42.000 E0.59146
G1 X32.012 Y40.014 E0.60526
G1 X32.592 Y38.103 E0.61907
G1 X33.532 Y36.342 E0.63287
G1 X34.799 Y34.799 E0.64667
G1 X36.342 Y33.532 E0.66047
G1 X38.103 Y32.591 E0.67427
G1 X40.013 Y32.012 E0.68807
G1 X42.000 Y31.817 E0.70188
G1 X43.819 Y31.995 E0.71452
G1 X43.987 Y32.012 E0.71568 F480.000
G1 X45.898 Y32.591 E0.72949
G1 X47.659 Y33.532 E0.74329
G1 X49.202 Y34.799 E0.75709
G1 X50.468 Y36.342 E0.77089
G1 X51.409 Y38.103 E0.78470
G1 X51.989 Y40.014 E0.79850
G1 X52.184 Y42.000 E0.81230
G1 X51.989 Y43.986 E0.82610
G1 X51.409 Y45.897 E0.83991
G1 X50.468 Y47.658 E0.85371
G1 X49.313 Y49.065 E0.86629
G1 X49.091 Y48.941 F1200.000
G1 X49.024 Y49.023 E0.86703 F480.000
G1 X47.519 Y50.259 E0.88049
G1 X45.802 Y51.176 E0.89395
G1 X43.938 Y51.741 E0.90742
G1 X42.000 Y51.932 E0.92088
G1 X40.062 Y51.741 E0.93434
G1 X38.199 Y51.176 E0.94780
G1 X36.482 Y50.259 E0.96126
G1 X34.977 Y49.023 E0.97472
G1 X33.742 Y47.518 E0.98818
G1 X32.825 Y45.801 E1.00164
G1 X32.259 Y43.937 E1.01511
G1 X32.068 Y42.000 E1.02856
G1 X32.259 Y40.063 E1.04203
G1 X32.825 Y38.199 E1.05549
G1 X33.742 Y36.482 E1.06895
G1 X34.977 Y34.977 E1.08241
G1 X36.482 Y33.741 E1.09587
G1 X38.199 Y32.824 E1.10933
G1 X40.062 Y32.259 E1.12279
G1 X42.000 Y32.068 E1.13625
G1 X43.795 Y32.245 E1.14872
G1 X43.938 Y32.259 E1.14972 F480.000
G1 X45.802 Y32.824 E1.16318
G1 X47.519 Y33.741 E1.17664
G1 X49.024 Y34.977 E1.19010
G1 X50.258 Y36.482 E1.20356
G1 X51.176 Y38.199 E1.21702
G1 X51.742 Y40.063 E1.23049
G1 X51.932 Y42.000 E1.24395
G1 X51.742 Y43.937 E1.25741
G1 X51.176 Y45.801 E1.27087
G1 X50.258 Y47.518 E1.28433
G1 X49.120 Y48.906 E1.29674
G1 X48.184 Y48.183 F1200.000
G1 X46.859 Y49.271 E1.30789 F480.000
G1 X45.347 Y50.079 E1.31903
G1 X43.706 Y50.577 E1.33017
G1 X42.000 Y50.745 E1.34132
G1 X40.295 Y50.577 E1.35246
G1 X38.653 Y50.079 E1.36361
G1 X37.142 Y49.271 E1.37474
G1 X35.816 Y48.183 E1.38589
G1 X34.729 Y46.858 E1.39703
G1 X33.921 Y45.346 E1.40818
G1 X33.423 Y43.706 E1.41932
G1 X33.255 Y42.001 E1.43046
G1 X33.423 Y40.294 E1.44160
G1 X33.921 Y38.654 E1.45274
G1 X34.729 Y37.142 E1.46389
G1 X35.816 Y35.817 E1.47503
G1 X37.142 Y34.729 E1.48618
G1 X38.653 Y33.921 E1.49731
G1 X40.295 Y33.423 E1.50846
G1 X41.818 Y33.273 E1.51841
G1 X42.000 Y33.255 E1.51960 F480.000
G1 X43.706 Y33.423 E1.53075
G1 X45.347 Y33.921 E1.54189
G1 X46.859 Y34.729 E1.55303
G1 X48.184 Y35.817 E1.56418
G1 X49.271 Y37.142 E1.57532
G1 X50.079 Y38.654 E1.58646
G1 X50.577 Y40.294 E1.59760
G1 X50.745 Y42.001 E1.60875
G1 X50.577 Y43.706 E1.61989
G1 X50.079 Y45.346 E1.63103
G1 X49.271 Y46.858 E1.64217
G1 X48.212 Y48.148 E1.65302
G1 X48.252 Y48.475 F1200.000
G1 X48.338 Y48.371 F1200.000
G1 X46.994 Y49.474 E1.66504 F480.000
G1 X45.440 Y50.304 E1.67722
G1 X43.754 Y50.817 E1.68941
G1 X42.000 Y50.990 E1.70159
G1 X40.247 Y50.817 E1.71377
G1 X38.560 Y50.304 E1.72596
G1 X37.007 Y49.474 E1.73814
G1 X35.644 Y48.356 E1.75033
G1 X34.526 Y46.994 E1.76251
G1 X33.695 Y45.440 E1.77470
G1 X33.184 Y43.754 E1.78688
G1 X33.011 Y42.001 E1.79906
G1 X33.184 Y40.246 E1.81124
G1 X33.695 Y38.560 E1.82342
G1 X34.526 Y37.006 E1.83561
G1 X35.644 Y35.644 E1.84779
G1 X37.007 Y34.526 E1.85998
G1 X38.560 Y33.696 E1.87216
G1 X40.247 Y33.183 E1.88435
G1 X41.794 Y33.031 E1.89509
G1 X42.000 Y33.010 E1.89653 F480.000
G1 X43.754 Y33.183 E1.90871
G1 X45.440 Y33.696 E1.92090
G1 X46.994 Y34.526 E1.93308
G1 X48.356 Y35.644 E1.94526
G1 X49.474 Y37.006 E1.95744
G1 X50.305 Y38.560 E1.96963
G1 X50.816 Y40.246 E1.98181
G1 X50.989 Y42.001 E1.99400
G1 X50.816 Y43.754 E2.00618
G1 X50.305 Y45.440 E2.01836
G1 X49.474 Y46.994 E2.03054
G1 X48.370 Y48.339 E2.04258
G1 X48.497 Y48.565 F1200.000
G1 X47.134 Y49.683 E2.05477 F480.000
G1 X45.537 Y50.537 E2.06729
G1 X43.803 Y51.064 E2.07982
G1 X42.000 Y51.241 E2.09234
G1 X40.198 Y51.064 E2.10486
G1 X38.463 Y50.537 E2.11740
G1 X36.867 Y49.683 E2.12992
G1 X35.466 Y48.534 E2.14244
G1 X34.316 Y47.134 E2.15497
G1 X33.462 Y45.536 E2.16749
G1 X32.937 Y43.803 E2.18002
G1 X32.759 Y42.001 E2.19254
G1 X32.937 Y40.197 E2.20506
G1 X33.462 Y38.464 E2.21759
G1 X34.316 Y36.866 E2.23011
G1 X35.466 Y35.466 E2.24264
G1 X36.867 Y34.317 E2.25517
G1 X38.463 Y33.463 E2.26768
G1 X40.198 Y32.936 E2.28022
G1 X41.769 Y32.781 E2.29113
G1 X42.000 Y32.759 E2.29274 F480.000
G1 X43.803 Y32.936 E2.30527
G1 X45.537 Y33.463 E2.31779
G1 X47.134 Y34.317 E2.33031
G1 X48.534 Y35.466 E2.34284
G1 X49.684 Y36.866 E2.35536
G1 X50.538 Y38.464 E2.36789
G1 X51.063 Y40.197 E2.38041
G1 X51.241 Y42.001 E2.39294
G1 X51.063 Y43.803 E2.40546
G1 X50.538 Y45.536 E2.41798
G1 X49.684 Y47.134 E2.43051
G1 X48.532 Y48.536 E2.44305
G1 X48.674 Y49.070 F1200.000
G1 X49.069 Y48.675 E2.44694 F480.000
G1 X49.857 Y47.173 F1200.000
G1 X50.699 Y46.332 E2.45523 F480.000
G1 X50.267 Y46.407 E2.45828
G1 X51.072 Y45.601 E2.46622
G1 X50.668 Y45.648 E2.46905
G1 X51.228 Y45.088 E2.47456
G1 X50.824 Y45.135 E2.47740
G1 X51.383 Y44.576 E2.48291
G1 X50.979 Y44.623 E2.48574
G1 X51.539 Y44.064 E2.49125
G1 X51.135 Y44.110 E2.49408
G1 X51.627 Y43.618 E2.49893
G1 X51.666 Y43.222 E2.50170
G1 X51.223 Y43.665 E2.50606
G1 X51.262 Y43.269 E2.50883
G1 X51.705 Y42.826 E2.51319
G1 X51.744 Y42.430 E2.51596
G1 X51.301 Y42.873 E2.52032
G1 X51.340 Y42.477 E2.52309
G1 X51.783 Y42.034 E2.52746
G1 X51.766 Y41.694 E2.52983
G1 X51.379 Y42.081 E2.53365
G1 X51.352 Y41.751 E2.53595
G1 X51.734 Y41.369 E2.53972
G1 X51.703 Y41.044 E2.54199
G1 X51.320 Y41.426 E2.54576
G1 X51.288 Y41.101 E2.54804
G1 X51.671 Y40.719 E2.55180
G1 X51.639 Y40.394 E2.55408
G1 X51.256 Y40.776 E2.55785
G1 X51.224 Y40.451 E2.56012
G1 X51.607 Y40.069 E2.56389
G1 X51.527 Y39.792 E2.56590
G1 X51.178 Y40.140 E2.56933
G1 X51.095 Y39.866 E2.57132
G1 X51.444 Y39.518 E2.57475
G1 X51.361 Y39.244 E2.57675
G1 X51.012 Y39.592 E2.58018
G1 X50.929 Y39.318 E2.58217
G1 X51.278 Y38.970 E2.58561
G1 X51.195 Y38.696 E2.58760
G1 X50.846 Y39.044 E2.59103
G1 X50.763 Y38.771 E2.59302
G1 X51.112 Y38.422 E2.59646
G1 X51.018 Y38.159 E2.59840
G1 X50.680 Y38.497 E2.60173
G1 X50.564 Y38.256 E2.60359
G1 X50.893 Y37.926 E2.60683
G1 X50.769 Y37.694 E2.60867
G1 X50.439 Y38.023 E2.61192
G1 X50.315 Y37.791 E2.61375
G1 X50.645 Y37.461 E2.61700
G1 X50.520 Y37.229 E2.61883
G1 X50.191 Y37.558 E2.62208
G1 X50.066 Y37.325 E2.62392
G1 X50.396 Y36.996 E2.62716
G1 X50.271 Y36.763 E2.62900
G1 X49.942 Y37.093 E2.63224
G1 X49.818 Y36.860 E2.63407
G1 X50.146 Y36.532 E2.63731
G1 X49.985 Y36.336 E2.63907
G1 X49.664 Y36.656 E2.64223
G1 X49.504 Y36.460 E2.64400
G1 X49.824 Y36.139 E2.64716
G1 X49.664 Y35.943 E2.64893
G1 X49.343 Y36.264 E2.65209
G1 X49.182 Y36.068 E2.65385
G1 X49.503 Y35.747 E2.65701
G1 X49.342 Y35.551 E2.65878
G1 X49.021 Y35.872 E2.66194
G1 X48.860 Y35.676 E2.66371
G1 X49.181 Y35.355 E2.66687
G1 X49.015 Y35.164 E2.66863
G1 X48.699 Y35.480 E2.67174
G1 X48.520 Y35.302 E2.67350
